DSAA
301 301
715000.00000000000000000 745000.00000000000000000
4133000.00000000000000000 4163000.00000000000000000
2714.5 4935.84              
3740.49 3771.95 3791.03 3782.71 3738.97 3684 3645.8 3592.07 3549.23 3502.61
3474.59 3465.02 3455.51 3441.17 3378.63 3334.99 3337.13 3340.5 3309.31 3310.51
3366.74 3405.05 3431.86 3501.02 3541.59 3533.56 3534.45 3604.52 3673.33 3714.54
3706.86 3647.76 3629.61 3716.82 3761.27 3764.38 3702.59 3649.24 3625.2 3694.06
3750.16 3811.41 3848.45 3849.99 3791.1 3732.33 3731.73 3780.94 3838.01 3906.06
3953.53 3999.84 4000.87 3991.47 3965.49 3937.23 3900.76 3860.4 3830.62 3802.6
3787 3765.18 3744.01 3727.22 3707.48 3685.53 3645.27 3620.23 3627.5 3624.74
3605.73 3574.69 3536.68 3519.57 3548.21 3599 3659.13 3708.62 3754.79 3794.76
3815.99 3804.45 3734.25 3650.6 3588.37 3657.72 3729.56 3798.61 3876.95 3932.99
3952.35 3936.24 3910.32 3907.89 3950.93 3975.04 3959.46 3883.21 3837.93 3817.12
3813.39 3774.21 3718.81 3636.31 3583.63 3552.14 3575.03 3579.33 3553.95 3490.94
3421.88 3379.05 3288.6 3242.1 3278.82 3326.02 3363.65 3390.89 3334.57 3341.04
3331.8 3278.07 3280.73 3216.33 3174.44 3203.91 3191.97 3178.68 3161.63 3126.04
3089.27 3059.45 3046.27 3009.88 3029.01 3070.5 3103.71 3109.36 3080.3 3159.06
3250.93 3281.67 3290.96 3283.39 3281.52 3225.13 3155.59 3075.52 3029.21 2998.74
2973.91 2974.1 2991.08 2996.49 3004.27 3012.14 3020.05 3037.13 3069.57 3101.39
3104.75 3119.85 3134.22 3146.66 3191.56 3255.05 3285.29 3271.61 3237.65 3206.75
3181.99 3166.57 3151.91 3135.91 3166.59 3188.09 3183.03 3154.38 3122.96 3094.03
3091.7 3100.55 3099.8 3111.45 3105.52 3092.87 3078.85 3072.46 3057.75 3053.03
3044.33 3035.83 3039.42 3034.2 3042.31 3060.5 3069.45 3042.85 3019.71 2998.35
3027.04 3049.68 3083.42 3082.93 3033.92 3016.25 2996.16 2973.37 2946.85 2921.38
2910.06 2905.99 2906.8 2917.45 2929.15 2929.79 2937 2952.13 2967.33 2981.79
2986.08 2974.22 2960.77 2962.71 2978.17 2996.57 3014.04 3013.69 2982.13 2938.92
2904.99 2894.48 2881.63 2885.62 2886.41 2873.19 2898.72 2944.33 2970.42 2963.22
2960.6 2988.05 2985.18 2960.67 2929.17 2908.72 2913.52 2966.6 3007.97 3023.9
3019.64 3015.44 3007.56 2988.17 3009.63 3026.28 3034.77 3027 3016.73 3014.47
3000.62 2973.55 2946.03 2917.53 2900.99 2891.07 2895.64 2866.28 2841.02 2819.88
2809.63 2843.78 2862.07 2859.35 2898.92 2937.77 2968.02 2981.21 2999.61 3039.78
3071.97 3090.47 3075.23 3058.8 3033.11 3012.06 2985.13 2960.25 2937.9 2919.77
2887.12 2856.57 2820.25 2811.41 2808.85 2810.76 2812 2812.7 2812.1 2823.71
2836.92

3766.67 3797.98 3789.99 3752.24 3699.27 3650.27 3610.73 3590.5 3570.69 3553.86
3514.98 3464.01 3418.37 3392.05 3356.31 3353.41 3387.9 3382.65 3340.45 3309.3
3326.21 3360.46 3428.83 3501.89 3506.38 3483.2 3535.56 3607.39 3675.62 3697.52
3662.83 3599.41 3611.3 3683.37 3736.59 3728.71 3679.24 3620.46 3626.54 3697.51
3760.8 3828.43 3856.76 3836.9 3757.82 3708.14 3711.93 3751.48 3822.07 3866.54
3916.72 3970.99 4003.5 4007.8 4000.94 3965.04 3915.91 3871.51 3839.17 3808.6
3781.78 3764.58 3754.81 3738.42 3714.17 3683.18 3657.81 3634.41 3599.09 3596.62
3599.57 3567.84 3540.29 3531.94 3563.62 3620.2 3691.54 3754.99 3801.35 3841.42
3848.46 3799.82 3738.21 3658.3 3602.05 3680.35 3758.35 3816.42 3881.05 3918.83
3914.74 3877.65 3875.8 3921.13 3972.63 3996.57 3976.25 3917.57 3890 3878.93
3864.66 3793.88 3723.34 3662.38 3631.39 3613.91 3620.58 3610.14 3569.01 3521.51
3469.89 3423.89 3291.83 3273.24 3325.75 3376.29 3418.22 3452.6 3402.13 3406.28
3377.36 3344.81 3291.91 3219.57 3207.8 3248.92 3255.89 3252.94 3220.67 3167.79
3123.72 3096.06 3102.5 3045.55 3010.96 3017.98 3048.2 3060.24 3066.49 3156.22
3205.51 3223.5 3228.88 3229.23 3227.83 3166.13 3097.89 3049.22 3010.83 2981.73
2965.11 2974 2980.03 2990.45 2994.07 3004.69 3012.54 3040.5 3075.66 3099.11
3097.42 3098.78 3109 3152.97 3199.09 3256.66 3278.84 3243.88 3205.39 3181.38
3168.25 3143.06 3114.68 3164.8 3175.85 3174.59 3159.19 3139.26 3109.3 3082.78
3065.59 3071.5 3071.75 3114.2 3111.96 3117.13 3118.62 3113.32 3102.72 3092.27
3066.72 3042.32 3027.01 3021.23 3027.97 3055.11 3060.87 3035.84 3018.6 2992.83
3018.54 3070.35 3096.33 3080.96 3026.08 2993.88 2979.86 2951.21 2931.63 2915.75
2906.25 2904.72 2903.96 2912.76 2921.29 2923.95 2933.23 2950.96 2961.17 2969.43
2967.05 2958.59 2955.12 2975.47 2991.4 2998 3003.78 2992.27 2966.8 2942.73
2941.72 2936.51 2905.96 2881.03 2876.29 2865.21 2907.04 2958.25 2970.05 2961.73
2945.29 2973.35 2974.37 2937.83 2915.02 2896.85 2928.27 2967.16 3007.2 3012.02
3002.06 2989.21 2973.28 2984.93 3018.24 3029.89 3033.56 3025.27 3013.71 3018.89
3017.13 3004.47 2983.83 2964.89 2956.48 2941.27 2923.88 2888.34 2855.14 2820.87
2810.38 2829.66 2855.5 2897.26 2927.65 2950.61 2967.96 2967.43 2972.78 3013.55
3045.66 3070.67 3079.84 3068.34 3048.85 3029.66 3007.51 2988.51 2963.66 2936.11
2901.79 2878.3 2834.59 2812 2807.94 2803.47 2808.87 2808.94 2810.96 2811.42
2823.72

3767.37 3797.69 3800.34 3772.08 3730.14 3694.89 3656.34 3619.26 3593 3561.95
3521.46 3469.37 3422.1 3375.66 3382.67 3408.93 3440.63 3431.32 3379.18 3334.91
3320.49 3356.17 3423.62 3484.44 3477.73 3443.84 3518.95 3595.15 3664.86 3667.14
3618.27 3558.02 3599.9 3664.39 3701.54 3698.93 3635.21 3584.45 3629.99 3695.96
3766.86 3832.42 3851.22 3814.2 3742.78 3679.72 3685.38 3724.8 3769.28 3825.82
3886.45 3941.18 3974.15 4003.76 4003.5 3969.55 3918.69 3877.31 3839.85 3810.7
3801.65 3790.42 3770.47 3748.81 3722.86 3703.29 3678.76 3656.64 3618.98 3587.24
3566.51 3558.08 3536.76 3563.12 3602.16 3621.6 3692.59 3763.47 3830.39 3867.17
3873.91 3815.32 3731.66 3666.43 3620.67 3688.31 3761.45 3827.32 3892.18 3900.6
3862.05 3837.43 3867.4 3931.21 3993.42 4031.54 4028.99 3976.65 3926.21 3895.23
3870.1 3812.22 3758.19 3724.89 3702.69 3642.52 3609.96 3589.15 3543.34 3510.03
3472.74 3378.13 3294.17 3315.33 3376.38 3435.3 3482.85 3507.42 3483.32 3458.61
3423.59 3359.37 3288.31 3232.8 3264.14 3304.51 3323.91 3323.62 3259.01 3190.15
3124.31 3149.04 3150.05 3098.14 3045.24 3009.56 2994.34 3012.99 3067.47 3118.14
3137.31 3156.56 3166.86 3162.36 3150.97 3130.5 3093.16 3055.59 3009.99 2970.9
2960.34 2967.45 2975.41 2983.72 2986.05 3002.73 3012.25 3034.97 3055.71 3067.57
3075.73 3083.03 3121.43 3174.82 3219.07 3261.35 3266.37 3229.22 3205.87 3176.48
3140.77 3125.29 3103.55 3164.5 3173.79 3154.94 3124.36 3120.09 3093.01 3070.94
3042.78 3049.75 3067.18 3089.67 3102.37 3128.04 3132.79 3120.43 3116.15 3099.23
3065.29 3050.01 3029.99 3014.98 3012.17 3031.26 3038.04 3039.67 3019.83 2999.47
3006.59 3070.91 3094.68 3084.73 3031.32 2984.63 2964.03 2958.81 2935.03 2913.63
2903.6 2900.33 2898.9 2906.15 2915.84 2920.7 2926.89 2943.2 2950.81 2951.67
2940.9 2932.97 2958.3 2983.74 2991.49 2989.36 2972.13 2970.65 2981.07 2993.91
2987.51 2968.93 2940.47 2896.48 2863.15 2870.07 2909.98 2955.88 2958.47 2935.27
2937.49 2966.99 2962.21 2932.54 2900.55 2893.67 2925.56 2964.54 3002.35 2999.79
2982.58 2968.8 2956.36 2989.18 3018.44 3025.86 3036.08 3029.56 3004.54 3002.04
3005.83 3003.18 2993.08 2990.04 2983.97 2962.81 2938.26 2907.49 2874.74 2822.83
2807.01 2832.35 2863.57 2900.12 2929.86 2944.7 2941.86 2937.64 2953.36 2981.06
3017.15 3064.17 3079.24 3069.7 3054.95 3038.92 3029.28 3009.68 2983.37 2943.62
2924.88 2887.4 2854.8 2811.67 2806.2 2800.94 2802.78 2803.92 2806.44 2811.91
2818.24

3751.09 3800.52 3802.59 3774.23 3733.23 3695.23 3649.88 3606.15 3569.39 3509.92
3466.16 3431.43 3401.25 3413.36 3434.49 3460.81 3467.06 3442.24 3385.71 3345.21
3332.7 3328.37 3397.96 3444.47 3435.21 3443.04 3514.29 3581.92 3620.66 3619.11
3573.15 3525.09 3581.65 3636.55 3666.4 3664.84 3604.5 3573.35 3641.5 3707.03
3786.37 3839.02 3843.33 3786.25 3717.69 3658.83 3675.54 3713.45 3766.5 3819.84
3869.24 3879.14 3894.75 3938.68 3970.8 3958.41 3902.83 3865.23 3858.7 3848.64
3840.91 3830.15 3803.76 3768.39 3737.37 3713.38 3702.23 3685.32 3646.42 3608.12
3578.43 3552.43 3574.2 3612.72 3648.55 3653.46 3687.09 3744.1 3823.45 3869.31
3871.76 3827.42 3755.43 3691.2 3641.44 3680.6 3751.81 3813.38 3880.38 3881.89
3843.87 3818.63 3859.83 3921.65 3994.95 4036.96 4038.32 3992.83 3925.63 3864.89
3839.84 3804.94 3767.88 3766.53 3716.55 3643.25 3570.65 3522.02 3491.4 3445.47
3413.4 3346.8 3300.59 3354.84 3416.05 3466.98 3525 3551.03 3528.92 3504.96
3428.49 3344.8 3271.36 3289.76 3327.45 3378.01 3388.56 3342.68 3263.28 3187.37
3146.55 3197.55 3213.71 3151.15 3099.26 3047.75 3006.85 2990.98 3034.69 3063.88
3065.45 3089.81 3103.26 3102.98 3098.49 3089.94 3075.77 3042.6 2993.08 2960.56
2953.63 2961.95 2969.39 2972.88 2982.07 2995.63 3005.83 3022.23 3033.03 3048.39
3069.98 3098.25 3139.07 3180.87 3219.11 3257.87 3258.14 3222.63 3203.03 3170.31
3124.31 3088.81 3105.58 3143.78 3152.67 3138.82 3106.04 3092.58 3083.31 3063.32
3034.84 3029.44 3039.64 3058.15 3091.01 3114.57 3117.48 3111.71 3100.61 3088.86
3063.23 3066.23 3040.3 3018.74 3007.52 3010.62 3035.45 3039.78 3019.96 3000.81
2986.62 3018.01 3056.51 3067.63 3053.8 3002.48 2990.11 2964.94 2940.67 2918.73
2905.84 2900.96 2899.36 2903.92 2913 2917.85 2926.36 2937.7 2940.97 2935.5
2931.26 2949.59 2968.77 2975.94 2971.41 2952.93 2955.54 2994 3019.37 3016.67
2985.93 2958.71 2942.92 2895.22 2865.39 2862.69 2900.43 2938.01 2942.53 2922.41
2931.71 2966.25 2964.02 2934.82 2893.36 2888.57 2920.44 2961.43 2983.66 2981.59
2958.69 2947.12 2958.47 2987.57 3017.17 3032.66 3039.16 3030.76 3001.86 2974.58
2977.97 2979.11 2978.73 2978.96 2973.6 2958.5 2948.45 2923.18 2885.56 2840.72
2801.98 2820.19 2853.22 2893.22 2914.14 2911.28 2902.8 2916.41 2944.81 2981.75
3023.4 3062.39 3064.83 3061.66 3053.85 3037.39 3031.55 3024.41 3001.76 2968.07
2940.31 2908.79 2870.01 2832.93 2803.65 2799.92 2798 2802.79 2802.16 2805.09
2811.56

3758.28 3803.43 3800.39 3743.31 3693.51 3658.67 3607.31 3554.99 3515.52 3463.97
3450.33 3435.04 3434.85 3464.01 3491 3495.11 3475.91 3425.75 3375.06 3379.4
3363.66 3329.6 3333.75 3373.94 3379.66 3446.54 3507.13 3532.51 3571.35 3578.05
3541.31 3497.62 3552.84 3608.55 3639.14 3631.9 3581.33 3565.3 3640.19 3695.71
3775.34 3820.85 3809.1 3755.54 3688.83 3634.79 3666.93 3700.91 3752.15 3776.91
3798.09 3816.79 3834.32 3863.7 3921.38 3919.44 3907.06 3906.92 3894.58 3883.49
3868.55 3854.56 3817.93 3772.94 3730.22 3710.37 3691.93 3672.77 3636.15 3608.36
3576.27 3594.49 3616.94 3663.69 3712.9 3735.28 3737.59 3736.22 3792.12 3864.05
3872.05 3835.98 3787.48 3735.43 3680.97 3662.71 3728.28 3789.93 3839.31 3852.46
3823.1 3813.41 3847.89 3918.62 3988.27 4005.56 4000.16 3985.79 3919.01 3855.88
3790.2 3753.17 3756.19 3759.08 3699.96 3623.35 3555.61 3486.78 3439.05 3397.44
3344.48 3346.28 3342.65 3401.66 3453.25 3501.5 3558.93 3583.39 3561.01 3501.14
3424.87 3355.32 3302.39 3353.85 3383.69 3420.62 3409.65 3342.26 3267.8 3197.71
3198.4 3234.07 3250.86 3202.42 3155.64 3084.73 3047.13 3010.58 2996.67 2988.12
3001.55 3027.26 3030.79 3041.83 3048.4 3047.23 3039.15 3024.46 2990.52 2961.3
2949.28 2953.11 2961.68 2963.01 2979.75 2982.03 2997.19 3012.58 3037.73 3073.64
3097.34 3125.57 3169.49 3213.24 3254.87 3259.85 3258.97 3219.9 3178.16 3147.83
3115.26 3092.67 3080.31 3111.45 3132.44 3120.17 3096.26 3072.09 3054.71 3047.22
3028.7 3007.78 3034.98 3056.67 3097.49 3103.78 3110.29 3101.57 3079.13 3059.76
3052.58 3061.48 3049.52 3028.18 3005.46 3000.71 3014.9 3025.65 3014.11 2994.08
2979.5 3019.87 3062.87 3077.93 3066.43 3034.05 3016.23 2979.12 2950.43 2927.52
2901.44 2894.77 2892.96 2904.35 2909 2914.52 2922.23 2928.49 2927.43 2937.99
2952.94 2971.05 2971.55 2954.42 2942.1 2935.46 2971.43 3029.49 3035.34 3017.57
2978.32 2942.04 2931.49 2897.3 2863.09 2855.4 2888.55 2917.29 2913.4 2905.21
2943.42 2967.74 2961.9 2928.35 2892.84 2880.03 2910.49 2949.27 2955.77 2945.87
2932.41 2952.91 2980.03 2998.67 3019.12 3033.95 3027.27 3023.2 3016.79 2999.22
2962.61 2942.47 2943.82 2936.95 2937.45 2937.93 2942.15 2922.05 2901.82 2851.12
2799.93 2812.64 2844.81 2881.15 2887.39 2878.12 2892 2923.64 2956.08 2992.2
3023.47 3055.57 3065.36 3047.31 3037.44 3031.89 3031.85 3034.25 3013.76 2977.16
2946.03 2925.86 2887.85 2854.43 2809.2 2799.38 2797.87 2798.08 2800.58 2798.34
2802.32

3772.54 3795.17 3778.9 3702.96 3641.88 3597.56 3562.68 3510.3 3495.68 3480.63
3471.14 3447.27 3474.86 3509.81 3529.55 3521.13 3468.63 3415.85 3407.1 3415.75
3389.68 3350.78 3345 3336.96 3365.22 3421.57 3458.75 3480.25 3535.04 3552.82
3528.63 3475.32 3535.03 3588.91 3608.42 3602.43 3546.1 3565.58 3628.17 3683.71
3730.54 3753.89 3735.47 3703.79 3650.24 3624.08 3646.75 3666.77 3694.05 3718.1
3746.59 3793.56 3841.99 3902.86 3950.13 3960.58 3952.13 3949.14 3916.95 3880.47
3866.71 3854.73 3822.86 3781.67 3735.05 3686.77 3647.08 3622.68 3605.47 3608.96
3620.08 3650.49 3654.55 3693.92 3751.34 3793.77 3801.29 3793.79 3815.7 3873.65
3880.31 3848.69 3793.55 3750.56 3700.44 3663.42 3715.26 3768 3812.72 3830.27
3808.46 3817.78 3859.81 3916.32 3949.39 3933.91 3921.32 3924.73 3892.68 3833.36
3766.8 3712.26 3699.97 3705.79 3670.9 3603.21 3539.5 3479.25 3414.71 3387.45
3391.84 3402.15 3380.24 3421.62 3497.52 3542.26 3590.51 3606.34 3564.32 3497.96
3431.72 3363.15 3374.74 3408.24 3452.03 3456.05 3412.07 3346.01 3264.4 3214.52
3254.95 3286.98 3293.59 3250.88 3192.02 3113.94 3050.87 3043.68 3038.55 2994.78
2967.13 2978.36 2996.64 3011.01 3015.56 3015.92 3004.95 3001.85 2986.18 2958.41
2943.14 2948.54 2955.76 2961.86 2970.56 2977.65 2996.78 3015.46 3038.49 3080.29
3128.01 3165.25 3199.1 3237.58 3258.29 3259.22 3244.18 3209.25 3174.23 3139.91
3120.27 3094.99 3067.6 3079.19 3106.44 3104.6 3090.89 3077.6 3045.11 3032.98
3027.52 3001.91 3031.8 3063.03 3098.1 3098.27 3093.26 3085.52 3073.13 3053.96
3040.1 3050.5 3050 3027.64 3006.39 2994.03 2994.9 3011.31 3007.01 2988.08
2996.63 3048.42 3070.09 3075.31 3074.98 3075.21 3055.02 3019.36 2960.57 2923.66
2903.11 2890.5 2891.24 2902.12 2906.83 2907.78 2914.94 2916.12 2918.15 2940.39
2956.59 2969.59 2963.7 2944.95 2927.32 2944.97 2986.78 3035.72 3040.63 3015.82
2980.74 2946.01 2918 2889.3 2861.58 2844.3 2880.44 2890.38 2882.69 2917.5
2943.82 2948.6 2935.08 2922.88 2891.78 2874.43 2901.25 2918.91 2920.04 2918.21
2952.93 2984.14 3016.21 3041.02 3040.09 3026.35 3000.72 3007.88 3015.1 3013.88
2978.95 2945.25 2917.13 2913.94 2910.51 2907.41 2920.63 2912.98 2903.67 2849.32
2797.45 2799.53 2829.22 2852.43 2851.53 2882.13 2916.9 2950.67 2969.81 2990.96
3002.95 3027.55 3043.06 3036.83 3024.62 3015.05 3017.36 3018.34 3018.87 3006.32
2960.26 2932.34 2900.72 2861.55 2825.3 2799.35 2794.14 2791.28 2791 2795
2796.17

3770.68 3790.75 3773.8 3727.4 3663.73 3594.97 3545.95 3533.84 3514.47 3524.84
3507.73 3494.89 3523.81 3548.54 3556.57 3522.18 3465.65 3422.26 3443.78 3446.91
3405.96 3380.04 3370.05 3364.41 3344.41 3367.15 3402.13 3441.46 3481.23 3515.29
3512.54 3464.07 3511.95 3559.11 3581.94 3560.95 3513.23 3558.02 3594.42 3621.27
3673.71 3685.4 3671.11 3639.52 3604.96 3615.17 3654.42 3693.52 3715.38 3758.4
3800.59 3843.86 3893.06 3955.23 4002.4 4010.54 4004.43 3994.09 3934.19 3861.37
3819.89 3789.24 3781.14 3758.24 3724.33 3685.12 3644.4 3644.23 3643.69 3649.52
3686.62 3701.25 3706.64 3697.8 3753.34 3813.57 3859.19 3856.9 3863.51 3914.19
3905.94 3855.81 3797.74 3749.37 3729.73 3717.74 3701.74 3743.04 3784.52 3799.25
3784.96 3832.16 3884.93 3904.03 3898.41 3869.39 3847.54 3856.93 3852.07 3804.33
3746.64 3693.41 3654.62 3663.44 3629.05 3565.08 3506.52 3449.27 3420.55 3461.93
3463.33 3463.85 3429.27 3452.5 3513.17 3573.16 3625.37 3617.99 3568.79 3503.24
3458.81 3395.41 3433.19 3472.2 3482.03 3461.11 3404.84 3324.86 3265.58 3278.79
3304.83 3319.52 3302.86 3263.54 3191.64 3120.9 3063.46 3105.5 3089.57 3012.47
2976.7 2956.29 2957.81 2968.8 2978 2978.6 2973.51 2978.71 2973.64 2961.33
2937.35 2938.36 2946 2951 2963.82 2973.7 2991.87 3010.62 3034.73 3075
3129.69 3177.56 3222.72 3255.89 3259.73 3245.8 3224.49 3199.22 3160.89 3137.7
3124.59 3095.96 3070.2 3059.95 3073.3 3073.2 3095.27 3092.41 3053.86 3017.75
3011.38 2994.06 3028.01 3062.11 3083.94 3081.59 3071.47 3065.29 3060.98 3039.99
3028.52 3037.15 3042.83 3028.22 3006.88 2989.95 2988.89 2999.65 2993.28 2982.49
2999.11 3041.62 3049.12 3052.77 3080.55 3093.77 3084.23 3041.19 2980.19 2944.41
2911.72 2894.92 2890.38 2891.38 2905.43 2903.97 2905.94 2905.89 2916.83 2932.43
2947.5 2944.12 2935.41 2922.58 2951.2 2983.59 3002.58 3036.79 3036.95 2998.35
2965.15 2936.05 2906.29 2887.7 2858.96 2840.38 2866.63 2869.68 2905.88 2931.53
2937.85 2930.38 2915.3 2911.99 2887.4 2861.17 2874.38 2886.51 2926.52 2953.5
2983.98 3012.61 3036.48 3049.06 3043.8 3020.27 2991.98 2974.94 2997.62 3001.47
2993.01 2981.47 2947.55 2908.91 2876.94 2874.78 2869.62 2881.22 2861.44 2847.8
2800.06 2798.7 2812.89 2843.69 2883.71 2905.39 2937.46 2954.25 2965.51 2959.44
2977.27 3002.45 3019.36 3020.03 3006 2998.59 2999.52 3004.22 3012.52 3005.99
2985.21 2949.9 2909.82 2879.66 2836.06 2797.31 2790.89 2785.51 2789.6 2789.46
2788.39

3733.66 3773.22 3771.14 3730.64 3656.3 3587.7 3569.83 3569.09 3555.58 3566.19
3538.74 3529.14 3571.72 3602.99 3583.74 3523.53 3470.6 3455.25 3488.32 3475.52
3429.04 3420.39 3394.1 3384.81 3368.36 3348.48 3360.56 3393.91 3436.12 3454.07
3462.82 3437.52 3484.99 3544.64 3556.92 3527.22 3502.31 3546.04 3592.36 3635.29
3651.35 3655.8 3635.05 3597.74 3591.57 3622.32 3661.75 3692.71 3742.51 3784.77
3819.38 3870.35 3932.58 4000.05 4040.9 4048.29 4037.49 4007.21 3937.56 3862.12
3796.84 3740.04 3719.9 3696.02 3662.45 3644.95 3656.33 3691.18 3690.82 3687.99
3726.28 3764.05 3772.14 3743.98 3752.16 3830.7 3892.66 3906.9 3907.42 3935.32
3923.63 3869.28 3819.87 3797.28 3793.1 3762.24 3734.43 3732.32 3755.32 3767.98
3803.58 3852.38 3902.39 3900.96 3861.47 3815.45 3785.27 3793.1 3792.02 3754.79
3710.38 3661.58 3609.34 3612.94 3585.01 3524.67 3468.58 3470.96 3485.1 3512.81
3528.83 3524.82 3472.63 3453.31 3515.69 3577.82 3636.64 3642.11 3592.84 3536.85
3471.63 3451.83 3494.37 3512.75 3503.11 3449.7 3381.44 3319.21 3333.95 3344.73
3353.99 3338.49 3289.25 3229.05 3171.22 3122.52 3075.88 3127.61 3105.09 3032.88
2996.35 2973.62 2948.57 2947.78 2947.69 2956.1 2951.19 2954.65 2956.31 2951.33
2933.79 2934.13 2939.47 2948.15 2955.11 2970.07 2985.47 3013.81 3043.69 3105.89
3156.18 3183.75 3223.36 3240.13 3237.58 3225.18 3193.2 3168.94 3143.7 3136.79
3122.33 3089 3063.26 3047.7 3047.01 3046.76 3089.8 3087.53 3056.42 3024.01
2995.93 2984.53 3010.01 3038.53 3049.18 3052.84 3055.38 3049.45 3044.45 3031.43
3019.24 3013.29 3026.81 3020.66 3006.26 2991.52 2981.14 2991.41 2981.91 2965.32
2999.97 3021.85 3042.59 3064.81 3071.38 3081.58 3084.37 3049.82 3006.33 2993.35
2956.57 2897.02 2886.5 2890.7 2897.56 2897.81 2897.81 2905.1 2914.47 2929.38
2931.06 2925.7 2915.67 2930.62 2964.59 3000.98 3019.8 3034.9 3021.96 2990.52
2958.33 2924.96 2902.9 2879.52 2855.85 2840.41 2856.44 2892.26 2936.2 2956.03
2946.81 2929.22 2901.4 2882.01 2871.96 2860.4 2891.62 2930.2 2971.09 2997.22
3026.48 3063.43 3067.26 3064.86 3042.17 3016.66 2986.13 2962.81 2971.72 2987.52
3004.03 3001.62 2993 2947.35 2901.71 2876.34 2851.61 2850.66 2833.75 2818.7
2796.31 2793.67 2813.66 2848.33 2881.67 2904.63 2936.84 2939.64 2940.84 2928.15
2945.33 2975.92 3000.74 2996.95 2992.13 2976.28 2983.37 2990.27 3000.1 3005.43
3003.72 2986.76 2943.89 2884.48 2852.1 2809.4 2788 2787.05 2787.77 2785.99
2785.83

3680.37 3714.63 3719.9 3682.41 3629.53 3600.97 3608.62 3596.3 3589.3 3588.75
3540.33 3552.69 3612.27 3628.32 3581.12 3519.65 3479.59 3506.7 3531.26 3509.77
3483.51 3448.41 3425.08 3423.81 3424.21 3404.47 3394.79 3373.36 3384.79 3411.52
3426.34 3463.89 3521.23 3560.06 3560.52 3511.8 3501.3 3549.44 3599.07 3635.99
3643.77 3615.53 3590.52 3577 3615.93 3648.97 3699.06 3733.86 3781.08 3829.74
3862.66 3891.51 3965.33 4032.66 4044.36 4043.29 4014.78 3971.57 3931.17 3857.55
3806.12 3747.74 3694.67 3672.01 3700.33 3707.26 3716.77 3735.97 3738.61 3712.21
3767.41 3807.06 3820.58 3813.85 3816.85 3859.64 3912.16 3951.39 3972.22 3981.58
3957.66 3906.84 3888.62 3865.17 3838.53 3811.2 3791.24 3780 3777.07 3785.05
3823.11 3861.54 3898.8 3896.38 3846.5 3782.8 3750.46 3743.62 3753.87 3751.73
3736.44 3673.5 3593.32 3553.75 3536.89 3494.61 3490.47 3522.91 3553.08 3582.89
3590.18 3546.94 3489.45 3513.56 3541.74 3572.76 3651.9 3667.55 3625.28 3569.89
3516.88 3512.19 3556.56 3565.04 3506.77 3442.01 3378.94 3374.15 3398.72 3396.25
3392.17 3345.49 3292.78 3236.22 3184.57 3121.05 3116.47 3149.54 3118.41 3043.15
3008.39 2999.38 2960.54 2945.53 2938.62 2933.37 2937.12 2934.99 2937.13 2935.86
2927.92 2925.63 2936.71 2939.9 2946.63 2959.97 2979.17 3011.52 3059.51 3124.95
3160.48 3189.23 3222.15 3216.29 3195.96 3195.15 3172.07 3150.16 3143.44 3130.07
3119.39 3088.37 3052.77 3035.32 3029.19 3036.64 3069.01 3067.1 3050.9 3033.32
3002.06 2975.09 2992.38 3008.92 3027.63 3042.73 3041.26 3036.11 3032.22 3021.5
3005.21 2999.16 3012.7 3008.14 3000.06 2985.69 2976.02 2978.89 2963.57 2966.08
3010.9 3040.66 3075.29 3076.07 3065.44 3049.29 3046.47 3037.34 3035.14 3018.62
2965.36 2908.48 2883.3 2883.9 2892.91 2891.76 2890.43 2901.92 2906.52 2917.48
2913.8 2910.28 2946.8 2967.78 2988.3 3012.81 3015.73 3019.62 3004.45 2993.28
2959.36 2928.71 2893.16 2864.06 2851.91 2837.4 2865.27 2913.81 2941.83 2956.96
2941.72 2915.45 2893.78 2868.08 2852.84 2880.02 2909.02 2953.04 3007.55 3043.44
3074.1 3089.67 3087.35 3068.77 3044.05 3020.02 2982.2 2953.31 2945.48 2969.36
2990.46 3001.64 2993.52 2973.38 2949.37 2938.02 2899.5 2878.27 2860.7 2830.02
2814.97 2783.44 2804.57 2822.62 2858.4 2898.25 2915.21 2910.42 2904.33 2906.96
2934.43 2969.78 2990.31 2982.68 2961.66 2956.36 2964.23 2968.48 2977.73 2994.09
2997.79 2987.88 2961.47 2938.5 2889.52 2850.84 2790.62 2785.69 2784.64 2784.3
2783.75

3702.16 3713.15 3703.31 3680.07 3652.23 3639.96 3642.06 3625.62 3615.9 3599.25
3572.68 3566.31 3613.4 3624.02 3583.63 3526.07 3504.02 3532.84 3570.66 3563.6
3529.84 3479.6 3469.96 3466.24 3472.6 3461.29 3440.79 3405.4 3384.55 3438.7
3482.58 3514.1 3550.33 3565.16 3555.03 3512.68 3492.49 3533.88 3559.59 3574.84
3577.04 3555.8 3554.5 3602.22 3647.22 3692.01 3737.69 3793.23 3818.1 3862.12
3919.25 3938.1 3987.04 4044.33 4033.12 3982.83 3936.26 3911.21 3881.5 3849.14
3797.57 3742.4 3687.65 3706.2 3728.07 3768.96 3778.79 3786.96 3781.2 3766.66
3795.31 3851.03 3886.96 3880.2 3881.77 3918.24 3959.98 3987.34 4033.18 4041.73
4006.61 3965.28 3941.08 3921.82 3895.44 3859.93 3847.93 3839.9 3831.88 3819.12
3830.51 3844.2 3843.54 3835.14 3812.14 3759.87 3724.64 3704.85 3707.13 3739.9
3745.71 3698.08 3637.32 3581.26 3559.3 3550.89 3543.81 3580.91 3607.64 3627.05
3636.84 3591.47 3527.26 3566.52 3604.16 3625.4 3654.06 3704.16 3683.27 3641.33
3582.68 3580.29 3606.94 3594.34 3528.95 3462.08 3441.84 3446.34 3448.92 3432.35
3393.28 3343.17 3284.5 3231.84 3182.18 3127.41 3164.58 3163.11 3104.95 3071.87
3047.85 3016.13 2981.5 2955.27 2941.06 2931.51 2929.12 2928.5 2925.56 2924.09
2920.61 2918.86 2926.98 2931.24 2939.25 2955.07 2974.45 3005.34 3069.87 3120.94
3131.17 3170.77 3196.57 3186.71 3165.66 3156.64 3154.96 3133.02 3135.54 3125.29
3107.89 3073.05 3041.16 3026.48 3014.61 3008.35 3028.78 3054.06 3059.56 3040.36
3010.28 2979.17 2973.29 2992.97 3022.52 3024.7 3024.68 3018.01 3011.76 3003.73
2993.85 2985.28 2994.51 2990.53 2988.56 2976.82 2973.49 2973.83 2955.02 2963.68
3004.21 3036.44 3068.76 3068.74 3067.72 3029.77 3006.77 3004.08 3026.4 3023.75
2979.37 2919.58 2879.65 2880.22 2882.99 2888.97 2890.03 2893.16 2899.96 2902.01
2900.6 2933.77 2961.44 2977.74 2996.83 3011.63 3004.12 3026.95 3012.99 2969.96
2933.47 2914.85 2895.94 2867.17 2842.46 2840.88 2872.24 2905.22 2943.72 2944.01
2927.27 2903.11 2875.18 2848.48 2859.67 2885.28 2920.6 2972.43 3019.7 3049.28
3076.12 3090.28 3085.85 3067.97 3041.96 3018.3 2988.29 2956.53 2926.33 2935.57
2955.79 2987.62 2988.01 2986.66 2981.21 2969.92 2959.51 2924.38 2904.2 2863.96
2825.61 2797.35 2778.98 2808.89 2851.11 2878.65 2883.58 2874.42 2884.72 2926.11
2964.98 2988.01 3000.88 2983.93 2959.77 2936.41 2941.16 2948.52 2959.24 2969.39
2977.84 2976.52 2973.55 2972.19 2946.15 2881.99 2819.89 2777.35 2781.3 2780.39
2778.26

3751.97 3764.22 3758.13 3734.84 3682.06 3683.07 3684.56 3654.78 3656.8 3629.4
3619.46 3600 3623.85 3629.83 3599.83 3575.25 3541.71 3560.54 3589.87 3592.56
3547.91 3519.75 3515.06 3518.6 3524.29 3481.48 3442.73 3449.26 3405.74 3429.94
3486.02 3521.55 3553.63 3557.99 3508.24 3476.72 3460.09 3482.08 3517.23 3531.5
3521.27 3548.44 3584.94 3640.39 3696.55 3750.24 3780.64 3832.24 3885.39 3920.52
3955.04 3993.86 4024.72 4063.92 4041.48 3984.28 3915.53 3864.09 3852.18 3810.93
3763.64 3714.25 3723.6 3751.44 3747.62 3795.88 3823.74 3837.17 3838.45 3826.71
3827.38 3883.91 3945.89 3946.07 3959.94 4007.76 4022.98 4046.25 4079.76 4089.42
4039.19 3977.8 3943.64 3922.51 3897.31 3910.69 3909.32 3926.42 3917.01 3859.71
3826.84 3797.91 3774.76 3760.72 3761.16 3727.45 3681.64 3676.11 3654.36 3697.12
3722.62 3732.27 3687.84 3655.68 3632.34 3591.41 3589.98 3636.83 3665.71 3682.19
3669.23 3605.18 3613.25 3646.62 3662.13 3662.97 3708.56 3749.95 3747.45 3688.83
3650.44 3657.31 3654.86 3625.78 3548.77 3518.89 3508.8 3499.99 3468.83 3426.42
3370.83 3313.73 3251.61 3195.24 3171.17 3171.84 3175.89 3155.28 3097.09 3086.42
3052.74 3017.29 2982.96 2971.29 2968.38 2937.61 2925.03 2923.93 2919.93 2918.45
2917 2913.58 2919.46 2924.42 2930.77 2939.51 2972.89 3018.82 3071.52 3082.39
3092.54 3160.54 3178.13 3165.9 3140.51 3120.3 3122.01 3103.04 3118.44 3107.87
3098.75 3075.67 3045.2 3023.13 3008.06 2991.12 3008.17 3046.28 3051.28 3033.02
3005.21 2976.36 2961.16 2987.58 3006.25 3012.73 3008.98 3007 3002.86 2989.09
2977.59 2969.47 2975.41 2974.66 2971.2 2965.26 2966.93 2966.12 2946.46 2967.24
3000.21 3017.4 3033.98 3060.05 3063.23 3023.53 2987.68 2977.79 2995.97 3002.37
2973.49 2914.9 2876.99 2875.98 2879.77 2885.73 2887.18 2886 2888.2 2888.57
2906.47 2941.78 2959.37 2969.76 2988.87 2988.67 2991.26 3026.82 3034.89 3002.32
2955.68 2904.94 2882.65 2861.87 2835.84 2838.45 2866.48 2900.89 2945.19 2947.59
2917.11 2894.83 2868.35 2841.14 2862.18 2893.69 2928.24 2975.92 3028.08 3045.33
3043.53 3065.99 3072.54 3065.89 3046.91 3023.77 2993.45 2961.1 2931.52 2909.57
2934.74 2955.43 2975.9 2990.78 2984.04 2974.9 2960.84 2933.69 2910.55 2878.24
2839 2807.38 2779.43 2795.82 2828.33 2846.36 2849.52 2878.69 2923.54 2953.23
2980.98 2983.74 2985.62 2972.65 2942.28 2916.8 2924.05 2927.18 2933.96 2951.22
2959.21 2959.18 2966.59 2972.94 2951.23 2915.41 2832.7 2778 2774.77 2775.85
2780

3804.99 3827.02 3814.64 3762.57 3712.25 3717.35 3706.39 3707.11 3711.47 3672.61
3686.85 3657.72 3659.38 3671.98 3653.48 3615.35 3574.5 3602.79 3632.82 3627.98
3604.19 3568.12 3568.28 3574.52 3539.73 3493.66 3509.42 3484.07 3445.85 3423.57
3440.43 3470.71 3514.01 3518.92 3457.04 3464.77 3489.29 3501.47 3506.78 3517.5
3552.34 3573.01 3611.09 3676.14 3733.53 3793.92 3838.05 3876.68 3928.01 3971.19
3995.48 4041.78 4070.95 4071.35 4041.23 3982.29 3918.28 3863.02 3803.94 3780.07
3742.01 3739.39 3774.24 3801.1 3796.07 3802.84 3852.67 3891.52 3910.78 3893.35
3891.28 3930.61 3990.83 4012.01 4027.2 4069.38 4061.31 4059.36 4072.49 4074.52
4020.48 3943.14 3876.98 3830.95 3880.13 3916.09 3981.52 3982.61 3943.78 3863.24
3785.74 3736.75 3706.96 3686.85 3705.92 3697.07 3638.3 3619.47 3609.89 3661.21
3718.64 3762.57 3747.76 3714.06 3688.15 3629.99 3640.04 3680.74 3747.44 3742.61
3706.25 3674.73 3693.46 3708.28 3726 3721.25 3757.1 3796.42 3794 3754.35
3729.89 3715.05 3695.94 3649.01 3612.05 3585.97 3575.19 3541.16 3468.02 3404.14
3341.04 3292.1 3262.13 3246.21 3225.85 3208.7 3176.05 3123.61 3084.82 3071.72
3044.59 3006.08 2990.66 3002.84 2992.94 2961.49 2937.33 2920.78 2915 2912.85
2912.12 2909.32 2910.52 2920.94 2923.95 2932.23 2963.51 3032.04 3050.58 3050.89
3095.2 3137.35 3142.4 3130.56 3109.51 3085.32 3082.48 3083.1 3097.54 3086.7
3100.68 3093.33 3049.34 3021.27 2992.96 2974.97 2997.09 3017.81 3027.29 3021.48
3008.61 2979.83 2948.18 2964.41 2991.84 2997.79 2995.54 2987.09 2985.17 2980.64
2964.55 2958.73 2959.82 2962.66 2959.6 2964.97 2962.95 2955.82 2940.18 2972.07
2986.05 2997.02 3033.43 3075.09 3090.06 3073.67 3015.4 2975.63 2963.75 2964.48
2951.52 2911.34 2873.29 2869.99 2871.27 2878.15 2879.18 2882.01 2880.56 2889.44
2912.4 2942.33 2946.73 2952.4 2956.31 2960.22 2986.08 3014.84 3034.4 3019.6
2980.25 2937 2899.89 2869.21 2846.77 2825.95 2851.25 2893.16 2932.65 2942.86
2911.17 2884.2 2858.64 2837.42 2869.88 2896.34 2932.76 2984.75 3016.16 3018.39
3001.73 3033.82 3067.3 3065.32 3050.68 3022.05 2990.98 2949.89 2924.51 2895.88
2903.4 2921.81 2934.27 2963.92 2978.3 2965.05 2952.88 2932.93 2912.04 2888.96
2835.89 2804.09 2775.66 2791.24 2800.96 2836.46 2876.15 2910.44 2943.02 2961.03
2971.95 2963 2963.97 2966.56 2948.78 2917.48 2903 2903.61 2913.86 2923.57
2928.04 2931.23 2942.71 2957.32 2944.8 2918.44 2868.89 2800.18 2773.38 2769.91
2772.49

3840.78 3869.8 3841.29 3791.65 3737.08 3760.14 3739.32 3769.61 3755.8 3730.58
3731.26 3683.26 3700.83 3720.25 3707.08 3640.11 3624.53 3668.68 3683.62 3687.24
3656.05 3643.13 3627.39 3596.18 3530.01 3562.74 3559.63 3522.51 3505.59 3460.51
3470.57 3453.47 3436.39 3439.23 3465.56 3499.68 3514.27 3533.74 3548.39 3542.74
3584.28 3630.08 3637.33 3681.82 3754.21 3820.05 3883.99 3927.2 3968.68 4017.82
4033.78 4055.96 4068.98 4052.01 4014.26 3950.63 3893.68 3836.96 3794.21 3755.92
3752.19 3782.35 3826.01 3852.58 3847.23 3832.98 3867.79 3934.6 3971.89 3957.34
3960.15 3991.02 4025.2 4059.72 4073.63 4076.27 4053.24 3995.77 4034.39 4016.34
3943.85 3881.54 3809.89 3787.29 3830.34 3904.81 3975.39 3991.05 3972.69 3886.39
3805.03 3724.24 3654.57 3625.19 3660.21 3657.21 3596.69 3561.75 3582.98 3651.7
3706.09 3766.11 3778.49 3751.55 3713.23 3658.41 3686.06 3732.99 3786.91 3791.76
3770.75 3759.83 3741.23 3751.32 3796.43 3790.99 3791.41 3816.96 3811.47 3765.86
3740.81 3724.02 3700.32 3657.47 3646.08 3642.35 3613.89 3550.78 3486.69 3412.06
3374.98 3357.09 3327.5 3291.75 3249.49 3203.91 3136.5 3100.6 3079.54 3052.53
3027.51 3014.25 3021.2 3017.84 2996.05 2962.6 2944.01 2937.56 2921.81 2910.88
2906.01 2907 2905.78 2904.67 2910.93 2926.6 2969.12 3008.25 3017.22 3026.32
3086.35 3103 3107.82 3108.31 3084.21 3060.7 3050.1 3064.34 3068.24 3078.58
3103 3096.37 3053.62 3020.13 2992.08 2965.21 2974.06 3001.79 3005.45 3017.89
3009.58 2982.8 2951.76 2960.09 2973.69 2981.81 2978.99 2970.11 2967.68 2966.89
2961.7 2949.02 2948.99 2967.11 2971.91 2967.38 2958.18 2940.79 2940.55 2969.05
2999.68 3023.13 3066.72 3100.54 3101.16 3079.57 3025.58 2998.98 2940.61 2940.12
2928.14 2912.98 2876.41 2867.98 2868 2873.29 2874.06 2875.04 2879.86 2889.01
2915.04 2936.03 2929.67 2924.43 2941.78 2968.62 2982.56 2996.33 3018.71 3020.88
2987.97 2944.39 2906.1 2868.03 2847.93 2818.22 2844.16 2871.71 2908.42 2916.4
2905.58 2869.54 2844.58 2841.81 2874.88 2914.28 2959.95 2998.11 3002.74 2984.81
2988.19 3023.72 3050.23 3060.43 3050.19 3027.13 2988.78 2955.63 2924.99 2908.93
2879.3 2892.79 2900.61 2938.39 2968.66 2965.53 2949.47 2926.7 2910.8 2886.55
2841.17 2805.54 2773.85 2785.01 2811 2843.52 2880.15 2909.46 2939.06 2950.28
2949.32 2934.38 2940.35 2961.4 2957.41 2941.74 2904.86 2890.45 2892.08 2894.28
2898.46 2904.58 2919.67 2935.67 2933.34 2928.16 2900.68 2831.91 2771.87 2765.99
2765.02

3884.5 3896.6 3871.75 3820.21 3783.11 3807.02 3787.47 3810.18 3808.13 3784.29
3764.9 3727.05 3753.75 3758.08 3715.42 3681.73 3668.92 3724.28 3736.09 3736.12
3700.07 3706.32 3690.7 3620.25 3566.81 3631.6 3611.14 3580.95 3565.98 3503.1
3515.73 3499.96 3453.28 3489.23 3520.1 3547.81 3556.61 3558.9 3585.63 3582.29
3619.2 3677.37 3701.26 3713.7 3761.07 3822.03 3892.25 3953.51 4010.88 4024.23
4027.06 4021.48 4025.61 4006.81 3968.97 3927.43 3872.88 3821.83 3778.73 3779.34
3799.98 3817.02 3859.67 3896.15 3896.85 3888.69 3900.43 3957.66 4008.5 4008.94
4033.57 4036.17 4041.53 4060.87 4062.95 4035.44 3946.32 3884.06 3818.77 3883.44
3873.73 3834.71 3777.7 3758.41 3802.97 3853.87 3951.46 3983.41 3969.71 3909.91
3821.66 3723.15 3646.81 3570.71 3612.87 3608.92 3555.92 3506.75 3558.63 3628.13
3689.67 3742.39 3771.29 3773.63 3753.71 3716.61 3742.01 3787.46 3830.27 3849.65
3833.19 3811.59 3799.97 3805.29 3846.37 3832.54 3795.47 3804.75 3787.61 3732.74
3709.94 3683.43 3636.1 3619.55 3641.38 3642.64 3614.04 3550.86 3489.61 3444.68
3419.13 3386.13 3346.48 3290.52 3237.7 3173.34 3123.4 3094.23 3089 3089.2
3079.68 3052.07 3036.32 3014.98 2991.14 2972.37 2983.77 2975.04 2954.2 2928.93
2906.59 2899.93 2901.98 2901.95 2902.49 2919.38 2947.21 2965.83 2975.54 3004.65
3046.67 3070.14 3081.49 3090.96 3074.03 3054.07 3037.34 3046.56 3045.03 3080.91
3101.54 3094.19 3063.1 3053.3 3019.61 2978.08 2954.28 2984.93 2981.97 2996.47
2995.6 2979.39 2952.94 2941.19 2961.12 2961.51 2960.82 2957.05 2952.14 2946.67
2943.96 2939.28 2947.61 2985.56 2994.05 2968.33 2942 2927.12 2953.02 3001.46
3028.32 3040.8 3067.87 3097.48 3089.11 3055.45 3019.58 2996.99 2970.2 2926.9
2911.79 2895.99 2874.81 2866.71 2865 2865.6 2871.75 2873.83 2880.66 2894.32
2914.28 2925.92 2912.53 2914.73 2942.51 2960.6 2964.5 2988.12 3021.77 3027.73
3007.67 2971.3 2921.69 2895.51 2872.59 2837.53 2825.28 2852.4 2873.47 2891.05
2883.16 2860.7 2834.55 2843.5 2886.6 2936 2962.41 2989.24 2983.18 2950.14
2967.91 3005.98 3045.7 3064 3062.85 3034.04 3010.88 2991.44 2949.55 2917.99
2888.95 2856.97 2879.34 2914.63 2951.15 2962.4 2943.11 2927.76 2910.98 2889.66
2849.73 2808.66 2774.21 2774.24 2809.29 2839.05 2875.9 2908.35 2938.96 2936.26
2925 2913.29 2940.48 2965.13 2970.31 2949.08 2927.7 2919.49 2892 2875.63
2872.31 2878.51 2886.79 2906.29 2916.5 2913.71 2910.88 2851.32 2796.09 2771.45
2763.7

3914.78 3928.08 3899.01 3847.45 3830.37 3845.17 3832 3855.26 3852.55 3839.93
3801.6 3785.78 3810.18 3807.65 3769.64 3732.18 3724.11 3772.22 3800.11 3792.09
3761.09 3747.35 3700.27 3643.58 3630.05 3669.81 3671.72 3648.53 3610.14 3551.42
3536.48 3525.02 3480.66 3522.2 3563.79 3595.57 3606.18 3604.37 3632 3652.49
3641.58 3684.83 3748.21 3767.38 3789.68 3803.47 3870 3945.1 4008.43 4013.03
3979.92 3953.92 3961.64 3963.88 3938.71 3891.15 3850.06 3813.82 3787.73 3813.88
3850 3866.27 3891.41 3951.25 3958.38 3949.09 3943.02 3979.99 4040.16 4065.61
4068.28 4039.04 3997.9 4012.37 4016.9 3941.58 3868.22 3802.58 3771.09 3785.51
3788.99 3774 3743.16 3738.13 3760.14 3855.92 3924.31 3966.34 3963.11 3915.52
3802.99 3708.57 3637.58 3545.86 3555.63 3568.71 3522.01 3478.16 3531.02 3598.77
3639.67 3695.53 3752.91 3792.53 3786.59 3765.21 3793.42 3834.67 3871.96 3892.48
3887.63 3883.17 3870.14 3838.61 3849.77 3834.32 3773.77 3744.18 3726.59 3676.85
3639.54 3618.2 3576.83 3558.27 3587.66 3582.83 3553.78 3514.53 3476.94 3442.08
3416.89 3385.09 3344.08 3286.57 3217.78 3165.42 3139.19 3136.9 3147.05 3146.13
3110.77 3074.31 3045.61 3018.22 2991.98 3007.08 3023.03 3005.13 2980.66 2966.06
2935.42 2912.66 2894.84 2895 2893.96 2903.47 2934.27 2949.56 2951.29 2987.41
3021.09 3023.89 3050.19 3051.65 3032.36 3019 3021.74 3021.53 3045.19 3068.96
3091.32 3090.61 3087.54 3067.42 3037.23 2994.64 2950.74 2955 2964.34 2979.81
2984.83 2973.4 2956.83 2933.96 2933.95 2941.88 2946.84 2948.11 2940.41 2937.01
2932.37 2945.8 2965.7 2980.95 2988.47 2961.92 2937.02 2924.97 2966.06 3008.21
3020.85 3035.85 3065.49 3071.74 3056.1 3020.19 2998.91 2973.25 2966.88 2932.71
2907.75 2891.36 2875.39 2865.15 2860.5 2862.58 2867.85 2868.15 2878.26 2887.41
2899.92 2900.57 2896 2911.41 2926.38 2940.44 2979.64 3007.81 3031.93 3039.16
3022.53 2993.29 2946.21 2919.23 2882.46 2847.78 2824.08 2827.69 2851.03 2871.01
2869.09 2841.83 2824.83 2852.99 2901.68 2947.23 2962.5 2961.35 2942.32 2931.66
2966.9 3007.94 3053.87 3063.74 3060.09 3034.3 3018.9 3002.8 2981.46 2944.81
2897.32 2858.96 2852.07 2901.06 2932.55 2942.63 2937.58 2922.34 2907.48 2873.6
2836.97 2806.45 2772.53 2771.8 2803.07 2846.26 2887.46 2909.62 2918.59 2911.07
2897.21 2903.06 2935.21 2964.4 2972.87 2965.74 2958.59 2946.35 2918.92 2902.34
2879.01 2855.4 2846.65 2857.61 2866.18 2879.33 2884.62 2893.15 2798.96 2767.52
2760.86

3964.1 3973.69 3931.38 3885.2 3884.71 3877.99 3867.85 3878.55 3892.02 3875.17
3864.01 3836.53 3867.32 3872.07 3817.88 3788.51 3773.5 3825.59 3852.4 3845.51
3800.34 3745 3693 3644.43 3677.88 3746.82 3737.52 3705.71 3643.14 3571.74
3586.1 3569.08 3536.7 3513.39 3565.34 3618.19 3638.26 3648.87 3688.3 3725.2
3717.92 3686.61 3762.38 3829.55 3844.11 3856.16 3900.2 3955.37 4001.77 4000.97
3970.06 3938.56 3906.56 3918.34 3917.05 3879.51 3837.24 3818.44 3829.93 3829.21
3890.48 3915.84 3951.13 3995.13 4015.57 4020.08 4017.76 4044.16 4086.84 4081.55
4055.02 3996.13 3929.49 3887.98 3891.84 3898.17 3854.55 3783.25 3739.8 3725.16
3723.48 3724.05 3699.75 3708.29 3731.08 3794.82 3886.53 3906.73 3915.9 3839.19
3773.62 3669.64 3596.73 3523.56 3496.29 3505.46 3487.57 3443.53 3498.98 3548.53
3617.55 3687.29 3756.52 3791.49 3787.92 3787.81 3839.23 3886.64 3919.54 3917.02
3904.6 3900.21 3880.78 3835.8 3813.24 3811.41 3742.76 3684.74 3688.44 3646.19
3579.45 3554 3533.53 3493.26 3530.03 3536.82 3502.45 3455.97 3429.58 3412.7
3380.84 3345.41 3315.86 3259.9 3216.32 3185.48 3184.38 3193.93 3194.16 3172.37
3110.55 3068.89 3044.27 3022.82 3026.95 3047.28 3068.57 3051.17 3037.98 3006.4
2962.62 2933.22 2896.77 2892.24 2890.97 2891.18 2898.68 2930.19 2956.95 2980.25
2985.41 3007.28 3020.2 3012.75 2999.82 2994.64 2998.01 2999.75 3025.01 3068.86
3091.97 3091.72 3089.59 3070.53 3048.75 3019.67 2969.8 2933.15 2941.98 2964.35
2969.6 2960.9 2956.65 2941.26 2921.55 2928.3 2930.25 2928.04 2929.35 2926.58
2939.51 2949.26 2975 2973.96 2957.84 2948.29 2927.01 2926.1 2967.97 2983.05
3005.89 3038.97 3052.59 3041.94 3010.85 2988.48 2990.41 2972.5 2947.87 2938.15
2929.05 2907.63 2878.39 2863.64 2857.65 2857.43 2866.03 2868.95 2868.93 2875.36
2879.51 2898.75 2931.53 2934.19 2927.47 2955.22 2989.17 3037.67 3063.15 3056.94
3054.38 3012.87 2975.41 2935.98 2895.29 2873.86 2844.15 2815.9 2834.11 2850.43
2850.21 2832.49 2831.68 2867.94 2917.19 2946.8 2955.61 2936.71 2905.27 2948.52
2987.74 3026.58 3059.38 3062.39 3029.85 3008.07 3006.24 2998.43 2989.53 2961.65
2916.3 2866.41 2840.17 2876.79 2904.64 2926.73 2928.73 2922.21 2901.32 2873.81
2851.29 2809.82 2775.22 2765.94 2791.08 2846.93 2879.34 2893.44 2891.38 2880.46
2882.85 2913.72 2941.85 2962.88 2963.47 2965.77 2964.63 2956.32 2944.66 2928.04
2922.32 2904.71 2872.32 2837.82 2829.52 2852.96 2874.76 2891.05 2805.84 2769.68
2759.98

4018 4015.8 3970.05 3940.49 3936.94 3911.08 3887.7 3886.55 3914.61 3930.55
3931.62 3892.77 3920.83 3908.75 3874.46 3847.94 3835.25 3872.73 3890.44 3856.98
3803.41 3723.36 3701.43 3713.42 3740.17 3787.23 3779.57 3712.51 3641.92 3583.92
3638.48 3627.17 3590.37 3565.25 3556.89 3617.12 3669.21 3708.85 3755.69 3794.34
3785.85 3740.66 3776.82 3841.2 3902.67 3923.62 3941.68 3966.7 3990.9 3999.74
3991.06 3961.05 3922.11 3885.5 3869.94 3850.55 3840.77 3862.01 3880.63 3868.17
3903.14 3956.51 4002.76 4042.14 4070.5 4089.85 4098.3 4108.72 4119.35 4086.38
4020.39 3943.12 3887.49 3837.23 3815.62 3846.09 3849.88 3794.31 3738.9 3704.09
3674.77 3665.61 3670.21 3692.96 3714.14 3792.01 3854.14 3857.18 3809.59 3757.14
3737.41 3646.54 3571.44 3515.1 3459.91 3458.21 3433.41 3413.13 3479.78 3550.64
3621.73 3689.92 3735.09 3731.92 3736.19 3765.68 3829.98 3888.06 3924.04 3914.34
3876.4 3847.92 3822.59 3792.07 3755.4 3725.52 3691.8 3625.53 3631.08 3631.44
3574.39 3511.22 3469.94 3435.37 3464.97 3488.01 3462.87 3408.31 3366.13 3347.06
3331.71 3298.99 3259.12 3215.16 3197.53 3186.95 3203.78 3208.61 3196.44 3158.63
3113.23 3083.81 3072.34 3053.79 3064.06 3105.97 3130.34 3118.53 3089.12 3051.73
2990.82 2950.91 2931.44 2906.46 2887.3 2888.83 2893.42 2899.51 2930.04 2946.84
2952.12 2989.37 2994.23 2986.35 2978.27 2968.73 2989.29 3022.95 3057.7 3070.16
3078.15 3075.47 3073.87 3063.76 3046.66 3026.32 2990 2936.58 2928.97 2941.54
2949.05 2951.12 2947.19 2939.19 2916.27 2915.79 2919.11 2915.06 2922.52 2946.86
2974.42 2981.7 2981.17 2977.82 2952.44 2923.5 2911.43 2927.5 2950.69 2988.61
3013.64 3029.23 3027.38 3008.77 2974.07 2963.32 2978.02 2995.17 3002.59 2998.39
2980.29 2956.87 2912.28 2868.45 2855.27 2856.94 2860.17 2861.91 2863 2871.52
2898.3 2922.42 2938.06 2958.9 2973.65 2987.39 3021.83 3053.99 3067.68 3052.75
3045.64 3037.62 3014.65 2985.59 2942.75 2901.03 2873.15 2826.41 2809.98 2822.42
2824.36 2808.85 2845.21 2888.95 2927.13 2941.01 2934.81 2893.77 2904.65 2948.39
2991.28 3024.67 3055.73 3048.62 3011.7 2963.17 2964.08 2971.86 2978.46 2966.81
2930.45 2889.95 2829.35 2838.39 2870.14 2898.44 2911.01 2911.15 2899.41 2873.62
2852.49 2813.41 2773.37 2756.63 2783.49 2842.91 2865.11 2864.16 2854.44 2870.2
2898.03 2918.83 2941.78 2942.39 2926.33 2932.63 2955.28 2953.24 2950.85 2947.48
2949.49 2929.3 2892.96 2865.55 2815.25 2825.79 2846.53 2846.09 2797.46 2760.64
2758.68

4034.37 4037.62 4018.96 4003.59 3980.14 3948.01 3910.13 3897.14 3922.66 3970.87
3989.95 3961.5 3971.1 3963.6 3926.92 3912.38 3888.77 3925.13 3914.65 3853.05
3813.69 3763.22 3756 3773.77 3793.8 3828.24 3793.17 3725.83 3649.98 3627.14
3682.5 3672.99 3633.08 3601.76 3558.23 3609.4 3668.33 3725.92 3790.15 3837.51
3832.46 3797.97 3809.6 3871.5 3931.82 3972.59 3966.48 3955.96 3937.79 3966.02
3988.78 3991.65 3956.67 3915.44 3874.66 3863.01 3873.65 3905.15 3934.73 3924.45
3910.7 3963.26 4026.14 4083.44 4120.73 4152.87 4150.7 4132.73 4126.43 4076.23
4005.88 3928.5 3867.25 3811.09 3781.3 3775.3 3795.56 3783.55 3752.53 3704.41
3669.17 3649.09 3655.25 3685.56 3721.19 3807.22 3838.72 3835.58 3749.88 3705.82
3681.54 3639.49 3568.59 3494.53 3440.87 3409.72 3389.68 3394.57 3462.8 3524.88
3582.72 3657.42 3684.59 3669.38 3667.41 3720.28 3774.45 3832.83 3874.43 3876.78
3838.27 3792.52 3752.69 3754.29 3713.87 3651.96 3604.07 3567.69 3582.83 3607.25
3591.38 3559.62 3448.69 3384.24 3404.27 3437.41 3437.15 3379.14 3329.51 3282.09
3262.65 3244.21 3210.99 3173.51 3153.24 3170.58 3182.57 3183.24 3169.71 3132.68
3111.1 3091.64 3091.29 3088.71 3089.72 3131.74 3184.41 3180.8 3125.84 3063.47
3013.94 2993.03 2977.24 2966.59 2913.18 2885.79 2884.87 2884.16 2899.29 2912.57
2940.64 2963.64 2959.32 2955.27 2949.29 2967.02 3008.09 3035.88 3056.06 3060.89
3062.98 3062.38 3058.23 3039.17 3035.92 3028.19 3005.91 2940.63 2917.65 2925.41
2930.65 2935.98 2936.34 2929.16 2911.2 2907.11 2910.49 2923.51 2940.63 2974.27
2994.61 2991.18 2989.7 2978.8 2958.57 2928.05 2906.94 2928.06 2952.73 2989.88
3006.89 3007.28 2998.59 2967.54 2946.28 2942.72 2966.49 3001.69 3015.71 3011.01
3004.34 2960.64 2926.12 2883.88 2853.98 2850.42 2858.71 2860.69 2861.98 2871.34
2904.04 2938.57 2947.83 2967.58 2986.59 3018.83 3050.74 3060.91 3052.53 3027.15
3047.85 3045.88 3022.15 2997.04 2964.69 2930.35 2892.44 2846.27 2820.88 2803.87
2801.68 2808.83 2853 2890.18 2924.04 2922.1 2893.97 2875.16 2919.84 2965
2999.05 3029.28 3048.85 3046.93 3012.36 2960.01 2920.37 2920 2949.44 2958.65
2940.79 2908.07 2852.25 2822.65 2845.98 2860.9 2884.47 2890.28 2882.62 2865.57
2824.8 2793.86 2757.91 2754.84 2789.29 2835.05 2842.27 2829.52 2856.12 2886.48
2909.46 2912.07 2918.3 2907.91 2885.18 2910.3 2930.12 2932.76 2930.97 2950.99
2956.46 2942.99 2917.52 2891.82 2843.62 2803.61 2822.91 2838.15 2819.27 2756.95
2753.98

4018.74 4032.48 4025.24 4021.93 4017.95 3988.54 3945.35 3921.69 3928.34 3983.67
4035.85 4020.67 4041.13 4026.79 3989.22 3967.08 3948.06 3962.72 3936.2 3891.45
3867.17 3808.64 3785.04 3834.07 3856.12 3851.11 3784.36 3717.96 3687.69 3656.81
3721.02 3717.95 3686.54 3634.91 3587.96 3637.41 3682.62 3741.56 3802.6 3867.74
3880.04 3859.34 3852.57 3903.04 3957.67 3975.6 3953.12 3900.39 3865.39 3904.45
3975.89 4012.74 4005.43 3960.83 3908.94 3885.26 3905.11 3940.66 3984.63 3981.51
3947.16 3954.69 4020.95 4083.28 4125.24 4163.26 4162.07 4110.34 4067.34 4034.66
3969.81 3908.59 3856.83 3803.85 3767.34 3741.95 3745.05 3771.99 3753.21 3702.75
3667.46 3644.28 3658.33 3673.53 3717.11 3792.85 3800.05 3769.67 3694.76 3639.6
3623.23 3619.44 3576.83 3509.02 3429.2 3373.76 3346.94 3377.79 3437.48 3501.6
3573.18 3626.76 3638.08 3612.28 3620.79 3667.7 3731.5 3752.97 3800.62 3823.44
3807.04 3756.81 3699.8 3705.38 3683.64 3611.74 3554.6 3517 3540.35 3581.13
3588.54 3549.83 3456.39 3362.36 3345.56 3379.97 3387.58 3359.72 3325.04 3252.28
3213.78 3189.02 3174.3 3155.01 3128.58 3128.69 3133.86 3134.87 3140.87 3127.08
3109 3080.92 3088.41 3095.18 3100.31 3138.99 3180.71 3190.64 3146.38 3089.07
3072.15 3057.29 3034.38 2997.27 2942.71 2878.45 2878.65 2881 2884.11 2895.67
2924.22 2944.24 2938.65 2931.22 2944.13 2982.28 3014.09 3035.52 3034.14 3028.79
3044.73 3046.77 3038.73 3011.79 3017.34 3011.52 2993.7 2950.1 2912.32 2910.55
2917.92 2922.24 2918.33 2911.34 2905.56 2903.8 2916.74 2952.04 2983.07 2993.11
2992.76 2974.52 2975 2974.48 2963.4 2940.48 2908.77 2921.18 2942.34 2971.91
2977.93 2973.57 2970.86 2941.22 2922.62 2942.52 2969.56 3003.29 3009.74 3000.33
2996.66 2958.43 2931.01 2887.19 2848.62 2850 2850 2854.08 2859.45 2873.25
2905.36 2927.94 2940.21 2954.74 2970.79 3014.04 3050.18 3058.69 3038.83 3005.78
3009.81 3034.62 3025.24 3019.58 2985.78 2950.43 2918.17 2876.78 2853.49 2819.3
2799.39 2809.49 2845.74 2883.88 2894.63 2883.72 2860.67 2875.54 2919.8 2956.77
2989.65 3015.92 3029.56 3025.35 3010.77 2962.73 2908.32 2884.59 2903.7 2923.24
2926.44 2923.18 2871.84 2807.82 2825.49 2841.6 2852.53 2872.41 2873.42 2855.02
2818.94 2787.28 2755.05 2749.12 2786.88 2808.73 2818.32 2851.59 2870.85 2885.68
2898.56 2890.73 2887.52 2879.83 2859.23 2899.56 2923.35 2898.27 2902.49 2947.8
2952.95 2919.76 2917.09 2919.09 2873.64 2800.35 2787.65 2814.05 2819.68 2757.24
2749

3919.28 3931.92 3975.68 4009.38 4026.47 4018.96 3982.2 3942.12 3928.22 3982.45
4040.82 4072.13 4098.19 4089.81 4061.46 4029.28 3996.87 3990.9 3969.18 3961.24
3914.12 3859.73 3826.71 3880.01 3903.71 3872.57 3790.12 3761.98 3747.12 3697.93
3743.94 3750.7 3715.63 3659.42 3636.14 3653.08 3693.47 3749.44 3812.75 3877.67
3923.72 3916.7 3917.82 3953.39 3965.64 3957.89 3909.49 3856.68 3834.78 3880.7
3954.15 4022.82 4025.41 3981.05 3929.95 3916.68 3945.02 3976.99 4016.68 4020.75
3993.11 3968.11 3985.7 4041.69 4086.77 4121.38 4106.39 4042.93 3999.08 3981.37
3947.85 3903.92 3858.45 3803 3756.31 3733.47 3730.25 3756.09 3741.21 3694.48
3661.07 3643.08 3655.93 3668.51 3713.28 3756.61 3769.6 3754.39 3674.97 3613.31
3565.68 3551.91 3557 3512.79 3449.03 3372.3 3317.15 3348.77 3416.07 3493.92
3561.09 3608.8 3602.18 3556.16 3578.09 3614.02 3659.8 3724.69 3789.23 3783.03
3745.05 3692.8 3656.18 3667.95 3635.26 3596.63 3531.02 3460.86 3508.54 3538.05
3535.02 3499.1 3424.68 3375.21 3291 3323.76 3329.59 3326.79 3283.86 3243.14
3179.31 3148.5 3145.52 3138.58 3113.41 3085.73 3089.22 3117.33 3130.58 3128.11
3109.72 3075.43 3070.03 3081.82 3097.32 3131.1 3147.26 3159.83 3142.17 3105.57
3087.43 3065.4 3050.76 3023.59 2960.89 2897.46 2873.85 2876.71 2874.51 2881.12
2891.97 2903.98 2899.92 2918.28 2954.74 2978.59 2998.36 3009.26 3006.88 3019.89
3028.64 3031.13 3026.28 3008.67 2979.99 2979.99 2974.1 2947.35 2918.77 2901.39
2905.51 2908.09 2902.96 2900.03 2898.75 2915.64 2943.05 2964.04 3002.23 3006.77
2985.87 2960.98 2962.35 2966.64 2963.2 2944.16 2909.52 2909.39 2926.3 2953.71
2955.14 2948.92 2944.87 2912.53 2920.8 2958.79 2984.8 3002.8 3003.82 2988.16
2980.52 2949.4 2926.56 2887.56 2850.52 2849.3 2849.08 2853 2859.62 2868.76
2891.58 2909.32 2942.34 2962.71 2991.98 3036.22 3059.98 3054.95 3024.01 2990.07
2990.75 3017.43 3023.93 3031.87 3016.12 3003.82 2974.69 2928.68 2886.12 2846.21
2810.67 2800.3 2829.61 2850.12 2856.51 2856.21 2856.26 2904.96 2943.17 2980.14
3006.66 3007.1 2978.76 2970.7 2984.86 2954.12 2916.71 2871.41 2872.36 2880.31
2920.29 2923.75 2892.68 2830.26 2794.62 2811.48 2828.19 2847 2853.55 2837.74
2803.15 2770.31 2749.91 2753.6 2782.09 2817.1 2834.57 2853.59 2861.32 2856.08
2856.05 2849.74 2857.9 2859.77 2824 2874.71 2905.97 2887.32 2851.38 2898.06
2909.27 2866.24 2904.75 2913.74 2868.49 2802.71 2773.61 2799.87 2800.47 2755
2745.85

3862.28 3881.3 3917.45 3960.22 4037.49 4050.17 4013.57 3964.15 3939.59 3968.12
4022.27 4082.76 4143.74 4147.93 4115.79 4076.58 4044.74 4024.83 4024.75 4007.99
3968.06 3911.54 3875.91 3910.85 3922.1 3877.53 3819.99 3816.94 3776.07 3744.3
3763.67 3770.34 3733.86 3675.19 3686.89 3710.51 3729.67 3753.29 3807.4 3870.43
3931.03 3961.21 3981.3 3999.83 3994.31 3936.85 3861.3 3819.43 3821.69 3874.74
3959.07 4017.36 4026.2 3979.41 3940.9 3952 3988.85 4025.23 4057.52 4057.19
4044.56 4021.63 4020.51 4034.33 4073.75 4077.35 4040.88 4001.54 3977.41 3942.32
3921.9 3898.72 3859.27 3803.3 3747.17 3714.64 3708.87 3723.64 3720.74 3674.12
3639.72 3612.27 3631.78 3647.83 3689.49 3710.29 3756.86 3756.25 3687.37 3621.46
3540.32 3486.2 3492.71 3475.85 3430.59 3362.74 3290.74 3337.09 3411.41 3490.74
3536.71 3560.9 3554.76 3503.87 3530.09 3557.43 3638.38 3716.11 3756.04 3732.63
3690.69 3637.33 3638.99 3652.88 3611.43 3548.75 3485.01 3426.3 3448.36 3507.61
3522.68 3484.26 3398.65 3335.3 3261.19 3266.05 3282.19 3275.97 3242.22 3201.17
3156.32 3130.83 3115 3119.84 3094.89 3065.34 3072.55 3086.62 3119.27 3117.9
3099.05 3071.63 3051.32 3058.89 3099.51 3106.92 3102.34 3113.19 3112.38 3097.64
3069.74 3045.34 3032.32 3020.83 2967.57 2912.75 2871.42 2872.77 2871.57 2869.99
2878.23 2889 2894.86 2921.7 2947.58 2963.93 2970.83 2980.38 2974.98 3000.92
3018.18 3021.94 3017.59 3006.36 2966.53 2947.83 2943.62 2931.06 2918.28 2896.37
2896.02 2896.92 2891.45 2894.45 2920.26 2939.69 2955.29 2993.46 2999.87 3000.71
2965.62 2941.46 2942.63 2959.16 2955.97 2934.74 2901.38 2898.88 2919.96 2934.11
2937.33 2925.16 2920.41 2899.58 2935.46 2958.71 2983.09 2984.27 2975.46 2975.21
2962.41 2942.86 2924.45 2890.72 2856.03 2844.62 2844.98 2850.48 2858.75 2875.86
2896.22 2921.16 2947.81 2985.06 3014.07 3051.92 3060.96 3044.05 3010.89 2986.93
2981.3 3005.15 3007.82 3025.07 3028.34 3016.44 2987.2 2954.6 2917.29 2861.19
2828.24 2792.92 2805.12 2827.98 2832.08 2826.47 2872.72 2923.74 2948.05 2983.6
3003.21 2983.14 2943.75 2926.21 2958.74 2951.74 2915.75 2870.4 2835.39 2850.45
2884.96 2892.23 2893.89 2847.2 2807.47 2788.52 2800.3 2811.73 2813.09 2804.56
2776.33 2748.77 2735.86 2759.5 2793.2 2819.49 2827.54 2825.32 2810.23 2805.2
2802.21 2799.85 2808.27 2811.07 2793.13 2837.58 2866.59 2857.9 2820.02 2861.29
2865.59 2837.66 2851.2 2864.28 2856.85 2796.19 2757.94 2784.48 2784.38 2747.96
2744

3854.79 3874.1 3903.22 3964.61 4040.66 4063.33 4056.91 4013.3 3972.77 3977.38
4018.29 4086.46 4146.91 4165.12 4158.36 4100.29 4052.68 4022.92 4025.82 4013.45
3976.28 3966.63 3930.38 3957.55 3966.76 3913.33 3878.12 3865.16 3812.19 3784.95
3807.65 3804.64 3777.24 3702.92 3741.26 3762.65 3786.63 3806.34 3827.67 3882.66
3950.81 4015.08 4037.45 4028.72 3988.42 3922.93 3851.56 3807.62 3794.76 3854.41
3925.21 3974.38 3991.27 3972.93 3956.49 3984.36 4023.51 4061.29 4102.92 4102.76
4089.42 4059.55 4037.41 4017.68 4016.5 3976.59 3928.49 3979.08 3974.01 3952.94
3943.42 3905.23 3861.4 3809.62 3725.34 3672.41 3673.4 3687.91 3680.9 3634.64
3587.59 3568.65 3582.11 3619.69 3631.04 3680.25 3729.68 3748.8 3699.18 3633.58
3554.96 3485.19 3423.14 3383.85 3364.9 3333.6 3263.9 3314.38 3383.82 3441.02
3466.13 3511.35 3504.79 3458.61 3480.85 3524.81 3602.09 3664.3 3708.42 3700.91
3631.74 3591.7 3598.24 3608.34 3578.17 3506.5 3439.15 3380.47 3403.24 3466.82
3484.14 3456.87 3378.61 3318.83 3248.81 3215.65 3224.65 3219.99 3185.03 3156.92
3124.37 3108.68 3086.02 3083.13 3079.96 3056.89 3043.62 3065.54 3085.12 3096.14
3097.94 3092.41 3071.35 3045.96 3056.79 3056.01 3066.83 3077.63 3079.11 3059.25
3046.32 3035.56 3024.82 3004.16 2968.68 2925.9 2871.12 2866.7 2865.11 2868
2870.18 2880.85 2889.67 2912.47 2934.28 2934.96 2949.7 2949.69 2961.29 2989.88
3008.46 3016.75 3011.66 3000.95 2947.97 2934.94 2923.08 2914.52 2913.16 2889.05
2884.89 2883.59 2895.82 2915.17 2965.68 2991.97 2997.31 3000.26 2995.63 2975.56
2955.59 2932.84 2926.59 2940.92 2939.13 2922.33 2910.8 2887 2900.19 2909.53
2904.07 2897.56 2895.02 2899.05 2938.6 2951.1 2947.56 2944.92 2961.1 2967.98
2963.01 2937.81 2900.01 2887.52 2852.46 2843.34 2842.03 2847.32 2855.22 2881.19
2913.51 2930.96 2975.94 3005.18 3049.79 3065.63 3058.93 3035.99 3002.1 2983.45
2958.21 2976.08 2987.43 3018.52 3028.88 3021.24 3005.79 2986.66 2933.77 2889.82
2850.28 2810.3 2786.37 2797.75 2804.64 2836.34 2886.51 2922.48 2944.14 2968.05
2987.34 2957.32 2908.18 2890.11 2933.15 2942.91 2907.7 2874.23 2829.99 2818.84
2834.45 2843.18 2844.87 2831.76 2803.26 2762.32 2766.08 2768.56 2758.01 2749.95
2733.66 2728.63 2727 2737.47 2758.73 2770.22 2776.2 2761.4 2750.19 2742.08
2735.65 2734.43 2727.04 2732.02 2756.87 2786.01 2804.11 2818.28 2798.31 2821.48
2832.5 2809.9 2814.71 2821.78 2809.5 2786.63 2757.38 2763.71 2765.88 2741.97
2742.84

3855.82 3866.8 3890.11 3940.24 3993.79 4050.25 4076.31 4059.99 4030.7 4009.14
4040.9 4092.93 4126.2 4155.11 4159.67 4091.19 4022.53 3974.14 3927.15 3921.64
3959.66 3971.07 3973.93 3997.89 4009.38 3967.16 3931.07 3881.74 3821.85 3830.93
3867.4 3857.43 3792.61 3732.79 3788.65 3828.37 3840.64 3869.75 3890.36 3920.68
3971.6 4037.01 4050.36 4024.7 3971.22 3901.81 3834.12 3797.91 3769.19 3824.49
3889.81 3923.99 3917.88 3900.89 3938.16 3978.32 4019.21 4058.36 4129.13 4131.73
4091.95 4050.3 3987.76 3920.96 3877.31 3846.46 3838.41 3844.32 3914.83 3950.15
3936.14 3877.74 3802.56 3754.61 3694.84 3635.33 3622.54 3644.7 3633.56 3590.56
3547.67 3522.11 3542.92 3559.44 3584.19 3644.44 3712.93 3736.74 3700.45 3634.59
3568.79 3503.64 3445.5 3395.46 3332.55 3275.99 3238.31 3291.04 3344.65 3381.18
3436.57 3491.89 3483.77 3437.53 3442.09 3485.55 3549.3 3623.03 3665.76 3655.98
3609.29 3545.06 3550.53 3559.58 3529.4 3468.43 3396.4 3336.15 3375.63 3415.12
3451.93 3445.58 3387 3330.1 3275.49 3218.42 3173.92 3164.54 3148.69 3128.39
3098.4 3088.23 3069.58 3059.88 3062.12 3044.54 3029 3042.44 3065.07 3100.74
3117.66 3110.43 3074.59 3030.91 3015.48 3025.22 3031.66 3048.96 3060.86 3040.2
3014.76 3030.64 3022.28 2987.48 2956.63 2913.86 2876.03 2862.5 2863.88 2864.28
2864.58 2873.3 2883.1 2897.81 2906.55 2919.78 2925.43 2934.02 2962.57 2984.26
2993.99 2998.96 3001.34 2986.06 2943.51 2916.45 2900.19 2896.01 2891.11 2885.09
2879.32 2886.9 2922.2 2958.29 3000.43 3028.46 3027.2 3021.55 3012.59 2981.74
2937.09 2914.54 2917.66 2919.15 2917.22 2924 2911.05 2883.68 2883.58 2887.06
2883.08 2882.79 2876.71 2902.15 2936.81 2937.04 2916.69 2916.98 2943.7 2957.18
2953.11 2927.24 2895.94 2875.95 2846.59 2837.92 2841.18 2845.04 2853.74 2878.02
2916.06 2938.06 2986.69 3027.59 3067.26 3070.62 3050.99 3019.9 2998.02 2977.81
2948.57 2945.05 2975.37 3000.39 3023.75 3013.58 2986.55 2975.18 2936.65 2903.15
2854.23 2819.67 2795.93 2785.59 2801.84 2840.43 2877.05 2896.12 2920.37 2946.29
2957.77 2919.86 2880.69 2855.27 2898.22 2897.58 2862.42 2832.99 2821.64 2789.34
2796.58 2800.19 2789.31 2778.97 2763.15 2744.95 2741 2740.19 2733.4 2726
2727 2727 2727 2727.88 2726.96 2725.99 2723.37 2725.25 2724 2723.97
2723.54 2724.34 2723 2722.98 2720.12 2719.43 2728.01 2745.95 2754.41 2784.48
2780.56 2763.9 2757.08 2765.94 2751.09 2737.46 2725.82 2729.91 2726.63 2735.82
2738

3873.9 3873.92 3882.3 3916.95 3959.63 4026.17 4072.84 4059.51 4027.84 4007.75
4039.63 4033.44 4021.7 4092.92 4092.05 4037.87 3983.77 3937.05 3898.5 3878.64
3893.73 3929.48 3976 4027.07 4029.08 3983.49 3941.76 3878.89 3850.22 3882.74
3912.13 3889.64 3819.85 3787.69 3831.83 3877.94 3907.42 3915.82 3935.92 3965.15
4011.5 4044.41 4044.78 3984.8 3933.69 3886.59 3818.33 3773.54 3745.79 3808.86
3872.53 3869.35 3833.49 3837.94 3869.41 3922.9 3969.79 4048.35 4120.37 4124.02
4073.57 4023.71 3954.5 3881.6 3805.84 3776.55 3772.49 3811.25 3891.15 3931.13
3920.64 3862.22 3797.84 3731.79 3663.96 3606.95 3580.68 3600.49 3600.87 3551.45
3501.24 3476.3 3493.29 3506.08 3554.56 3618.29 3666.94 3676.76 3663.05 3615
3557.78 3501.53 3440.47 3390.69 3340.33 3286.86 3224.31 3260.74 3307.63 3385.59
3440.09 3470.92 3452.97 3420.9 3408.97 3465.26 3530.08 3585.47 3612.91 3611.43
3567.97 3508.23 3506.47 3531.78 3509.13 3443.17 3374.58 3311.48 3318.71 3362.08
3411.22 3413.9 3388.96 3339.04 3286.46 3219.91 3156.46 3123.17 3107.09 3102.18
3080.91 3060.35 3046.54 3032.77 3035.32 3031.11 3006.48 3036.42 3085.57 3110.92
3115.37 3098.45 3073.63 3047.33 3019.91 2994.04 3007.72 3027.72 3025.42 3007.69
3006 3021.86 3016.6 2987.12 2952.18 2915.68 2875.97 2862 2860.74 2859.27
2857.99 2863.12 2872.56 2878.52 2887.76 2895.11 2906.02 2930.85 2952.39 2964.94
2982.14 2987.5 2988.86 2975.61 2939.33 2909.16 2887.33 2879.46 2873.2 2872.77
2882.37 2906.6 2937.8 2977.5 3011.91 3026.22 3021.49 3018.15 3018.02 2979.03
2944.53 2926.04 2924.62 2904.86 2910.67 2913.11 2898.26 2881.28 2870.62 2871.74
2871.14 2868.39 2871.7 2890.86 2923.62 2914.48 2902.78 2903.78 2926.01 2942.71
2946.55 2921.47 2896.23 2868.22 2847.16 2835.43 2836.25 2842.52 2853.7 2879.71
2916.58 2947.94 2990.44 3042.72 3075.36 3072.5 3042.02 3014.01 2991.57 2972.78
2945.22 2927.71 2954.94 2976.21 2993.48 2988.41 2962.5 2919.64 2909.35 2901.99
2857.22 2816.95 2792.29 2786.61 2804.79 2831.28 2871.56 2910.84 2925.75 2925.3
2925.69 2896.44 2857.88 2831.39 2844.6 2839.73 2817.7 2784.27 2772.64 2754.81
2752.55 2748.63 2741.31 2739 2736.32 2738.77 2735.67 2734.59 2729 2728.01
2728.22 2727 2728 2726.14 2725.21 2725.28 2725 2725 2724.11 2723.08
2724 2723.15 2722.19 2722 2722.95 2722.78 2721.87 2721.15 2719.5 2718.3
2720.77 2719.29 2720 2717.97 2720 2717.57 2717 2717.94 2717 2721.23
2729.56

3896.34 3884.32 3880.79 3904.58 3965.66 4030.5 4049.98 4021.09 3951.21 3900.06
3865.76 3910.61 3948.59 3985.5 4019.46 4014.78 3979.2 3938.7 3896.79 3858.29
3844.71 3886.56 3944.93 3998.99 4011.37 3985.9 3956.47 3930.56 3910.02 3905.05
3922.72 3904.58 3841.86 3845.2 3890.55 3923.5 3916.99 3913.14 3933.23 3967.13
4018.39 4037.87 4014.95 3962.21 3884.76 3829.45 3780.09 3730.97 3736.3 3798.07
3840.18 3828.2 3804.55 3804.24 3836.36 3879.8 3953.43 4022.21 4073.9 4072.95
4033.92 4003.96 3955.65 3890.36 3795.31 3741.96 3742.99 3819.86 3887.37 3935.44
3908.74 3819.62 3763.98 3718.85 3644.69 3581.24 3530.82 3556.57 3563.94 3527.09
3469.96 3433.82 3443.77 3452.85 3530.67 3594.29 3596.64 3609.9 3624.36 3622.88
3565.61 3502.28 3449.53 3370.81 3327.65 3292.01 3220.25 3241.61 3310.36 3382.01
3418.73 3416.64 3399.65 3371.69 3375.66 3436.08 3477.11 3517.81 3577.11 3581.49
3511.34 3466.04 3458.54 3486.98 3483.46 3429.85 3369.4 3303.69 3254.24 3309
3348.97 3352.4 3356.97 3335.76 3272.47 3213.59 3155.11 3111.39 3086.77 3078.62
3067.41 3036.94 3023.82 3024.75 3011.65 3002.74 3004.28 3043.97 3087.72 3101.47
3102.31 3103.88 3092.94 3074.14 3032.02 2998.49 2970.77 2979.89 2985.31 2983.89
2984.63 3009.33 3019.58 3011.03 2983.94 2952.04 2909 2873.46 2857.94 2856.96
2854.03 2856.77 2859.03 2867.33 2876.2 2883.26 2908.52 2927.7 2934.25 2945.31
2969.73 2979.6 2980.88 2955.65 2924.34 2895.51 2876.12 2868.06 2866.99 2891.26
2937.28 2962.58 2964.5 2988.9 3010.2 3010.5 2987.91 2984.01 3000.15 2973.42
2958.1 2976 2968.14 2960.4 2914.64 2898.23 2892.79 2883.04 2879.73 2874.46
2872.61 2864.04 2867.58 2877.96 2891.78 2890.85 2881.13 2881.91 2903.66 2925.32
2929.61 2910.72 2883.32 2853.03 2834.71 2832 2831.2 2835.98 2855 2875.11
2922.98 2970.66 3015.41 3056.69 3080.96 3062.39 3034.66 3004.55 2977.1 2953.44
2934.04 2908.07 2928.78 2968.07 2982.74 2978.31 2951.17 2905.55 2870.51 2869.62
2855.57 2815.21 2792.31 2783.12 2809.79 2845.14 2895.85 2912.7 2913.7 2894.74
2871.16 2851.26 2828.74 2799.41 2798.39 2786.02 2762.83 2747.71 2740.6 2740.28
2739.83 2740 2738.97 2737 2735.89 2731.96 2729.31 2729 2729.61 2729.92
2729 2727 2727.36 2726 2727 2726 2727 2725 2723.95 2724
2724.11 2723.9 2721.94 2722.14 2722.1 2722.24 2721 2722 2720 2718.38
2717.05 2717 2718 2718 2720 2719 2716.9 2717 2716.09 2717.09
2717.67

3925 3911.04 3904.66 3913.52 3962.19 4021.24 4032.2 3992.01 3917.18 3859.46
3836.33 3857.62 3891.33 3932.78 3977.05 4008.87 3989.83 3943.04 3890.29 3845.25
3839.05 3849.84 3889.91 3939.64 3986.63 4009.76 3995.29 3954.72 3925.07 3903.85
3914.12 3905.71 3883.08 3907.14 3927.25 3920.8 3898.16 3859.97 3878.5 3927.42
3983.16 3990.73 3962.98 3902.41 3851.19 3796.18 3733.34 3692.56 3717.91 3790.51
3811.98 3793.37 3770.19 3791.74 3821.36 3870.85 3947.08 4021.57 4059.21 4037.54
3976.28 3940.21 3893.49 3833.19 3764.96 3710.42 3729.5 3799.46 3877.71 3936.42
3908.15 3840.54 3771.8 3706.13 3638.29 3559.4 3491.74 3510.34 3519.65 3496.36
3440.22 3395.79 3394.42 3448.25 3522.14 3554.84 3548.92 3546.1 3599.34 3615.77
3583.39 3512.62 3453.38 3379.36 3310.16 3259.77 3214.04 3207.3 3279.47 3343.23
3357.11 3323.63 3305.19 3283.35 3336.16 3380.81 3443.64 3514.46 3562.36 3555.4
3511.43 3442.13 3401.84 3409.01 3421.86 3391.97 3321.13 3238.9 3208.3 3245.89
3298.03 3295.88 3287.27 3279.68 3241.69 3186.15 3135.56 3103.96 3074.12 3056.29
3041.85 3027.19 3010.77 3005.85 3003.35 2985.15 3009.29 3048.87 3066.82 3066.11
3091.84 3117.56 3113 3082.28 3045.87 3012.71 2984.82 2958.23 2964.71 2953.54
2965.95 2997.45 3021.75 3016.04 2996.55 2971.55 2932.17 2901.69 2854.73 2853.79
2852 2851.02 2856.94 2859.09 2865.68 2878.96 2898.11 2910.22 2910.81 2940
2959.16 2965.33 2961.61 2937.59 2906.77 2881.86 2866.32 2860.22 2887.24 2926.14
2968.89 3004.66 3010.6 3009.22 3010.63 2999.02 2968.33 2967.05 2974.69 2967.76
2981.91 2992.84 2986.36 2995.32 2966.49 2954.07 2947.68 2911.92 2916.51 2908.54
2911.72 2912.11 2912.91 2896.54 2875.37 2855.15 2856.78 2865.03 2884.49 2901.54
2908.57 2898.15 2867.8 2843.35 2830.29 2828.49 2830.82 2833.22 2856.11 2881.59
2936.67 2971.85 3025.48 3065.48 3079.62 3064.17 3022.8 2994.27 2970.6 2950.7
2926.09 2900.07 2904.09 2936.94 2953.69 2959.66 2948.72 2908.86 2864.49 2841.26
2836.02 2814.6 2789.97 2782.34 2810.14 2846.73 2897.31 2906.15 2875.06 2847.53
2820.16 2794.92 2774.44 2758.59 2754.31 2743.69 2739.46 2740 2739.98 2740
2740 2739.44 2738 2736.99 2731 2730.98 2731.01 2729.24 2730.99 2729
2729 2728.98 2727 2727.94 2726.01 2724.7 2726.99 2724.97 2722.88 2724
2725 2724 2723.02 2722.92 2720.38 2721 2722 2720.02 2719.69 2719.01
2721 2718.01 2716.43 2716.37 2717.9 2717 2717 2717.99 2718.55 2717.89
2715.29

3967.13 3950.49 3932.65 3931.44 3963.57 4008.1 4004.31 3959.46 3891.82 3831.9
3825.66 3837.92 3878.36 3934.71 3992.53 4005.94 3987.38 3935.83 3868.38 3819.59
3826.63 3830.55 3865.49 3922.72 3991.12 4000.79 3982.55 3935.7 3880.84 3855.22
3867.97 3901.97 3927.98 3929.77 3927.97 3884.89 3845.58 3810.7 3817.26 3863.81
3926.34 3952.99 3929.93 3867.75 3805.07 3749.62 3696.55 3657.75 3709.54 3775.53
3782.71 3751.76 3751.55 3774.68 3810.2 3888.27 3962.68 4034.43 4056.24 4022.82
3933.91 3881.27 3831.12 3782.2 3726.84 3685 3708.11 3792.16 3854.8 3895.41
3881.97 3834.44 3780.39 3713.42 3634.02 3559.11 3480.04 3449.01 3467.04 3456.56
3412.95 3366.76 3367.14 3439.13 3488.27 3493.19 3475.4 3500.27 3550.74 3565.92
3563.41 3503.22 3454.71 3397.73 3330.48 3248.06 3187.13 3163.99 3222.19 3297.12
3301.15 3267.72 3228.98 3235.86 3329.08 3402.05 3456.33 3508.03 3551.42 3550.68
3511.24 3447.25 3371.78 3347.98 3350.12 3337.54 3270.27 3204.01 3152.7 3193.9
3234.59 3233.35 3218.77 3217.44 3198.23 3145.54 3110.33 3080.92 3066.01 3046.04
3025.09 3019.58 3008.89 2989.44 2981.18 2974.12 3007.37 3034.17 3037.17 3060.32
3087.59 3107.75 3109.7 3098.04 3051.77 3019.71 2994.08 2973.68 2950.91 2943.67
2954.04 2983.67 2998.03 2998.96 2995.11 2974.54 2927.73 2899.88 2849.71 2848.39
2847 2847.84 2848.92 2851.32 2853.63 2866.84 2880.14 2890.37 2910.09 2933.76
2948.54 2952.32 2939.34 2916.41 2887.31 2864.98 2854.98 2883.23 2924.47 2959.59
2994.18 3015.64 3020.64 3008.91 2988.24 2979.4 2960.52 2952.92 2958.47 2974.13
2981.8 2974.87 2986.07 3001.6 2985.56 2995.66 2977.62 2947.24 2942.03 2944.33
2964.92 2972.34 2967.43 2949.04 2920.19 2872.91 2839.16 2851.82 2863.39 2877.81
2889.29 2884.5 2853.16 2831.59 2825.29 2826 2824.9 2832.93 2854.76 2891.24
2938.86 2983.51 3040.86 3079.49 3075.67 3057.04 3017.56 2984.81 2966.8 2947.98
2922.13 2897.16 2883.21 2918.89 2944.97 2952.62 2934.07 2905.2 2860.41 2830.42
2807.63 2803.31 2776.37 2774.73 2815.55 2851.23 2866.81 2861.8 2835.3 2798.17
2778.83 2751.84 2744.63 2743.22 2744.6 2740.88 2741 2740 2739 2740
2738.84 2736.99 2736.91 2733.32 2731 2731.95 2732 2731.05 2730.58 2728
2729.26 2727.98 2727 2727.99 2727 2727 2725 2725.99 2723.02 2724.21
2723.89 2724 2723 2721.83 2722.05 2721 2723 2722 2720.96 2719.16
2720.29 2719 2718.47 2719 2717.06 2717.55 2716.98 2717.98 2716.31 2718
2715.94

4001.21 3985.5 3966.03 3959.06 3974.58 4005.98 4002.26 3939.18 3859.91 3811.41
3812.9 3849.59 3917.75 3982.46 4001.14 3992.04 3946.13 3885.41 3833.25 3792.73
3799.43 3809.02 3854.11 3908.05 3969.26 3975.2 3924.13 3875.38 3838.26 3816.93
3851.58 3897.3 3928.53 3926.77 3889.13 3839.61 3801.6 3788.18 3788.82 3830.36
3893.61 3935.19 3916.87 3851.28 3782.22 3719.28 3672.49 3631.28 3712.41 3760.17
3758.98 3723.57 3752.84 3769.26 3811.39 3892.4 3966.5 4028.03 4025.32 3976.62
3927.7 3872.96 3811.57 3739.9 3704.7 3662 3697.84 3772.56 3836.1 3870.13
3851.76 3805.32 3741.43 3696.57 3632.73 3546.83 3476.4 3413.16 3417.02 3415.97
3391.16 3349.18 3331.62 3391.28 3425.99 3426.76 3405.4 3459.95 3512.6 3500.57
3505.27 3503.84 3490.54 3427.67 3342.73 3248.58 3182.43 3127.93 3176.53 3227.89
3226.61 3203.08 3195.76 3265.77 3335.11 3412.63 3464.58 3480.9 3505.11 3531.25
3505.79 3463.28 3404.09 3340.85 3280.19 3255.37 3217.71 3168.34 3119.82 3124.3
3157.63 3166.49 3152.81 3150.71 3141.77 3114.08 3079.34 3063.19 3043.21 3035.08
3016.11 3007.28 3003.88 2979.94 2961.63 2958.2 2988.74 3025.3 3049.38 3067.95
3081.3 3080.02 3076.8 3079.36 3061.61 3051.58 3026.11 2999.02 2967.67 2938.98
2935.81 2959.93 2966.2 2985.11 2985.55 2988.75 2947.4 2897.78 2855.65 2846.11
2845.88 2844.32 2847.95 2847.61 2850.89 2855.41 2862.84 2878.62 2900.56 2922.51
2939.82 2939.98 2930.42 2901.24 2870.12 2853.22 2865.81 2914.68 2963.36 2989.65
3011.78 3011.3 3010.64 2983.9 2957.3 2951.72 2942.63 2932.15 2957.69 2984.65
2980.38 2961.45 2958.7 2985.15 3003.19 2995.87 2980.91 2965.67 2971.67 2995.58
3011.69 3012.03 3001.14 2975.47 2937.86 2909.33 2852.6 2834.39 2845.75 2856.29
2860.98 2857.98 2838.52 2829 2823.98 2822.47 2822.99 2827.35 2855.32 2902.13
2943.79 2992.89 3049.76 3083.71 3076.21 3048.56 3012.63 2980.44 2958.56 2940.36
2914.25 2886.91 2861.72 2885.59 2912.18 2928.18 2917.85 2890.9 2851.83 2825.2
2800.67 2787.13 2769.76 2771.91 2800.89 2807.66 2811.18 2804.75 2780.12 2753.64
2745.84 2743.33 2743.79 2741.98 2740.5 2740.57 2741.81 2740 2739 2738.85
2738.25 2736.79 2732.97 2730 2732.56 2731.95 2731.04 2732 2730.98 2729.99
2729.97 2728.13 2727 2727.01 2727.93 2726.93 2725 2724.28 2723.57 2726
2725.5 2724.67 2723.83 2721.85 2724.93 2724 2723.57 2721.98 2722.98 2720.66
2722.13 2722.93 2718.34 2718 2718 2716.76 2716 2715 2716 2715.92
2716

4036.58 4028.88 4000.87 3998.54 4017.34 4018.54 3972.52 3895.04 3828.89 3799.32
3810.76 3848.56 3919.46 3991.2 4003.39 3969.81 3915.89 3858.3 3807.43 3763.55
3775.51 3818.48 3869.1 3919.86 3946.57 3927.55 3875.84 3829.11 3800.03 3790.93
3800.4 3841.72 3869.34 3863.03 3823.46 3789.46 3765.87 3776.14 3792.36 3835.97
3896.2 3917.59 3886.87 3817.3 3756.72 3684.36 3634.27 3628.4 3708.13 3741.08
3734.36 3691.98 3692.03 3736.83 3792.11 3883.19 3958.95 3994.34 3976.46 3934.35
3875.11 3824.88 3771.63 3714.61 3671.2 3640.93 3686.44 3763.99 3836 3867.64
3843.72 3785.34 3713.78 3649.04 3585.79 3528.78 3471.16 3408.57 3360.75 3363.31
3362.83 3336.7 3294.7 3334.38 3361.72 3360.75 3372.45 3443.53 3473.13 3458.67
3443.76 3491.31 3487.6 3417.43 3318.5 3252.2 3184.26 3130.93 3117.95 3158.81
3156.25 3144.29 3212.8 3282.46 3334.68 3361.89 3388.94 3414.97 3469.54 3479.69
3460.05 3442.5 3408.37 3365.65 3320.31 3283.26 3258.55 3196.54 3128.52 3073.55
3093.65 3103.73 3097.73 3098.37 3097.03 3090.48 3058.81 3039.76 3030.18 3017.91
2996.85 2991.54 2988.36 2972.54 2945.92 2960.46 2997.38 3028.11 3050.06 3048.47
3048.86 3049.77 3038.71 3052.26 3058.18 3052.11 3034.92 3011.73 2984.88 2942.84
2915.96 2935.91 2949.82 2957.43 2982.03 2987.88 2948.22 2904.98 2858.83 2842.19
2841.08 2842 2841.3 2844.42 2844.24 2844.06 2857.51 2871.53 2888.26 2910.99
2929.1 2934.99 2918.24 2883.58 2855.04 2850.93 2876.59 2943.9 2983.77 3006.86
3013.76 3000.61 2984.6 2968.81 2941.48 2921.45 2919.89 2942.2 2971.18 2984.26
2972.59 2945.06 2966.92 2988.97 2997.68 2981.06 2964.35 2983.37 3001.23 3028.4
3034.63 3019.81 3004.33 2975.96 2941.57 2908.8 2862.7 2842.29 2831.35 2834.68
2847.26 2842.79 2827.35 2824.96 2822.23 2819.56 2819.52 2822.4 2862.29 2906.86
2950.92 3006.92 3064.85 3084.25 3068.97 3038.32 3003.16 2975.59 2956.54 2935.58
2905.6 2883.57 2861.81 2846.87 2869.66 2909.29 2906.79 2875.03 2839.18 2803.92
2778.53 2773.18 2762.93 2762.71 2758 2760.51 2759.54 2752.78 2748.02 2746
2744.52 2741.89 2742.49 2742.28 2742.86 2742.91 2741.98 2739 2738.72 2736.99
2734.18 2733 2732 2729.76 2732.9 2731.32 2732.99 2731 2730 2729
2728 2727.24 2728 2728 2726.67 2726 2727 2725 2725.16 2727
2724.75 2724.91 2724.04 2724.85 2721.59 2723 2722 2721.95 2722.37 2721.9
2722.19 2721.72 2721.3 2720.95 2717.64 2716.81 2716 2715.94 2715.91 2716.92
2714.84

4063.7 4062.25 4051.01 4062.42 4066.74 4031.19 3958.74 3876.92 3813.95 3788.4
3799.16 3857.75 3925.02 3987.48 4002.96 3961.33 3913.02 3840.22 3782.33 3737.05
3776.35 3825.87 3879.47 3934.09 3955.72 3925.94 3873.29 3805.31 3753.04 3754.88
3745.12 3780.41 3809.56 3799.93 3758.85 3742.18 3739.46 3761.46 3820.96 3870.85
3906.18 3908.35 3843.08 3779.3 3713.76 3650.58 3594.48 3615.94 3689.02 3725.02
3706.23 3673.4 3656.95 3705.89 3784.31 3854.86 3923.32 3934.12 3902.51 3868.18
3813.04 3776.85 3722.06 3680.85 3637.24 3618.75 3680.23 3758.98 3815.84 3829.19
3838.11 3801.37 3746.55 3676.59 3602.65 3535.37 3477.25 3434.15 3407.26 3345.76
3303.45 3303.5 3269.88 3281.42 3303.22 3306.01 3345.66 3406.57 3416.36 3382.18
3389.93 3434.37 3447.92 3389.04 3311.06 3235.42 3184.1 3122.58 3073.03 3085.63
3108.72 3166.47 3209.64 3281.94 3291.12 3297.86 3330.52 3387.68 3422.46 3423.26
3395.49 3380.2 3352.34 3340.59 3312.95 3277.32 3253.84 3187.53 3121.2 3052.41
3047.36 3054.55 3057.92 3066.56 3063.3 3063.91 3042.37 3022.36 3008.47 2996.21
2989.92 2970.61 2972.67 2954.94 2935.44 2954.47 2991.48 3009.97 3012.6 3009.32
3033.84 3039.3 3028.43 3025.48 3022.88 3019.73 3026.03 3016.74 3000.45 2965.07
2925.73 2907.13 2928.75 2952.7 2964.72 2974.83 2955.58 2916.47 2865.89 2840.1
2840 2838.91 2838.98 2842.29 2841.41 2841.83 2844.68 2863.96 2881.57 2899.68
2921.16 2928.14 2917.38 2873.19 2843.06 2855.59 2890.37 2941.57 2984.7 2997.33
2999.59 2980.57 2960.48 2950.85 2931.71 2912.62 2920.93 2960.22 2976.15 2975.68
2954.26 2937.85 2974.01 2982 2975.25 2958.31 2956.13 2986.37 3012.42 3033.48
3033.57 3001.41 2978.92 2964.53 2934.05 2898.13 2879.68 2853.48 2830.04 2822.94
2831 2824.98 2823.47 2818.97 2816.95 2816.5 2816.26 2826.08 2877.14 2918.92
2961.71 3004.79 3058.98 3073.12 3058.76 3030.67 2994.6 2963.38 2945.65 2931.61
2905.83 2880.02 2861.9 2843.91 2830.72 2856.41 2861.9 2849.31 2807.9 2772.13
2757.08 2756.51 2757 2754.26 2755.81 2755.13 2752.46 2751 2748.64 2746.52
2745 2745 2743.13 2744 2743 2741.37 2739.22 2739 2737 2735.93
2732.11 2731.94 2731.3 2731.91 2731 2732 2732 2731.86 2730 2728.97
2729 2727.94 2727.99 2727 2726.16 2726 2727.06 2726.68 2728.8 2727
2723.03 2724.31 2725 2725 2722.02 2722.1 2721.88 2721 2723 2722.94
2721.12 2719.3 2722.95 2717.76 2717.7 2717.93 2714.5 2716 2715.56 2716.5
2715.16

4049.37 4066.72 4070.82 4072.3 4071.42 4014.81 3949.3 3871.81 3807.29 3786.29
3808.44 3870.08 3930.91 3991.16 3995.17 3947.95 3885.47 3812.2 3762.58 3718.92
3765.04 3833.47 3883.18 3938.56 3956.84 3919.49 3866.24 3796.8 3737.37 3707.07
3709.37 3728.09 3746.42 3738.51 3707.9 3715.32 3725.36 3777.76 3853.53 3894.23
3899.47 3870.92 3810.47 3742.32 3686.28 3606.98 3558.53 3591.85 3658.83 3697.96
3691.2 3656.49 3640.71 3689.56 3769.93 3846.3 3903.48 3905.17 3846.28 3804.37
3775.04 3752.46 3691.69 3630.12 3594.6 3607.87 3693.74 3749.95 3759.54 3773.74
3787.7 3788.06 3753.17 3684.2 3606.87 3555.43 3525.38 3485.89 3445.8 3392.97
3337.6 3292.65 3243.53 3233.36 3244.66 3261.44 3316.24 3360.44 3359.7 3330.92
3324.49 3361.74 3388.96 3354.83 3302.14 3224.65 3159.65 3113.85 3069.37 3061.62
3099.94 3138.11 3181.92 3223.31 3222.22 3248.98 3310.94 3356.06 3355.13 3356.81
3330 3308.23 3272.34 3258.65 3245.66 3221.05 3201.23 3173.57 3110.77 3050.98
3018.81 3025.81 3026.75 3038.28 3043.65 3030.75 3011.78 2996.57 2987.75 2982.71
2972.45 2962.29 2948.75 2934.44 2922.46 2949.7 2976.81 2976.43 2981.46 3002.19
3039.58 3040.42 3016.04 2992.88 2984.99 2990.61 3001.31 3001.97 2995.85 2974.36
2928.48 2900.41 2922.42 2924.76 2952.87 2962.6 2966.4 2920.61 2885.42 2844.45
2836.03 2835.28 2835.97 2836 2837.12 2837 2838.72 2852.3 2869.61 2887.82
2910.27 2921.85 2915.68 2873.93 2840.86 2853.6 2896.44 2943.99 2977.39 2983.89
2990.47 2972.35 2944.73 2928.83 2928.67 2911.11 2928.93 2959.05 2968.27 2965.54
2939.32 2939.69 2977.16 2979.73 2963.2 2943.78 2958.92 2978.99 3007.22 3019.16
3010.99 2981.86 2951.88 2936.46 2915.34 2884.38 2883.96 2869.91 2845.48 2820.7
2819.99 2819 2821.14 2818.78 2812.95 2812.97 2813.88 2836.13 2882.82 2934.31
2988 3032.52 3070.97 3072.9 3047.73 3017.74 2980.12 2953.58 2937.99 2917.23
2897.25 2879.03 2858.77 2838.82 2816.76 2822.89 2836.18 2813.28 2775.82 2754
2752.97 2753.53 2754.97 2753.93 2752.71 2753 2752.76 2752.96 2750.57 2748
2744.37 2744.19 2743.98 2742.72 2743 2740 2739 2738.84 2736.9 2733.88
2734 2732.81 2732 2731.45 2729.9 2731 2732.79 2729.98 2730 2729.91
2728.92 2728.95 2729.91 2729 2731 2729.25 2728.92 2727.22 2727.1 2726
2725.16 2724.89 2724.87 2723.29 2723 2723 2722.88 2724.17 2721.95 2721.83
2722 2722.89 2719.41 2718.97 2717.96 2716.99 2715.96 2717.76 2715.92 2715
2715.95

3960.82 3986.6 4036.33 4036.94 4003.62 3955.54 3902.08 3837.42 3787.23 3781.29
3828.14 3899.56 3964.56 3988.22 3971.8 3911.7 3847.81 3783.43 3725.08 3712.33
3761.34 3828.21 3888.85 3951.71 3969.81 3940.06 3876.25 3806 3741.51 3690.73
3689.69 3692.57 3714.8 3710.77 3676.23 3674.29 3705.45 3778.27 3861.43 3903.55
3888 3829.06 3785.6 3710.97 3641.35 3581.22 3517.59 3574.04 3631.65 3670.65
3681.93 3636.78 3610.94 3672.96 3742.44 3810.19 3870.13 3873.56 3819.66 3756.21
3717 3705.73 3668.44 3603.53 3550.96 3593.85 3677.14 3709.11 3711.55 3700.55
3708.17 3750.65 3748.77 3680.87 3629.49 3608.39 3590.74 3548.88 3500.36 3446.17
3410.76 3342.12 3285.06 3229.97 3200.94 3233.54 3272.63 3293.81 3307.65 3275.5
3264 3302.13 3336.82 3328.61 3260.34 3202.15 3148 3095.89 3062.28 3033.7
3045.45 3092.58 3143.34 3161.33 3168.12 3227.42 3281.84 3285.28 3285.89 3288.14
3275.01 3239.01 3203.57 3191.47 3179.89 3167.66 3130.39 3114.69 3090.13 3051.51
3004.7 2998.76 3003.9 3016.6 3018.31 3010.2 2994.85 2985.66 2965.03 2970.79
2969.09 2952.76 2933.99 2924.7 2909.81 2933.6 2945.51 2957.16 2986 3011.99
3032.63 3030.53 2997.52 2968.14 2955.12 2963.22 2973.98 2980.03 2982.61 2981.28
2956.48 2904.44 2896.22 2911.97 2939.07 2954.3 2942.93 2922.57 2893.86 2848.67
2834.89 2832.29 2834.96 2835.78 2834.67 2834.68 2834.15 2844.23 2859.52 2880.12
2897.37 2913.47 2908.93 2873.86 2831.73 2853.83 2885.97 2926.32 2956.18 2976.74
2974.99 2952.97 2933.43 2912.34 2902.04 2923.6 2953.42 2947.16 2941.57 2936.76
2917.5 2941.64 2954.27 2961.73 2948.22 2948.24 2974.34 2984.82 3003.96 3013.29
2995.11 2960.71 2933.44 2908.91 2894.69 2876.13 2875.44 2870.22 2854.26 2825.44
2816.52 2817.9 2816.11 2813.91 2810.74 2810.32 2810.9 2835.27 2883.69 2937.88
2991.76 3034.73 3073.98 3065.74 3035.7 3003.32 2963.66 2938.46 2920.79 2897.96
2886.43 2862.28 2843.05 2827.44 2811.89 2791.37 2793.99 2776.26 2756.07 2751.86
2749.96 2748.85 2750 2750 2749.78 2750.01 2753 2750.8 2749 2748
2746.85 2742.91 2743 2741.97 2739.8 2741 2737.84 2736 2733.01 2734
2734 2733 2733 2731.93 2731 2730.92 2730.8 2729.66 2729.33 2728.91
2728.82 2731 2730.79 2730 2730.84 2728.49 2727.38 2726.17 2725 2726
2725.32 2725.97 2724.81 2724.12 2723.63 2726 2723.85 2724.82 2723 2721.94
2721.97 2722.68 2720.81 2718 2717.69 2716.14 2718.84 2719.37 2717.69 2717.63
2719

3895.79 3919.8 3957.62 3978.91 3961.74 3914.02 3859.51 3809.98 3766.4 3776.23
3828.73 3906.02 3966.46 3978.05 3930.22 3868.24 3820.08 3752.25 3697.68 3704.07
3768.7 3837 3919.67 3968.95 3979.99 3941.85 3876.02 3810.76 3744.48 3692.58
3661.2 3671.04 3675.67 3666.5 3642.85 3668.18 3711.12 3784.57 3859.97 3899.53
3871.79 3789.49 3719.31 3663.05 3597.27 3541.38 3481.65 3546.76 3609.88 3661.89
3661.69 3611.62 3598.2 3655.1 3716.55 3789.36 3846.34 3839.09 3778.9 3719.2
3655.41 3633.44 3601.76 3554.34 3515.63 3584.75 3650.04 3680.6 3656.43 3634.25
3669.57 3705.18 3713.07 3691.28 3675.39 3645.56 3610.33 3581.84 3558.2 3500.36
3444.19 3368.4 3313.49 3242.63 3173.67 3191.2 3215.53 3232.46 3244.62 3228.56
3226.7 3247.77 3291.17 3296.28 3242.41 3173.72 3130.97 3091.46 3057.9 3035.94
3014.61 3040.67 3092.99 3100.1 3144.47 3199.1 3213.52 3214.22 3227.35 3226.97
3213.62 3184.54 3149.98 3126.75 3116.14 3116.55 3092.38 3071.61 3065.03 3028.98
3004.84 2977.64 2983.96 2998.89 2998.16 2993.6 2984.75 2973.01 2952 2948.96
2948.45 2939.46 2926.76 2914.44 2903.45 2913.82 2933.22 2966.59 2989.27 3008.7
3010.71 3004.76 2991.91 2960.36 2938.43 2944.53 2945.12 2945.76 2956.85 2968.68
2960.82 2927.67 2882.25 2902.61 2915.08 2929 2918.42 2903.25 2901.52 2875.72
2834.46 2829.08 2833.57 2832.39 2832.64 2833.14 2833.21 2836.2 2849.25 2864.15
2886.73 2903.8 2908.42 2865.08 2826.87 2852.5 2888.26 2930 2956.95 2968.58
2956.27 2932.67 2909.59 2892.32 2918.63 2941.45 2953.89 2948.06 2923.24 2912.24
2907.95 2933.63 2938.1 2937.56 2934.6 2953.6 2975.75 2983.22 2997.27 3000.51
2979.44 2948.51 2915.5 2887.55 2875.64 2854.73 2852.64 2859.28 2852.57 2824.09
2812.44 2811.92 2811 2812 2808.29 2809.93 2810.88 2858.59 2911.23 2947.25
2986.85 3029.49 3061.21 3049.31 3024.57 2988.34 2953.45 2929.17 2909.85 2890.35
2867.3 2857 2838.37 2818.62 2798.9 2784.19 2766.23 2761.87 2755.01 2750
2750 2751 2749.11 2748.86 2746.99 2748.96 2749 2748 2748.99 2748
2745.62 2746 2744 2741.98 2738 2737.75 2734.14 2734.09 2734 2734
2735 2732.3 2732.5 2732.66 2731.99 2732 2731 2731 2731.03 2732.13
2730 2729.75 2730.91 2730.73 2728.88 2729 2727.93 2726.1 2727.16 2728.33
2727.4 2726.09 2726.14 2725.28 2725.05 2725.29 2723.97 2723 2723 2722
2723 2720.99 2721.78 2719 2719 2718.56 2719.98 2720 2721.68 2721.13
2720.23

3851.33 3864.53 3901.31 3937.71 3932.16 3883.74 3828.48 3781.97 3744.15 3757.17
3813.44 3889.89 3934.76 3929.64 3877.93 3818.56 3768.07 3708.17 3664.08 3697.69
3762.21 3825.61 3909.21 3962.58 3972.55 3929.28 3880.34 3809.61 3771.82 3700.93
3636.86 3646.12 3637.43 3615.32 3637.06 3671.95 3741.28 3821.57 3891.07 3902.15
3858.92 3783.5 3718.19 3638.38 3588.03 3519.19 3452.63 3520.26 3586.09 3628.6
3632.25 3588.41 3556.18 3628.27 3711.61 3786.94 3827.84 3819.54 3758.61 3694.11
3612.78 3572.96 3546.99 3497.98 3469.66 3563.05 3621.81 3651.83 3624.03 3582.27
3619.92 3650.15 3667.53 3691.12 3680.28 3628.7 3600.05 3575.98 3556.88 3503.16
3448.57 3379.17 3316.66 3262.17 3186.55 3141.3 3147.82 3162.92 3188.65 3178.31
3177.62 3213.54 3246.32 3272.76 3257.45 3209.89 3167.67 3106.53 3049.2 3024.49
3006.79 3001.31 3036.58 3074.01 3106.68 3137.59 3151.5 3146.67 3155.66 3159.11
3160.66 3130.49 3111.88 3092.26 3080.44 3073.13 3068.2 3052.57 3017.28 3003.47
2987.79 2956.21 2968.1 2967.77 2973.52 2970.05 2970.4 2960.95 2945.72 2943
2936.74 2921.5 2914.92 2896.75 2890.25 2903.89 2934.84 2962.8 2976.61 2974.6
2975.95 2983.46 2977.96 2958.55 2930 2912.11 2906.76 2916.04 2933.02 2941.97
2947.7 2938.41 2895.3 2872.25 2883.34 2903.3 2889.21 2895.09 2904.67 2887.26
2844.68 2825.06 2827.15 2829.4 2827.3 2829.96 2829.98 2828.52 2839.91 2854.57
2879.15 2891.58 2893.42 2858.87 2825.64 2848.57 2881.39 2931.73 2957.3 2964
2956.69 2926.01 2892.6 2884.65 2926.38 2940.97 2938.1 2926.2 2909.31 2908.27
2904.22 2913.07 2911.64 2918.5 2921.92 2942.67 2950 2972.32 2991.99 2989.33
2959.41 2927.16 2896.26 2866.25 2856.82 2846.49 2838.83 2837.84 2832.9 2818.74
2812.95 2810.44 2809.87 2808.57 2804.02 2806.92 2812.03 2863.44 2925 2984.13
3010.24 3019.64 3017.16 3005.8 2996.26 2963.24 2933.45 2912.23 2896.35 2879.28
2855.17 2846.79 2828.07 2807.85 2789.05 2766.64 2759.77 2757.5 2753.41 2749.24
2748.94 2749.6 2749.36 2747.88 2746.37 2747.96 2748 2747.9 2747 2746.71
2745.04 2745.26 2740.95 2738 2736.35 2736.46 2735.89 2735 2732.95 2734
2734.83 2734.11 2734 2734 2733.98 2731.89 2731.01 2730.47 2731.95 2733.79
2730.72 2732.77 2730.98 2729.13 2728.8 2727.7 2727.38 2730.04 2731.91 2729.99
2728.28 2728.1 2728 2727 2726.52 2727 2723.32 2724 2721.5 2724
2723 2721 2721 2719 2721.85 2722 2723 2721.7 2722 2723.85
2724.24

3845.39 3827.7 3845.43 3900.04 3916.99 3886.23 3828.63 3765.31 3719.34 3728.92
3785.32 3844.23 3901.24 3887.89 3839.93 3779.44 3719.07 3668.3 3645.92 3714.44
3783.52 3837.6 3900.12 3936.28 3928.89 3901.21 3862.77 3839.24 3792.63 3717.34
3638.58 3610.53 3609.83 3584.33 3622.08 3695.79 3766.58 3837.48 3887.92 3888.41
3844.87 3774.01 3700.01 3636.27 3561.97 3509.75 3437.43 3479.82 3547.07 3597.25
3581.69 3535.57 3536.57 3604.22 3677.83 3742.13 3775.62 3775.36 3730.28 3682.53
3604.13 3535.38 3475.24 3447.27 3456.91 3537.82 3596.39 3619.48 3584.68 3532.78
3564.39 3586.99 3617.14 3658.81 3662.64 3611.45 3568.02 3530.11 3520.27 3487.22
3420.21 3357.61 3315.4 3267.66 3197.39 3142.11 3113.57 3118.48 3136.11 3132.98
3152.63 3217.26 3268.86 3306.89 3290.6 3219.32 3167.22 3109.81 3051.63 3017.33
2999.89 2990.05 3012.97 3033.45 3060.81 3075.54 3088.55 3093.48 3108.28 3119.3
3120.17 3109.53 3088.46 3079.8 3073.6 3051.87 3043.14 3047.53 3019.24 2980.26
2974.43 2952.68 2931.52 2948.86 2947.58 2955.27 2950.81 2948.7 2938.18 2936.24
2930.27 2912.48 2900.73 2894.01 2878.12 2903.13 2927.11 2950.02 2950.6 2939.98
2962.41 2961.58 2948.09 2959.62 2928.01 2895.55 2881.55 2887.65 2905.51 2901.63
2929.52 2938.52 2912.43 2897.15 2872.78 2868.5 2863.97 2868.37 2894.27 2894.21
2888.32 2825.27 2819.83 2824.38 2828.36 2831 2825.55 2824.51 2828.31 2842.89
2865.42 2883.44 2886.94 2846.25 2821.8 2844.44 2876.34 2922.08 2949.99 2960.76
2954.5 2923.45 2884.35 2889.65 2926.94 2929.07 2921.27 2907.32 2898.75 2899.76
2904.54 2905.86 2910.74 2917.19 2924.92 2934.89 2944.59 2965.12 2980.19 2971.06
2947.73 2911.51 2881.19 2879.61 2876.3 2861.18 2842.08 2825.71 2820.19 2808.44
2809.51 2807.57 2806.79 2807.84 2804.96 2803 2819.49 2877.15 2924.68 3001.79
3006.72 3008.96 2992.62 2974 2952.17 2916.51 2904.03 2891.72 2875.13 2855.68
2847.41 2827.63 2806.07 2790.64 2762.72 2753.81 2754.69 2753.16 2750.14 2750.96
2749 2750.94 2749.96 2748 2748 2745 2745.96 2746.89 2745.99 2746.93
2743.75 2738.97 2738 2737.02 2736.39 2736.76 2734.14 2734.01 2734.05 2734
2735.89 2734.84 2732.7 2732 2734 2733.33 2734.12 2731 2731.01 2734
2733.01 2732 2730.99 2730.88 2727.95 2728.79 2732.77 2733.87 2733.08 2731.02
2729.42 2728.14 2728.02 2728.93 2727 2726.92 2725.88 2726 2725.86 2724
2725.77 2725 2721.03 2720.54 2722.89 2722 2724.98 2722.35 2723.9 2726.85
2728.68

3844.12 3828.79 3812.4 3805.76 3854.55 3861.25 3817.42 3742.74 3695.91 3701.92
3737.16 3804.62 3865.84 3856.74 3787.99 3739 3690.52 3633.39 3635.55 3710.33
3788.91 3853.61 3930.37 3935.6 3906.77 3838.88 3820.54 3829.62 3790.47 3721.21
3638.14 3571.42 3560.41 3569.86 3628.95 3699.27 3768.62 3840.59 3876.49 3860.24
3793.48 3739.69 3691.92 3639.51 3565.55 3484.47 3411.52 3457.62 3543.37 3564.79
3536.55 3484.11 3507.67 3593.47 3631.4 3691.37 3731.29 3709.69 3667.45 3616.31
3567.07 3526.26 3461.7 3401.57 3424.11 3507.6 3564.14 3569.47 3530.42 3482.17
3493.39 3523.18 3569.09 3628.29 3624.9 3584.81 3530.55 3487.68 3468.34 3425.03
3372.62 3334.65 3278.52 3245.14 3197.47 3155.14 3132.73 3104.77 3085.8 3099.16
3150.04 3221.19 3279.08 3310.74 3283.81 3223.38 3175.72 3109.15 3046.76 3024.01
2997.63 2980.22 3003.93 3023.04 3035.54 3056.38 3068.17 3070.44 3077.41 3087.58
3091.98 3088.41 3066.93 3061.28 3061.7 3041.87 3023.8 3029.51 3016.67 2985.13
2950.11 2940.94 2925.4 2913.52 2921.86 2925.39 2926.94 2930.23 2933.04 2926.34
2918.38 2898.59 2884.98 2881.23 2869.77 2903.63 2930.45 2925.88 2915.82 2925.69
2945.61 2937.21 2919.54 2941.22 2927.67 2887.2 2866.31 2861.09 2875.9 2877.08
2903.5 2902.86 2910.64 2923.24 2909.39 2896.92 2871.85 2862.91 2870.54 2886.22
2890.39 2850.78 2821.94 2820.57 2821.9 2823.93 2823.48 2824 2821.28 2834.27
2853.92 2869.67 2877.41 2838.07 2817.18 2829.91 2867.1 2909.56 2943.29 2959.99
2947.09 2917.34 2879.43 2871.51 2896.94 2896.72 2884.13 2921.92 2930.34 2939.16
2943.65 2926.86 2910.83 2903.77 2906.01 2918.39 2928.66 2947.82 2951.41 2937.45
2928.09 2908.52 2902.76 2897.53 2888.35 2870.14 2851.37 2826.86 2811.83 2804.67
2804 2804.32 2802.77 2800.01 2801.69 2799.14 2851.86 2908.54 2964.4 2974.56
2980.51 2963.09 2954.93 2932.16 2919.61 2901.52 2885.88 2869.29 2851.43 2838.7
2822.73 2810.9 2794.82 2784.9 2760.29 2752 2755 2753.73 2749.24 2749.67
2747.96 2747.01 2747.4 2748 2746 2746.25 2745 2743.21 2742.96 2740.73
2738.56 2738.75 2738.06 2737.72 2737.08 2738 2736.17 2735.91 2736 2735.94
2733.28 2732.99 2733 2735 2733.54 2732.19 2733.2 2734.93 2732.75 2733
2734 2731.97 2730 2729.22 2731.98 2734.45 2736.08 2737.86 2741.43 2744.46
2743.95 2742.9 2743.77 2744.19 2739.73 2735.84 2729.1 2727.4 2726.6 2724.92
2725.79 2724.11 2722 2723.92 2722.77 2722 2724.01 2723.1 2727.09 2730.01
2731.15

3812.21 3816.47 3797.51 3771.65 3809.56 3823.39 3770.24 3709.97 3671.01 3673.26
3703 3768.19 3845.2 3848.01 3767.07 3697.35 3645.33 3600.99 3617.16 3704.87
3776.14 3848.81 3935.02 3922.15 3864.09 3797.1 3754.84 3766.65 3770.86 3702.01
3629.97 3554.03 3525.74 3573.45 3641.28 3707.41 3763.1 3832.64 3855.87 3820.93
3769.25 3692.69 3630.29 3572.08 3518.47 3459.43 3394.52 3437.39 3499.28 3517.53
3484.3 3423.34 3491.37 3539.87 3592.4 3683.4 3702.98 3677.58 3605.82 3569.77
3524.74 3473.99 3428.69 3379.21 3412.27 3480.17 3540.11 3542.78 3483.05 3437.11
3435.57 3482.58 3562.82 3595.23 3595.1 3554.45 3498.4 3443.63 3400.79 3379.98
3328.53 3277.48 3234.06 3192.81 3166.86 3137.62 3132.75 3103.74 3065.06 3094.15
3134.76 3184.8 3243.92 3283.42 3279.46 3235.44 3181.09 3108.95 3055.56 3025.77
3000.06 2970.7 2983.99 2997.29 3005.04 3030.75 3048.13 3055.34 3053.57 3061.38
3063.1 3058.22 3047.8 3033.15 3024.88 3019.33 3003.98 3009.91 3001.64 2974.28
2938.67 2914.7 2904.4 2902.7 2908.15 2913.74 2911.36 2918.11 2925.97 2923.1
2907.35 2893.48 2874.71 2866.87 2859.57 2888.65 2907.83 2900.23 2886.07 2909.68
2905.75 2900.91 2895.61 2911.17 2905.6 2880.83 2855.17 2850.82 2852.64 2852.17
2862.05 2859.68 2894.18 2919.85 2918.84 2928.85 2916.33 2880.74 2856.46 2871.68
2883.73 2867.07 2828.62 2817.07 2819.69 2821.84 2820.09 2818.26 2817.92 2823.29
2842.27 2861.89 2866.96 2843.69 2810.95 2827.23 2854.39 2894.57 2934.17 2950.7
2940.15 2917.48 2873.63 2849.51 2856.08 2884.11 2934.95 2969.18 2978.56 2972.34
2951.72 2925.11 2905.66 2887.1 2887.22 2890.96 2893.29 2920.11 2920.66 2905.3
2902.79 2916.77 2911.94 2895.36 2871.64 2850.28 2842.62 2825.12 2811.02 2800.37
2802.28 2800.67 2799.87 2799.68 2797.97 2807.48 2867.61 2937.65 2992.91 2985.84
2965.91 2954.87 2934.15 2907.8 2894.05 2876.22 2857.79 2839.84 2833.41 2821.12
2798.95 2787.33 2773.83 2763.58 2754.12 2751.53 2753 2751.99 2750 2749
2746 2745.99 2745.52 2749.87 2747 2746.85 2744.48 2742.88 2741 2739.45
2739 2736.99 2737 2737 2735.97 2735.38 2736.9 2735.63 2734.95 2735
2733.83 2733 2733.29 2734.99 2732.68 2735 2733.99 2734 2734 2734
2733 2731.96 2733 2731 2735.75 2740 2740.45 2742.56 2747.99 2750.86
2748.99 2748.73 2748.01 2748.97 2745.19 2744.93 2740 2740 2735.49 2730.8
2727.84 2724.21 2729.92 2726.03 2731.96 2734.27 2739.47 2734.86 2734.9 2735.89
2733

3775.9 3788.89 3779.41 3758.63 3781.15 3791.28 3749.07 3683.78 3650.14 3664.13
3690.59 3760.33 3811.07 3796.96 3750.87 3686.95 3605.74 3566.82 3619.82 3703.35
3781.86 3834.72 3904.96 3896.17 3831.46 3767.76 3709.76 3684.04 3686.02 3644.12
3581.65 3522.14 3519.7 3578.9 3645.2 3712.02 3762.47 3811.98 3831.49 3815.8
3732.33 3665.55 3599.02 3540.03 3468.68 3441.96 3392.9 3387.55 3460.92 3476.78
3442.02 3391.35 3432.76 3507.6 3569.09 3634.33 3669.63 3658.33 3592.63 3516.27
3472.42 3428.76 3381.27 3332.18 3398.09 3467.5 3514.14 3507.29 3438.68 3382.9
3406.71 3457.16 3529.47 3540.11 3529.56 3498.65 3465.05 3418.98 3368.95 3324.81
3296.82 3262.71 3234.92 3212.21 3171.74 3140.78 3104.39 3090.26 3058.8 3053.65
3096.9 3143.74 3202.09 3237.23 3248.24 3214.35 3150.02 3085.91 3051.89 3023.58
2997.12 2976.38 2949.19 2956.55 2990.43 2999.24 3021.32 3024.88 3033 3037.04
3041.94 3037.79 3016.69 3007.44 2992.94 2983.08 2983.44 2997.52 2979.86 2947.88
2930.98 2903.68 2887.12 2886.34 2881.66 2887.2 2900.52 2892.84 2896.88 2900.87
2897.38 2884.94 2872.81 2867.53 2854.6 2868.91 2880.6 2875.63 2868.94 2874.78
2870 2855.33 2871.97 2882.06 2878.13 2851.66 2838.21 2829.52 2823.94 2815.19
2813.22 2818.16 2845.52 2881.58 2907.73 2923.06 2913.59 2885.53 2851.59 2841.53
2859.18 2857.77 2831.68 2809.95 2816.55 2816.85 2816.32 2815.36 2815 2815.54
2836.38 2854.2 2859.93 2847.8 2808.09 2821.94 2844.21 2884.17 2913.65 2928.46
2922.85 2885.92 2845.19 2849.33 2890.59 2940.08 2995.77 3013.78 3005.71 2978.53
2950.15 2915.64 2881.2 2863.78 2867.29 2867.08 2882.35 2900.38 2888.56 2873.21
2902.41 2923.99 2922.75 2905.97 2879.82 2862.4 2836.67 2819.7 2803.65 2798.99
2797.1 2798.92 2798.89 2798.85 2794.76 2854.98 2904.3 2957.17 2981.49 2979.26
2952.31 2925.81 2913.88 2880.73 2866.49 2842.43 2822.19 2813.23 2801.68 2789.86
2780.7 2770.87 2763.4 2754.99 2752.99 2752.92 2752.7 2750.44 2749 2749.98
2748.72 2746 2745.65 2746.55 2745.84 2743.55 2742.97 2742 2741.95 2740
2739.48 2739 2737 2736.01 2736 2738.99 2736.92 2736.99 2734.03 2736
2736.88 2734.95 2736.99 2735.52 2734.76 2734.86 2737 2734.84 2735 2733.71
2733 2731.67 2731.41 2732 2739.74 2743.8 2744.26 2745.11 2753.99 2754
2753.82 2751.34 2748.39 2748 2748 2744.77 2744.88 2743.61 2739.05 2738.72
2735.8 2736.93 2736.36 2736.56 2739 2740.05 2741.99 2739.02 2741.89 2737.98
2735.01

3750.31 3741.54 3737.67 3729.99 3747.73 3750.59 3711.55 3660.96 3634.24 3659.38
3690.25 3762.4 3801.16 3784.47 3706.84 3630.1 3570.98 3550.6 3616.64 3695.23
3786.54 3837.13 3868.93 3866.71 3817.7 3744.24 3677.17 3619.48 3597.04 3582.53
3533.18 3484.86 3499.64 3558.77 3619.11 3658.88 3710.78 3758.02 3812.01 3813.07
3749.7 3681.52 3626.1 3547.9 3478.39 3400.12 3362.52 3359.16 3451.31 3454.95
3417.42 3362.41 3422.02 3477.24 3529.71 3596.22 3634.09 3623.84 3585.09 3530.5
3460.15 3386.32 3329.97 3303.88 3381.44 3431.18 3475.68 3459.7 3401.67 3340.92
3357.76 3412.81 3465.71 3473.98 3461.37 3432.63 3401.16 3374.69 3364.27 3324.68
3292.82 3289.46 3282.53 3272.49 3217.9 3169.78 3116.04 3074.69 3046.72 3026.18
3048.43 3087.51 3141.65 3168.72 3180.83 3150.29 3103.09 3073.26 3041.46 3015.22
2992.32 2969.11 2947.9 2934.86 2957.82 2986.81 2997.79 3004.71 3006.97 3021.32
3037.88 3032.51 2999.39 2979.49 2966.27 2960.55 2954.44 2977.21 2966.24 2932.25
2908.97 2889.43 2879.16 2869.37 2868.05 2873.31 2880.07 2881.67 2882.87 2875.4
2867.06 2855.85 2846.69 2854.48 2840.84 2849.98 2859.57 2849.71 2840.1 2838.69
2829.83 2829.5 2829.81 2841.71 2834.77 2830.79 2819.78 2798.82 2793.46 2794.89
2793.94 2797.26 2798 2815.25 2846.16 2869.87 2867.62 2876.46 2854.14 2830.39
2829.3 2837.55 2831.68 2809.85 2813.89 2814.11 2813 2811.82 2812.64 2810.67
2824.25 2850.33 2854.9 2852.55 2822.33 2809.83 2830.04 2863.09 2885.2 2891.51
2873.06 2843.35 2834.84 2869.87 2906.74 2961.65 3008.83 3019.68 3002.49 2973.07
2939.91 2894.2 2866.11 2846.43 2850.19 2854.2 2879.28 2885.45 2859.47 2861.25
2894.32 2923.3 2925.99 2913.14 2889.19 2862.51 2839.3 2820.18 2801.47 2795.83
2794.46 2796.41 2794.26 2791.06 2798.27 2865.44 2927.64 2949.44 2956.05 2946.1
2923.64 2897.06 2876.51 2858.04 2840.4 2829.8 2809.76 2794.96 2775.11 2763.53
2759.2 2753.52 2753 2752 2751.93 2752.19 2754 2749.49 2748.65 2748.12
2749.99 2744.94 2746.04 2744.98 2743.83 2742 2742 2740.98 2739.96 2739
2737.98 2738.37 2738 2739.29 2738.12 2738.38 2736.97 2737 2734.99 2734.7
2735.15 2735.14 2736.33 2739.93 2735.93 2735.08 2737.98 2734.97 2734 2732.91
2732.39 2731.63 2737.99 2747.07 2753 2752.23 2749.04 2748.06 2753.05 2755.99
2755 2753.07 2751.78 2750.16 2748.03 2748.8 2746 2745.13 2740.36 2742
2739.65 2740 2742.77 2743.11 2741.73 2743 2743 2745.05 2744 2740.69
2739.15

3754.04 3719.8 3699.61 3699.96 3705.85 3701.55 3679.09 3639.57 3629.59 3655.58
3695.83 3752.84 3782.66 3767.73 3701.58 3619.13 3531.09 3528.36 3607.51 3667.45
3713.33 3771.38 3811.41 3812.66 3794.6 3762.99 3694.25 3633.52 3548.67 3529.77
3491.01 3450.8 3477.01 3521.34 3566.66 3606.6 3671.21 3728.08 3778.99 3793.09
3744.73 3676.63 3623.91 3553.28 3486.35 3413.97 3307.42 3317.23 3392.61 3405.98
3369.92 3340.03 3402.44 3455.46 3525.73 3577.34 3589.61 3561.65 3529.78 3508.99
3453.02 3382.46 3327.35 3274.4 3332.19 3396.75 3438.99 3424.53 3358.27 3304.43
3312.25 3366.42 3404.64 3406.7 3390.14 3370.67 3343.58 3314.17 3307.09 3281.19
3275.63 3274.22 3277.81 3278.8 3220.94 3165.69 3105.01 3072.57 3046.97 3011.53
3010.48 3038.28 3066.13 3087.64 3095.47 3090.49 3070.34 3048.52 3033.99 3026.83
2999.59 2970.95 2942.6 2921.38 2946.78 2971.24 2985.67 2979.75 2997.61 3023.53
3024.94 2992.28 2978.27 2971.88 2938.33 2923.15 2932.68 2949.45 2924.03 2898.55
2882.7 2864.05 2855.19 2854.29 2855.55 2865.39 2866.16 2860.09 2854.77 2848.8
2833.19 2816.31 2821.37 2829.19 2827.83 2836.72 2832.03 2813.37 2808.34 2799.51
2807.65 2804.83 2798.02 2801.83 2803.56 2804.06 2798.22 2794.84 2793.46 2793.76
2793.78 2794.86 2794.84 2795.95 2793.52 2805.24 2806.55 2825.08 2832.47 2829.9
2817.25 2820.85 2819.38 2806.2 2810 2810.49 2809.98 2809.63 2811.29 2808.74
2815.04 2842.61 2851.25 2847.83 2817.83 2801.86 2812.6 2826.66 2837.96 2846.59
2828.25 2812.86 2837.41 2857.51 2889.56 2938.53 2967.64 2999.79 2987.16 2953.25
2922.31 2883.02 2847.38 2827.5 2825.02 2842.61 2866.76 2854.42 2830.52 2847.06
2874.67 2893.13 2914.24 2906.05 2894.35 2871.63 2844.78 2826.49 2809.89 2795
2792.96 2791.99 2789.22 2786.91 2814.04 2876.19 2927.12 2930.77 2914.3 2908.93
2888.99 2866.72 2853.82 2834.49 2829.73 2810.36 2791.95 2779.5 2764.96 2756.34
2753.99 2751.3 2750.43 2750.9 2752.02 2752.82 2749.29 2749 2747.57 2746.88
2749 2746.08 2747 2745 2743 2744 2741.28 2742.97 2741.16 2737.98
2738 2737.58 2738 2740 2739.72 2736.59 2736.83 2736 2735.33 2735.51
2737 2736 2736.41 2736.34 2735.97 2736 2735 2734.99 2733.8 2734.9
2733.71 2742.16 2750.64 2753.72 2755.99 2756 2752.38 2750.85 2752.92 2755.01
2756.89 2756.03 2754 2754 2751.4 2748.08 2746.98 2746.06 2744.09 2741.93
2743.92 2743.7 2744.66 2747 2746.08 2745.93 2747.3 2746.4 2744.84 2741.48
2742.18

3750.97 3721.36 3696.3 3674.19 3669.39 3667.73 3651.18 3633.07 3610.84 3635.52
3672.34 3693.45 3726.53 3732.99 3688.12 3617.64 3511.35 3506.02 3582.32 3613.42
3677.45 3746.67 3788.49 3774.44 3735.95 3732.69 3696.45 3646.98 3551.41 3485.23
3438.07 3413.13 3438.6 3465.93 3519.52 3580.27 3660.43 3682.06 3728.2 3748.95
3706.5 3639.04 3575 3511.47 3451.7 3380.53 3297 3292.43 3365.07 3373.78
3334.3 3311.43 3396.56 3452.68 3491.99 3545.92 3557.8 3528.03 3467.64 3432.71
3415.48 3362.1 3301.34 3242.19 3293.65 3352.68 3393.96 3385.87 3331.26 3271.45
3274.7 3318.89 3343.95 3340.21 3336.76 3309.07 3284.26 3255.05 3240.6 3220.39
3204.5 3215.35 3226.2 3232.44 3196.14 3133.65 3089.85 3072.84 3046.06 3010.93
2994.34 2997.84 3023.78 3036.62 3052 3051.31 3038.96 3023.51 3015.34 3018.04
3000.32 2973.06 2944.68 2917.99 2936.37 2941.5 2961.32 2954.9 2978.86 2985.11
2984.22 2963.37 2950.64 2949.1 2928.53 2896.61 2901.38 2906.24 2871.15 2844.07
2842.64 2843.84 2836.91 2848.04 2842.4 2851.29 2854.54 2844.64 2838.48 2830.52
2809.2 2800 2801.14 2800.07 2815.15 2813.52 2799.26 2797.42 2798.99 2797.62
2796.94 2796.06 2795 2794.79 2794 2795 2796 2794.53 2794.1 2795.73
2796.9 2796 2794 2792.29 2792.96 2791.95 2789.56 2791.98 2793.31 2796.69
2808.98 2810 2805.56 2803.65 2807.8 2809.68 2810 2809.05 2807.92 2806.45
2808.44 2837.16 2842.85 2835.44 2813.98 2801.15 2798.36 2800.72 2800.4 2803.73
2801.64 2801.96 2813.78 2825.92 2850.89 2885.21 2923.03 2953.48 2964.39 2935.27
2894.16 2854.16 2822.86 2808.9 2808.8 2818.47 2841.05 2827.24 2812.66 2835.74
2854.41 2872.4 2874.59 2878.18 2879.42 2870.37 2846.74 2829.72 2810.8 2789.39
2789.94 2787.14 2787 2785.18 2829.24 2887.5 2920.69 2916.68 2902.59 2895.49
2867.67 2847.76 2826.56 2812.75 2801.74 2788.92 2784.62 2761.31 2755.86 2754.9
2752.98 2753.01 2753.95 2752 2750.88 2750.92 2749.7 2748 2748 2747.22
2746.99 2745.39 2744.91 2742.19 2743 2743 2741.48 2742 2739.86 2738.12
2740 2739.7 2738.92 2738.8 2739.38 2738 2737.45 2736.99 2735.05 2736
2736 2735.85 2738.89 2737.84 2736 2736 2735.27 2735.98 2737.63 2739.69
2741.17 2753.05 2756.72 2758.93 2758.18 2757.04 2756.03 2753.74 2757.53 2759
2757.96 2758.37 2758.77 2756.3 2755.28 2752.54 2750 2747.97 2744.72 2743.68
2744 2747 2748.43 2750.5 2751 2750.15 2751.01 2749.29 2746.92 2745.81
2745.98

3749.82 3720.37 3695.63 3675.78 3667.03 3654.71 3639.01 3624.55 3596.34 3601.41
3614.8 3615.89 3653.91 3666.85 3637.48 3568.73 3503.88 3477.66 3557.56 3609.78
3669.96 3737.04 3769.5 3750.84 3699.38 3653.09 3647.87 3616.28 3555.26 3498
3428.55 3377.53 3395.73 3458.29 3523.71 3574.09 3600.49 3622.14 3676.82 3719.43
3702.65 3615.54 3558.24 3480.47 3413.1 3345.98 3280.99 3253.14 3309.28 3318.63
3293.58 3297.18 3365.3 3407.58 3447.38 3511.68 3531.83 3506 3461.85 3393.4
3358.94 3328.83 3293 3229.63 3254.61 3312.33 3368.91 3367.9 3317.39 3262.36
3230.51 3271.96 3279.68 3282.09 3276.31 3254.3 3235.1 3214.96 3183.98 3167.21
3155.03 3148.09 3164.99 3186.04 3176.39 3120.25 3073.24 3051.03 3044.66 3006.02
2989.48 2978.52 2996.98 3024.74 3042.15 3029.83 3017.07 3003.55 2987.05 2993.44
2987.7 2967.09 2942.48 2917.55 2920.76 2930.19 2936.84 2932.82 2951.01 2961.31
2965.96 2960.27 2928.7 2920.54 2908.08 2865.8 2864.92 2844.86 2821.18 2807.24
2806.05 2822.67 2825.35 2829.11 2827.56 2840.11 2840.14 2838.12 2829.77 2817.8
2802 2800.07 2801 2799.87 2800.84 2798.26 2798.58 2798.11 2798.84 2797.99
2796.05 2796.92 2797 2795.87 2795 2795 2794 2793.13 2794 2794.33
2795.41 2792.93 2794 2793.98 2794 2793.15 2792 2792.99 2792.53 2789.26
2791.83 2800.87 2796.15 2802.36 2805.89 2808 2806.73 2806 2804.47 2802.87
2808.39 2818.4 2811.39 2794.84 2786.97 2793.71 2795.95 2794.9 2790.75 2783.05
2780.98 2778.97 2789.69 2795.69 2814.12 2836.8 2865.08 2893.37 2919.16 2910.11
2871.1 2825.62 2801.39 2793.9 2788.7 2788.54 2798.88 2791.76 2790.51 2811.9
2826.84 2843.39 2859.53 2857.17 2860 2860.41 2842 2824.83 2807.65 2785.85
2786.96 2785.26 2784.75 2784.72 2830.03 2890.72 2888.05 2874.05 2863.12 2856.23
2839 2824.34 2805.69 2795.44 2785.97 2777.61 2768.28 2757.95 2755.99 2754
2753.94 2752.89 2751.6 2750 2750.94 2748.84 2748 2747 2747.12 2746
2746.22 2744.58 2744 2743 2743 2744 2740.92 2741.19 2740.9 2739
2740.04 2740 2741 2740 2741 2738.98 2736.91 2736.76 2736 2736.94
2737.12 2736.14 2735.64 2736.88 2736.9 2738.23 2742.38 2741.67 2749.33 2748.67
2751.24 2755.54 2757.91 2760.11 2761 2760.34 2758 2755.35 2760.26 2762
2759.83 2760.11 2760.03 2756.9 2756.52 2755.38 2752.58 2749.98 2745.34 2747.01
2746.74 2749 2755.33 2753.38 2752.85 2755.92 2755 2753.05 2749.98 2746.14
2748

3721.35 3706.63 3696.9 3677.52 3666.92 3654.92 3629.65 3599.1 3577.6 3557.19
3562.16 3555.88 3579.24 3583.56 3584.36 3523.26 3441.72 3454.03 3528.82 3587.61
3634.73 3688.08 3736.18 3740.8 3681.7 3609.07 3557.3 3561.03 3547.67 3491.92
3421.08 3356.45 3368.33 3457 3507.87 3517.7 3533.28 3594.22 3662.28 3709.79
3689.63 3616.8 3554.3 3494.56 3429.47 3364.93 3284.54 3232.38 3262.45 3281.79
3249.04 3289.16 3337.07 3360.91 3426.12 3475.05 3510.64 3509.81 3472.01 3410.85
3349.35 3298.32 3251.32 3202.4 3228.07 3272.44 3308.55 3324.78 3298.34 3248.29
3188.63 3221.57 3232.58 3230.94 3228.49 3203.28 3186.84 3175.4 3152.54 3126.81
3117.35 3109.29 3101.99 3120.97 3117.55 3094.02 3054.03 3028.33 3023.86 2997.9
2978.24 2964.05 2975.44 3022.24 3041.52 3025.96 2996.98 2982.04 2963.76 2973.69
2975.08 2959.38 2939.24 2919.56 2895.09 2920.42 2924.2 2916.98 2921.29 2939
2944.16 2945.08 2912.94 2873.62 2852.42 2817.23 2808 2808.38 2806.37 2806.46
2805 2805 2806 2804.35 2802.94 2804.99 2803 2803.01 2802.86 2802.02
2802 2801.99 2801 2800.84 2799.76 2798.95 2799.67 2799.99 2798.94 2797.34
2797.51 2795.88 2796 2795.01 2796 2794.76 2794.43 2792.9 2792.67 2792.96
2793 2793 2793.99 2793.26 2792.93 2792.66 2791.85 2791.91 2790 2788.76
2787.55 2792.26 2799.15 2802.93 2801.91 2803.79 2803 2800.13 2790.98 2786.35
2784.82 2784.45 2781.04 2782.16 2782 2781.28 2781.57 2781.98 2778 2780
2779.98 2778.74 2780.89 2776.9 2782.59 2802.11 2821.53 2833.81 2857.7 2859.74
2843.81 2801.01 2784.24 2776.15 2774.53 2771.91 2772 2770.54 2768.29 2783.49
2801.47 2818 2830.92 2835.96 2839.5 2843.97 2835.68 2812.2 2794.87 2784.03
2782.96 2781.49 2778.34 2782.32 2826.26 2866.22 2854.42 2848.87 2834.12 2827.42
2819.76 2803.26 2790.17 2776.61 2764.28 2758.07 2757 2757 2755.62 2753.76
2753 2752.98 2751.69 2749.47 2749.08 2748 2745.91 2746.98 2745.96 2747
2746.96 2746.37 2744 2744 2743.02 2744 2741 2742.55 2741.11 2742.36
2741.01 2741.43 2740.26 2741.99 2740.2 2738 2738 2738.95 2738 2739
2738 2738.94 2741.91 2743.11 2749.91 2756.36 2759.19 2756.43 2756.2 2757
2756.01 2758.77 2761.09 2763.96 2764.13 2764.35 2761.57 2758.11 2763.15 2765.31
2763.4 2763.7 2762.75 2761 2757.89 2757.78 2752.84 2751.85 2747.35 2747.95
2748.01 2751.64 2755.99 2756.48 2757.49 2759.69 2760.22 2757.51 2751 2750.93
2751.15

3674.12 3662.23 3673.15 3663.67 3650.86 3644.92 3623.56 3591.11 3561.12 3529.42
3521.48 3508.75 3512.35 3517.54 3498.16 3450.96 3392.48 3407.39 3467.91 3543.8
3599.76 3652.41 3695.79 3699.9 3679.36 3617.81 3548.93 3486.94 3462.43 3444.73
3397.19 3332.71 3332.16 3411.11 3453.08 3446.38 3506.99 3574.03 3627.07 3666.93
3666.74 3606.93 3547.89 3478.98 3411.94 3345.88 3275.53 3214.91 3239.72 3254.64
3215.84 3271.35 3302.9 3353.71 3391.04 3422.34 3463.83 3473.85 3460.27 3405.19
3354.06 3306.32 3253.1 3207.17 3170.49 3196.53 3247.73 3266.43 3258.2 3234.27
3176.26 3178.54 3184.79 3184.67 3182.85 3172.97 3163.25 3149.84 3144.71 3127.76
3094.92 3077.36 3073.33 3066.24 3065.65 3053.29 3028.18 3003.94 2999.73 2980.1
2965.64 2949.93 2961.71 3008.77 3028.65 3017.78 2988.58 2963.67 2947.87 2939.99
2944.4 2947.85 2936.48 2918.6 2897.57 2894.95 2905.47 2896.84 2907.39 2925.14
2924.58 2912.96 2888.8 2839.35 2809 2808 2808 2808.57 2806.63 2805.87
2805 2805 2804.9 2803.9 2803.68 2803.16 2804.99 2804 2802.14 2803.96
2801 2801.96 2802.9 2800.86 2799.37 2800 2798.07 2799.92 2799 2799
2799.94 2799.66 2797.61 2796 2795.53 2794.52 2794.16 2794.94 2793.02 2791.69
2793 2790.87 2793 2791 2793.14 2792.97 2790 2790 2789 2789
2787.03 2787.9 2796.6 2801.93 2801.29 2796.85 2791.33 2785.19 2784.37 2784
2782.94 2781.98 2780.99 2780.89 2779.99 2781.9 2782 2780.61 2778.79 2778.34
2779 2778.96 2777.18 2776 2776.5 2777.99 2778.76 2781.5 2793.48 2790.42
2788.87 2774.66 2774 2771.74 2772 2771.73 2770.88 2767.9 2767.38 2768
2775.21 2793.86 2805.02 2816.19 2815.93 2809.8 2813.44 2797.4 2782.96 2782.87
2780.47 2781 2776.87 2784.38 2817.79 2837.36 2836.96 2823.09 2807.97 2797.21
2786.93 2771.34 2767.78 2761.13 2759 2758.64 2756.85 2755.78 2755.94 2753.31
2750.93 2752 2749.48 2750 2748 2748 2748 2748 2747.06 2746
2747.01 2746.99 2744.99 2743 2741.91 2742 2743 2741.43 2742 2744
2742 2741.88 2742 2740.99 2740 2738.99 2741 2738.99 2738.97 2738.92
2737.95 2746.32 2758.73 2762.09 2764.34 2763 2761 2760.44 2758.69 2758.99
2758.08 2761.86 2767.52 2766.83 2771 2770.32 2767.49 2763.77 2764.72 2769.97
2770.56 2768.59 2766.7 2764.15 2762.57 2757.68 2753.09 2753.11 2753.77 2752.68
2752.92 2755 2759.44 2762.96 2763 2762.93 2761.99 2759.73 2753.05 2755.1
2756.72

3685.45 3619.13 3612.78 3607.62 3599.48 3591.64 3578.59 3563.98 3542.58 3521.93
3487.49 3478.78 3460.02 3464.9 3461.63 3411.4 3359.19 3382.65 3454.48 3520.84
3568.88 3623.19 3660.14 3666.26 3650.72 3618.79 3567.27 3497.41 3419.89 3395.64
3372.54 3308.04 3299.9 3382.33 3384.96 3419.7 3478.13 3528.05 3588.75 3643.75
3644.43 3573.14 3515.23 3445.04 3381.13 3330.25 3271.08 3213.13 3194.25 3207.73
3201.14 3239.32 3295.4 3323.09 3331.41 3377.54 3421.05 3416.6 3408.18 3387.32
3349.15 3297.01 3254.27 3207.7 3163.78 3145.65 3172.62 3184.52 3182.17 3175.05
3147.19 3149.79 3161.13 3164.86 3159.68 3151.52 3135.88 3122.82 3122.61 3119.79
3090.06 3063.99 3039.33 3037.15 3029.62 3027.7 3006.03 2986.08 2978.43 2966.76
2955.28 2944.23 2950.2 2979.95 3011.85 3013.1 2986.11 2952.3 2925.93 2918.18
2928.28 2929.7 2926.8 2916.51 2895.08 2874.3 2884.8 2886.76 2892.05 2920.07
2911.09 2876.53 2826.64 2808.98 2810 2808 2807.26 2806.44 2805.75 2806.99
2805 2804.53 2805 2803.9 2803.89 2807.02 2806.82 2803.94 2802 2804.13
2802.98 2801.48 2801 2801.93 2800.46 2800.03 2799.21 2799.97 2798.14 2800.33
2801.05 2800 2801 2799 2796.24 2798 2795.39 2794 2794 2792
2792.91 2790.85 2792 2793.98 2792 2792 2791.86 2790 2790 2788.98
2787.5 2786.88 2787.97 2789.11 2787.9 2787 2786.32 2786.45 2785 2783.99
2783.29 2781 2780.99 2781 2781 2781 2781.58 2780.41 2779 2778.64
2779 2778.94 2777 2775.93 2776.17 2776.61 2774.18 2776.75 2775.99 2775
2774.45 2773.67 2772.04 2772.97 2770.52 2769.07 2770.13 2769.24 2768.96 2769.66
2770.17 2769.9 2779 2782.32 2779.28 2771.35 2774.5 2768.8 2777.86 2776
2777.11 2779.87 2777 2779.85 2803.31 2819.24 2799.4 2789.78 2781.23 2774.97
2764.87 2759.23 2759.81 2758 2758.46 2758.3 2754.92 2755 2755.57 2751.9
2751 2752 2752.19 2749.16 2749.86 2749.85 2749.98 2748.96 2748.1 2746.02
2747 2745.96 2744 2743.86 2745.01 2744.22 2740.92 2742 2742 2742.39
2741.12 2741.91 2741 2740.99 2740.98 2739.96 2740.04 2738 2742.32 2748.17
2757.4 2766.16 2767.69 2769.06 2768.09 2765.23 2767.29 2764.99 2763.64 2762.14
2763.14 2763.99 2768.76 2771 2771.65 2773.37 2771.19 2768.35 2774.93 2794.9
2790.37 2780.41 2772.45 2772.56 2774.47 2769.49 2772.64 2768.1 2767.95 2771.92
2777.95 2782.61 2783.86 2777.69 2767.11 2768.13 2765.93 2758.92 2756.08 2756.14
2757.19

3716.33 3664.26 3608.27 3559.53 3552.66 3543.62 3525.05 3517.44 3513.33 3507.13
3486.12 3455.02 3427.92 3406.79 3406.99 3397.13 3344.63 3363.12 3421.75 3471.96
3521.12 3559.05 3584.16 3612.4 3618.05 3585.1 3560.29 3496 3435.27 3362.48
3309.28 3265.49 3275.98 3323.99 3316.55 3385.04 3458.18 3512.8 3575.36 3612.34
3614.43 3567.12 3495.62 3437.21 3370.51 3323.43 3267.05 3211.89 3171.49 3163.45
3191.63 3228.83 3263.31 3263.9 3296.74 3357.95 3382.04 3366.66 3344.2 3364.52
3351.56 3334.41 3268.69 3212.41 3174.74 3138.69 3114.8 3117.24 3116.71 3126.51
3118.7 3126.47 3142.49 3145.56 3146.3 3135.77 3116.74 3109.64 3110.16 3104.86
3093.12 3075.9 3044.21 3014.17 3017.48 3017.44 3008.8 2997.38 2965.1 2952.06
2945.77 2931.51 2936.19 2956.71 2981.02 2992.51 2982.48 2950.84 2919.77 2902.68
2900.09 2907.69 2896.92 2895.43 2885.11 2865.26 2872.99 2872.68 2872.28 2889.92
2872.73 2831.26 2809.98 2808.29 2808.89 2807.47 2808 2807 2807.65 2807.1
2806.08 2805 2806.59 2807.22 2812 2811.61 2807.98 2806.56 2807.06 2807.1
2809.22 2807.54 2806.42 2806 2806.99 2806.4 2806.52 2806.9 2803.99 2804.2
2803.95 2802 2801 2800.19 2796.99 2797 2796.16 2795 2793 2792.75
2792.99 2791.75 2792.95 2791.26 2791 2790.97 2790.86 2789 2789.99 2788.97
2788 2784.9 2786 2786 2784.58 2784.85 2785.27 2785.79 2784 2785
2784.64 2782 2781.36 2779 2779.85 2779.98 2779.67 2779 2781 2778.63
2777.97 2776.94 2778 2776.99 2776.04 2775.95 2776 2776.87 2775 2774.36
2774.92 2772.99 2772.89 2771.99 2771.95 2770 2771 2770.31 2769.97 2769
2770 2768.92 2767.82 2766.49 2766.95 2766 2766 2766 2769.34 2772.41
2773.96 2772.95 2773.59 2776.95 2777.65 2777.97 2771.43 2767.22 2765.98 2763.66
2760.12 2759.15 2759 2756.64 2756.1 2755.99 2754 2753 2751.96 2752.94
2752.96 2749.17 2751 2749.66 2749.76 2750 2750 2751 2750.63 2748
2746.99 2745.37 2744 2744 2744.76 2743.91 2742 2742 2744 2740.85
2741 2740 2741 2741 2740.57 2741.46 2747.61 2754.08 2761.69 2758.66
2768 2771.15 2769.54 2771.12 2772.33 2768.85 2769.19 2767.23 2769 2765.52
2765.25 2766.62 2768.11 2771.94 2774.1 2778 2775.78 2774.68 2784.26 2804.28
2811.65 2812.22 2815.54 2816.18 2813.53 2804.48 2802.46 2798.21 2794.14 2804.52
2807.7 2801.05 2799 2788.89 2774.22 2772 2769.98 2761.99 2760 2758.94
2760.68

3747.85 3713.97 3658.82 3601.84 3549.25 3499.79 3483.39 3470.42 3466.68 3475.85
3481.66 3461.24 3430.64 3400.6 3364.27 3352.29 3321.74 3348.01 3391.79 3419.85
3458.7 3490.7 3521.67 3546.64 3588.71 3580.85 3542.27 3493.55 3435.22 3371.28
3302.38 3244.73 3234.82 3252.58 3313.91 3386.79 3459.44 3520.77 3531.68 3538.44
3541.58 3527.24 3473.52 3407.25 3361.8 3324.41 3275.18 3214.36 3159.95 3145.98
3164.9 3194.26 3213.16 3251.23 3299.29 3357.74 3373.91 3332.46 3289.49 3310.53
3344.68 3335.22 3274.63 3220.94 3178.43 3140.84 3117.58 3090.52 3077.99 3094.71
3092.08 3104.73 3118.83 3125.7 3121.13 3113.96 3100.51 3092.05 3090.97 3086.91
3076.8 3072.99 3046.03 3015.88 2991.03 2996.5 3003.92 2999.38 2966.66 2942.59
2935.81 2924.98 2924.3 2938.31 2961.2 2970.37 2961.86 2939.29 2908.9 2894.07
2890.21 2881.66 2874.66 2872.61 2873.2 2858.51 2860.51 2863.08 2855.98 2859.46
2821.87 2809.99 2811 2810.93 2809.95 2808.18 2809.63 2809.41 2809.04 2810.81
2809.19 2809.22 2810.06 2809.71 2811.77 2811 2810.45 2809.04 2809.85 2808.98
2810.46 2810.02 2807 2808.62 2808.25 2809 2807.65 2808 2808 2807.34
2804.42 2803.92 2803.44 2800 2799.46 2799.26 2799.83 2796.07 2793.27 2792.93
2792 2790.99 2792 2791 2789 2789 2788 2790.76 2789.95 2788.64
2786.57 2786.99 2786 2786 2785.61 2784.97 2786.04 2785.79 2783 2783.89
2784 2783 2781.56 2779.99 2780.95 2779.94 2778.11 2778.83 2778.15 2778.96
2778.99 2776.12 2778 2777 2775.98 2774.99 2773.9 2773 2774.84 2773.82
2772 2771.96 2773 2772.5 2770.98 2770 2769 2768.55 2769 2769.99
2769 2768.96 2767 2767 2764.79 2764.93 2763.59 2765.61 2767 2770
2771.96 2768.92 2773.87 2772 2770.72 2771.93 2768.45 2765 2764.89 2762
2759.56 2758 2758 2754.05 2753.91 2752.89 2752.98 2751.69 2752 2751.35
2751.81 2751 2751 2750 2750.02 2750.79 2748.04 2748 2748 2748
2746 2745.95 2744.82 2743.01 2743.98 2744 2743.99 2742.77 2743 2740
2740.96 2741.81 2742.8 2741 2743.32 2751.99 2766.18 2768.05 2771 2767.56
2770.12 2776.18 2775.67 2774 2774.69 2772.95 2774.02 2773.06 2774.71 2771.84
2771.22 2770.01 2770.64 2775 2779.37 2781.15 2779.48 2774.86 2775.69 2781.68
2802.18 2823.77 2845.53 2860.49 2849.87 2833.79 2824.78 2811.43 2818.63 2823.99
2817.88 2805.93 2798.5 2788.61 2778.08 2775.84 2769.72 2763.42 2764.63 2762.9
2765

3763.17 3751.95 3687.39 3619.61 3577.59 3536.14 3493.75 3453.35 3428.38 3437.5
3455.16 3454.11 3427.3 3395.96 3361.91 3323.29 3291.12 3301.45 3324.63 3361.47
3390.12 3432.4 3462.16 3497.59 3537.43 3540.73 3505.68 3448.04 3393.47 3353.56
3298.41 3247.63 3203.05 3247.19 3312.22 3373.54 3446.56 3481.14 3477.14 3485.76
3493.1 3468.27 3416.78 3373.2 3324.93 3284.11 3259.62 3206.9 3148.19 3131.64
3140.29 3163.7 3210.13 3259.86 3307.32 3343.57 3346.06 3315.44 3248.84 3258.34
3303.09 3298.28 3265.48 3219.73 3171.62 3130.63 3099.75 3080.69 3062.59 3069.79
3071.7 3083.55 3094 3106.26 3106.9 3101.16 3088.25 3072.59 3068.55 3062.11
3047.61 3038.91 3042.09 3012.8 2987.07 2972.66 2994.16 2993.99 2959.53 2932.44
2924.97 2912.72 2911.63 2928.2 2945.21 2946.79 2929.87 2910.88 2903.97 2888.91
2864.02 2857.2 2848.34 2856.7 2860.99 2854.18 2846.85 2854.68 2844.92 2824.46
2810.21 2809.16 2810 2810.92 2810 2808.05 2812.01 2811.85 2812 2811.89
2813 2811.21 2813 2812 2813.58 2814 2812 2810.56 2812 2811.89
2812.02 2810.07 2809 2809 2810 2810.04 2810 2809.96 2808 2809
2809 2809.1 2809.08 2804.1 2805.28 2803.88 2804.1 2803.88 2799.79 2796.05
2794.61 2792.04 2790 2790 2788.99 2789 2787.92 2788.98 2789 2788.9
2787.1 2785.92 2785.72 2785.61 2784.45 2786.83 2785.8 2786 2783.99 2783.99
2785 2783.18 2783.25 2779.3 2781 2780 2778.34 2777.09 2776.33 2778.31
2778.71 2777.58 2776.33 2777 2775.66 2776 2774 2773.7 2772 2773.7
2771.07 2770.34 2770.08 2768.8 2769.93 2770 2769.88 2770 2769 2767.8
2766.06 2766.98 2767 2766.94 2767 2766 2764.2 2764.99 2766 2766.7
2766.82 2768 2769.15 2769.79 2770.96 2769.8 2768.69 2762.77 2759.01 2760.57
2758.08 2755.23 2755 2756 2754 2754 2752.14 2752.73 2753.98 2753.08
2752.99 2751 2750.57 2750 2750.94 2749.22 2750 2749 2747.98 2747.93
2748 2745.75 2744 2745 2743.01 2742.98 2744 2743.96 2744.99 2742
2740.74 2742 2741.64 2747.03 2758.63 2769.98 2766.99 2772.95 2773.41 2771.44
2772.05 2775.02 2777.35 2778.07 2777.72 2776.81 2776.21 2776.91 2782.78 2786.66
2792.34 2790.93 2789.22 2789.85 2797.46 2798.85 2784.9 2776.65 2777.06 2776.35
2780.33 2788.74 2839.44 2857.41 2843.66 2831.31 2827.35 2835.32 2834.62 2825.12
2828.88 2823.44 2820.07 2803.6 2784.17 2776 2774 2766.39 2768 2767
2767.95

3753.37 3747.54 3730.23 3674.04 3625.43 3595.63 3550.02 3500.49 3451.65 3400.53
3426.48 3430.74 3420 3398.5 3363.91 3333.14 3302.15 3270.89 3256.38 3295.56
3337.37 3378.8 3402.73 3445.82 3464.83 3477.04 3465.88 3410.86 3359.97 3304
3259.18 3221.73 3189.98 3238.46 3284.47 3337.42 3406.32 3421.74 3408.16 3429.12
3455.25 3449.8 3380.6 3333.99 3285.79 3253.76 3217.48 3198.72 3148.11 3103.11
3118.7 3154.25 3202.6 3249.57 3276.11 3281.18 3288.18 3281.72 3222.98 3215.84
3238.42 3237.17 3218.31 3177.59 3153.42 3118.52 3092.77 3070.94 3049.29 3050.34
3051.61 3068.94 3076.77 3086.99 3092.12 3082.59 3057.13 3060.85 3057.3 3043.25
3029.63 3010.28 3022.79 3013.45 2982.65 2958.22 2958.47 2970.34 2953.22 2926.83
2915.35 2907.06 2902.5 2919.7 2924.9 2923.83 2911.07 2891.57 2883.1 2867.82
2853.08 2841.36 2836.01 2830 2838.11 2838.17 2836.96 2841.49 2830.4 2812.67
2812 2811 2811 2809.99 2809 2809.43 2810.33 2813.49 2813.21 2813
2815.52 2815.12 2814 2814.83 2815.37 2816 2814.39 2814.75 2815.71 2812.17
2814.96 2813.53 2811.74 2812 2811.72 2812 2811.08 2812.68 2812.96 2810.99
2810.92 2811 2809.97 2807.21 2807.3 2805.57 2804.9 2805 2801.33 2802.36
2803.34 2798.15 2793.44 2791.63 2790.57 2789 2788.42 2787.99 2787.96 2786.92
2786.36 2786.97 2784.97 2785.53 2784.51 2787 2785.3 2786 2786.65 2784.08
2783.97 2785.99 2784.54 2781 2780 2780 2778.73 2777.98 2777 2777
2776.96 2776.81 2775.97 2775.95 2774.95 2774.47 2773.66 2772.98 2772.94 2770.38
2771.92 2771 2770.99 2770.53 2770.99 2769 2768.26 2769 2768.34 2766
2766 2767 2767.98 2763.86 2765 2766 2764.38 2765.3 2765 2764
2765.47 2764.84 2762.39 2762.08 2763.71 2763.27 2761.25 2758 2758.79 2758.93
2758.9 2756.94 2755 2755.96 2753.69 2754 2753 2752.62 2753.49 2752.69
2751 2751 2751 2749 2750.11 2750 2749 2748.45 2747 2746
2747.66 2747.32 2745 2745 2745 2745 2744.8 2745.85 2744.93 2742.89
2743.46 2750.61 2762.7 2767.87 2767.33 2770 2770.96 2773.16 2776.81 2776.1
2774.78 2779.15 2781.63 2781.82 2784.31 2783.17 2787.14 2791.74 2796.62 2810.99
2823.53 2824.34 2820.83 2821.6 2821.19 2818.73 2798.41 2779.72 2779.87 2782.86
2782.26 2786 2791.78 2810.97 2825.61 2839.07 2846.78 2847.21 2850.2 2850.5
2844.89 2834.74 2824.59 2813.45 2793.01 2779.91 2774.98 2769.05 2769.56 2769.1
2771

3700.23 3735.49 3731.27 3697.74 3653.9 3608.83 3566.42 3519.04 3459.4 3395.84
3388.72 3408.36 3411.87 3398.61 3369.92 3348.47 3316.08 3280 3240.27 3257.52
3302.96 3313.31 3359.6 3393.9 3403.07 3432.25 3442.03 3403.5 3366.06 3345.25
3279.5 3208.09 3160.5 3198.35 3252.44 3313.85 3367.97 3371.12 3349.59 3366.3
3406.16 3425.8 3372.68 3323.76 3265.21 3216.82 3185.68 3165.85 3135.01 3099.76
3102.36 3130.45 3173.32 3202.63 3211.92 3213.64 3234.93 3231.61 3201.93 3159.76
3174.91 3173 3166.84 3144.33 3130.54 3106.73 3084.29 3063.62 3036.66 3030.31
3034.58 3050.05 3052.6 3058.38 3065.57 3053.45 3036.66 3031.21 3031.26 3033.62
3029.49 2988.51 3000.38 2997.54 2972.45 2948.81 2944.9 2946.53 2944.5 2921.21
2907.79 2893.76 2894.8 2900.16 2905.36 2903.33 2891.81 2873.73 2865.04 2844.72
2834.12 2826.93 2818.21 2820.8 2825.81 2829.06 2828.37 2823.73 2812.56 2812.89
2810.97 2810.94 2811 2812 2812.82 2813.99 2817 2816.04 2815 2814.49
2818 2818 2816.05 2815 2816.98 2816.99 2816.78 2815.07 2817.12 2815.11
2818 2815 2812.69 2813.14 2814.99 2815.03 2812.5 2813.99 2815 2813.19
2813.09 2813.87 2812 2810.21 2810.99 2809.87 2810 2807.83 2804 2804
2804 2802 2800.83 2799 2798.44 2795.72 2790.98 2786.99 2787 2786
2788.99 2788 2787 2786.71 2784.21 2784.08 2784.99 2784.56 2786.91 2786
2785.77 2784.19 2782.34 2781.72 2780.88 2780 2778.51 2778.99 2778 2776.85
2778.75 2778.71 2776.3 2776.89 2775.8 2775.04 2773.91 2771.96 2773.45 2772.25
2769.3 2771.96 2771 2769.98 2769.97 2768.99 2768.95 2767.13 2768.98 2767.8
2767 2766 2765.67 2764.53 2764.31 2765 2766 2766 2763.08 2761.83
2760.63 2760.93 2761 2761.84 2760 2761 2759.23 2756.99 2756.99 2757
2756.34 2755.88 2755 2754.04 2754.87 2754 2753 2753 2752 2752.65
2750.95 2751.02 2750.88 2750 2751 2750.59 2749 2748 2747 2747
2747.99 2746.42 2745 2745 2743.89 2743.69 2741.93 2748.77 2745.26 2747.79
2758.54 2769.66 2770.98 2771.17 2771.36 2771.66 2775.01 2777.01 2777.24 2778.52
2777.31 2782 2784.1 2786.51 2792.24 2806.65 2816.12 2817.84 2812.14 2824.24
2838.01 2842.87 2845.72 2846.76 2837.89 2834.1 2806.26 2784.76 2785 2785.91
2784.04 2788.78 2791 2794.1 2816.68 2840.55 2846.87 2849.51 2856.84 2855.04
2844.19 2831.85 2824.13 2812.53 2799.64 2784.69 2775.16 2772.46 2774.7 2775.8
2774.93

3638.71 3692.51 3714.31 3688.5 3633.29 3574.7 3531.83 3492.01 3431.4 3386.06
3360.11 3385.45 3390.72 3380.01 3362.71 3344.18 3314.58 3280.08 3242.94 3226.32
3257.73 3271.19 3304.31 3321.74 3346.13 3371.7 3394.7 3393.3 3373.45 3344.99
3279.78 3212.44 3150.7 3173.08 3221.9 3281.54 3333.97 3331.73 3296.21 3321.75
3372.69 3399.49 3378.78 3339.56 3284.41 3237.92 3192.99 3162.41 3119.12 3094.81
3074.53 3096.52 3118.57 3142.5 3156.15 3158.24 3166.75 3162.13 3137.89 3124.9
3137.46 3137.48 3133.77 3130.92 3109.59 3092.24 3073.04 3054.63 3028.02 3009.67
3020.01 3026.63 3030.67 3037.76 3043.36 3029.99 3003.76 3010.42 3012.46 3020.5
3014.78 2977.66 2961.54 2969.99 2963.21 2947.83 2931.84 2922.9 2926.31 2912.5
2897.66 2887.97 2883.91 2887.05 2889.26 2884.69 2865.25 2850.45 2846.67 2830.6
2822.16 2818.26 2814 2812.44 2814.37 2811.77 2812.97 2811.24 2813.07 2813.39
2814.16 2815.07 2814.4 2815.04 2818 2818.95 2817 2818 2819 2817.82
2818 2818.78 2819.07 2820 2816.97 2819 2817.99 2818.97 2818.57 2819.03
2817.98 2817.05 2819 2817.09 2815.48 2816.04 2814.28 2815.84 2815.99 2813.98
2814.07 2814.28 2814.11 2812.48 2811.99 2809.72 2810 2807.99 2806 2805.42
2804.09 2803.87 2803.17 2803 2802.55 2802.49 2798.99 2793.18 2789.98 2790.03
2787.06 2785.85 2786.97 2787.95 2785.06 2784.77 2784.01 2783.59 2783.19 2783.88
2785 2782.97 2782 2781.28 2781 2780 2778.97 2778.55 2779 2779
2779.45 2779.24 2776.12 2775 2775.38 2775.99 2772.95 2772 2774 2774
2770 2771.23 2771 2770.98 2768.62 2769 2770.87 2769.71 2768.99 2768
2767.08 2766.98 2765.98 2767 2765 2764.19 2765.84 2763.99 2764 2764
2763.51 2760 2761 2759 2759.64 2759.53 2758.19 2758 2759 2756.94
2756.24 2754 2755 2756 2754.44 2753 2752.8 2753.37 2753.05 2751.99
2751 2752 2751.6 2749 2748.11 2748.98 2747.24 2748 2748 2747.05
2747 2747.05 2747.95 2745 2744 2746.48 2748.79 2758.19 2766.32 2767.28
2770 2772.89 2774.92 2776.3 2776.01 2777.1 2776.88 2780 2780.41 2781.09
2779.93 2782 2785.89 2789.57 2803.83 2817.98 2823.32 2823 2815.94 2832.33
2842.48 2853.46 2852.07 2848.79 2838 2833.88 2810.35 2789.1 2789.89 2790.2
2789.52 2789.88 2792 2795.14 2796 2827.08 2841.96 2848.62 2857.95 2853.71
2842.16 2830.54 2822.99 2812.92 2804.76 2783.91 2777.12 2778.04 2778.09 2777
2780

3609.11 3655.76 3674.98 3642.64 3576.37 3522.09 3484.04 3443.26 3398.31 3378.59
3349.38 3354.47 3362.49 3359.21 3352.58 3332.06 3314.74 3283.79 3241.18 3206.21
3219.55 3230.08 3251.7 3262.23 3283.93 3324.36 3345.35 3366.49 3367.06 3332.49
3266.92 3208.64 3155.92 3144.63 3192.14 3243.89 3277.44 3275.72 3242.78 3280.31
3332.03 3347.56 3354.65 3327.29 3274.19 3234.12 3184.15 3162.14 3121.02 3093.32
3072.86 3070.33 3076.53 3091.33 3106.13 3114.78 3117.02 3115.16 3103.78 3098.73
3103.13 3109.31 3107 3105.65 3095.71 3084.45 3075.09 3051.4 3028.36 2998.93
3001.22 3004.27 3012.2 3021.28 3016.89 3002.2 2986.29 2985.42 2983.12 2992.68
2989.96 2977.04 2951.22 2935.34 2942.42 2940.83 2919.53 2904.94 2911.07 2904.56
2890.48 2877.91 2874.26 2875.8 2881 2875.35 2852.26 2838.35 2825.35 2817.81
2817.06 2813.88 2814 2813.19 2813 2814.79 2814.16 2814.24 2814.96 2815
2815.99 2818 2818.28 2817.91 2816.89 2818.79 2819.85 2818.5 2818.64 2820
2819.19 2820.7 2822.94 2820.89 2820.99 2822 2822.42 2821.61 2820.36 2821.15
2821.33 2820.44 2821.87 2819 2820 2818.57 2816.72 2816.78 2817 2815.45
2815.3 2814.95 2814.95 2814.17 2812.02 2812.51 2811.74 2808.94 2807.74 2807
2806 2806.82 2805 2804 2804 2803.08 2801.28 2797.86 2798.27 2798.52
2795.72 2794.19 2793.31 2792.43 2789.75 2786.33 2785 2786.96 2784.99 2781.12
2781.09 2780.98 2782 2782 2780.99 2780.29 2779.53 2778.96 2777.97 2778.06
2776.98 2775.93 2775.7 2776.93 2776.2 2773.94 2773.85 2773.8 2773.99 2773.98
2771.86 2770.02 2771.87 2771 2770 2769.92 2768.63 2769 2769 2767.62
2767.11 2766 2763.81 2765.6 2764.99 2764 2763 2762.98 2762.2 2761.16
2760.96 2759.91 2761.03 2761.05 2758.97 2760.07 2757.92 2756.97 2757.99 2757
2756.1 2755.84 2755 2754.65 2754 2755.89 2752.73 2755 2753.98 2753
2751.08 2751.99 2752 2748.68 2749.89 2748.45 2748.52 2750.99 2748 2747.99
2747.75 2748 2747.17 2747.16 2755.65 2766.62 2764.43 2770.88 2771.99 2771
2772.98 2774.76 2777.85 2780 2781 2780.02 2784.08 2784.95 2783.89 2784.54
2784.85 2784.15 2785.57 2792.97 2809.44 2823.75 2830 2829.04 2824.41 2841.19
2856.35 2858.35 2853.59 2847.9 2842.22 2833.27 2806.52 2790.82 2792.67 2794
2794.99 2793.21 2795.93 2799.99 2799 2802.16 2824.32 2845.16 2846.39 2847.48
2843.84 2832.07 2824.42 2814.31 2810.82 2790.51 2780 2782.4 2781.97 2780
2780

3582.58 3614.38 3615.96 3599 3539.85 3481.08 3440.89 3421.65 3423.17 3418.48
3381.33 3337.55 3321.95 3322.89 3321.27 3313.93 3299.86 3279.55 3242 3208.04
3187.61 3194.74 3205.1 3215.02 3238.24 3268.6 3281.56 3313.25 3316.03 3285.87
3233.19 3180.24 3147.14 3115.91 3152.16 3195.77 3230.4 3225.9 3204.74 3270.64
3294.18 3278.01 3302.7 3299.59 3240.84 3202.59 3173.26 3130 3119.08 3092.26
3067.77 3043.3 3052.17 3060.74 3072.1 3081.91 3090.62 3091.97 3080.46 3077.54
3083.79 3080.46 3078.6 3078.75 3075.3 3081.95 3077.8 3062.31 3030.71 3003.88
2981.3 2986.93 2996.84 2995.76 2990.78 2980.84 2973.22 2957.39 2967.25 2978.21
2968.11 2974.56 2969.22 2921.13 2908.86 2903.77 2899.91 2897.25 2894.57 2895.4
2885.13 2874.8 2867.83 2865.98 2877.13 2869.9 2847.85 2826.93 2819.17 2815
2814 2815 2814 2813 2812 2814.22 2817.91 2817.06 2818 2819
2819.98 2818.09 2820.5 2820.31 2820 2823.44 2822.99 2823.54 2823.32 2824
2823.19 2823.49 2823 2824.73 2823.62 2823 2824.96 2823.02 2824.13 2823
2823.95 2821.17 2822.68 2820.98 2821.84 2819.96 2818.92 2818.56 2820 2819.86
2818.03 2818.91 2817 2815.11 2816 2813.99 2811.22 2812.92 2808.56 2808.99
2808.76 2806.87 2807.08 2807.36 2805.38 2805.64 2804.99 2801.44 2799.99 2798.99
2798.4 2800.11 2797.65 2797.61 2795.96 2792.09 2787.43 2783.99 2784.91 2783.4
2781.1 2780 2780.95 2781.15 2780 2781 2778.99 2778.93 2776.11 2777.71
2776.98 2777 2776.99 2776.84 2776.94 2774.77 2772.02 2773.87 2774 2771.51
2771.93 2770.27 2769.16 2771 2770.25 2769 2769 2769 2766.79 2765.3
2765.84 2765 2765.63 2764.99 2764 2763.62 2763 2762 2761 2762
2761 2761 2761.73 2761.78 2760 2761 2758.1 2755.98 2755.99 2757.99
2758.13 2757.89 2755.98 2755.57 2755.99 2756 2752.36 2753.99 2753.47 2753
2753 2752 2751.72 2752.99 2751.54 2751.21 2751 2749.94 2748.82 2749.98
2748 2747.57 2754.64 2770.78 2777.96 2776 2771.89 2775.93 2776.87 2775.01
2776 2776.91 2780.01 2782.99 2782.85 2785.44 2785 2787.01 2788.01 2789.59
2790 2788.89 2790.04 2793.24 2810.47 2821.81 2829.73 2828 2834.17 2851.02
2859.25 2860.02 2858.84 2854.65 2847.95 2831.81 2806.91 2794.86 2796.93 2798.24
2798 2798.71 2798.88 2799.9 2801.03 2800.56 2809.23 2836.57 2840.18 2841.5
2838.2 2830.96 2829.02 2819.92 2810.96 2791.3 2784.02 2783.5 2785 2785.94
2784.23

3541.28 3561.54 3561.02 3546.11 3501.97 3455.66 3414.74 3411.95 3433.05 3435.05
3424.91 3375.55 3315.27 3293.59 3291.13 3291.08 3282.46 3268.5 3241.4 3210.75
3181.93 3170.82 3172.59 3178.17 3190.23 3208.76 3233.83 3248.46 3237.94 3227.06
3189.77 3159.81 3129.34 3090.4 3107.45 3146.02 3184.64 3180.09 3178.2 3248.46
3257.11 3218.23 3242.64 3247.47 3208.68 3169.92 3130.53 3116.29 3094.58 3071.36
3055.71 3026.7 3033.98 3035.45 3051.35 3056.1 3058.82 3062.84 3059.15 3052.13
3058.86 3061.89 3054.05 3051.31 3046.86 3070.66 3069.2 3055.6 3043.82 3012.75
2978.33 2967.24 2974.94 2969.73 2961.03 2959.37 2947.23 2941.65 2956.75 2957.16
2953.17 2969.96 2968.16 2942.88 2896.68 2881.9 2884.95 2883.28 2883.96 2882.75
2874.29 2865.76 2859.99 2861.18 2864.65 2860.21 2847.05 2822.74 2815.38 2816.52
2814.83 2815 2813.05 2813 2814.48 2817.11 2819 2818.59 2821 2819.89
2820.9 2820.86 2821.97 2822.75 2825.57 2824 2825.31 2825 2825.08 2824.71
2825 2824.16 2826 2825.9 2825.16 2826 2825 2825.99 2825.86 2825.97
2825.01 2824.92 2824 2823.14 2823 2822.03 2823 2821.91 2822 2820.84
2818.94 2820.09 2819 2817.35 2817 2815.75 2814.8 2813.9 2812.01 2812.41
2811 2809 2808.96 2808.99 2806.79 2805.36 2805.12 2803 2801.43 2802.46
2801 2801.95 2799.04 2799.51 2797.71 2798.95 2793.67 2784.5 2783 2781.98
2781.85 2780.21 2780.64 2780.66 2780 2779.64 2779.19 2778.01 2779 2776
2776.97 2774.31 2774.78 2774 2775 2774.99 2772.91 2773.3 2773.52 2774
2772 2770 2769 2769 2768.95 2768 2767.12 2768.99 2768 2767.54
2766.99 2766 2766 2764.97 2763.92 2763 2763 2762.97 2761.06 2761.99
2761.99 2761.94 2760.5 2761 2759.96 2757.7 2757 2757 2758.12 2760
2758 2756.99 2756.98 2755.96 2756 2755 2754.12 2754 2753.95 2753
2754 2753 2751.95 2752.41 2751.22 2752 2749.74 2748.54 2749 2750.76
2758.97 2772.08 2776.97 2779 2778.09 2777.47 2774.83 2781 2780.25 2778.15
2778.05 2780.71 2783.26 2785.78 2787 2788 2787.14 2788.35 2791.53 2793
2792.1 2794.16 2794.29 2794 2805.25 2816.04 2830.2 2832.02 2834.86 2844.08
2859.82 2866.53 2864.64 2865.73 2865.21 2844.2 2808.62 2801.63 2800.13 2801.22
2802.05 2803.91 2801.11 2801.78 2802.99 2806.83 2804.72 2815.1 2830.47 2834.37
2832 2829 2826.72 2819.89 2809.54 2788.86 2785.3 2787.14 2789 2788
2788.31

3503.1 3506.51 3499.2 3484.25 3466.02 3431.17 3397.59 3363.29 3402.72 3424.8
3431.19 3391.74 3342.85 3308.61 3279.77 3265.41 3263.51 3259.58 3238.41 3209.87
3184.84 3166.88 3148.17 3151.95 3150.93 3156.99 3175.68 3181.47 3178.83 3180.03
3167.03 3146.92 3123.68 3085.51 3081.56 3108.26 3130.1 3125.32 3153.04 3202.53
3213.94 3185.43 3194.19 3197.1 3167.46 3126.82 3102.35 3111.28 3094.5 3066.59
3042.35 3025.59 3024.95 3028.1 3025.33 3038.07 3037.96 3038.38 3033.49 3037.36
3047.85 3042.65 3024.8 3026.94 3023.76 3047.05 3036.08 3046.86 3041.78 3018.07
2993.48 2957.56 2946.55 2956.04 2946.27 2936.64 2933.7 2928.42 2945.11 2946.35
2932.96 2939.73 2929.67 2928.45 2895.33 2865.33 2865.81 2868.01 2873.29 2872.53
2863.73 2858.93 2854.69 2854.93 2854.26 2854.52 2837.6 2819.37 2816.24 2816.94
2816.31 2813.89 2813.97 2814.34 2817.21 2818.68 2820.21 2820.7 2820.95 2822.9
2822.49 2823 2823.11 2825.01 2825.89 2826.94 2828.06 2831 2826.6 2827.97
2827 2826 2827.42 2827 2828.59 2828.16 2826.38 2824.84 2827.53 2827.43
2827 2825.5 2823.93 2827.94 2826.36 2826 2824.6 2824 2823.9 2823.29
2823 2821 2821 2819.64 2819.02 2818.31 2814.94 2815.93 2814.22 2813.84
2812.96 2810.77 2811 2808.93 2808.53 2808.9 2807.04 2806.14 2804.93 2806
2803.98 2800.92 2801.96 2801.63 2801 2800.96 2795.27 2793.26 2786.92 2782.74
2781.99 2780.01 2782.48 2779.43 2778.99 2778 2778 2777.16 2777.97 2776.4
2775.97 2776 2776 2775.13 2774.99 2773.96 2775.99 2774.88 2774.57 2773
2770.36 2769.97 2769 2769 2768.43 2768.99 2768.92 2769 2768 2766.92
2767 2765.83 2764.79 2763.94 2763.97 2762.77 2763.15 2762.02 2761.58 2761
2761 2761.22 2761.95 2758 2758.33 2758 2757 2757 2757.71 2759.58
2757 2756.99 2756 2755.91 2756.4 2753.14 2755 2753.98 2753.54 2751.68
2752.09 2755 2753.78 2750.85 2751 2751 2753.94 2753.28 2755.74 2775.29
2783.23 2783 2784.79 2783.7 2783.99 2783.77 2778.68 2783 2782.12 2782
2783 2785.05 2787.97 2791.26 2789.52 2792.65 2792.85 2793.13 2796 2794.53
2797 2797.15 2800.33 2798.41 2800.09 2820.37 2834.76 2842.96 2838.7 2857.26
2867.58 2870.96 2876.31 2882.6 2877.26 2845.04 2807.25 2803.75 2804.05 2805.26
2806.42 2804 2803.24 2807.28 2808.07 2805.64 2808.13 2808 2815.51 2816.9
2822.26 2817.55 2812.82 2802.32 2791.89 2790.6 2791 2789.92 2790 2790.1
2789.13

3449.52 3450.66 3438.65 3440.43 3443.97 3411.25 3373.24 3343.81 3346.35 3377.18
3388.07 3379.21 3352.35 3320.06 3289.22 3252.12 3239.93 3239.97 3228.04 3210.06
3186.05 3169.8 3150.88 3135.67 3121.82 3117.71 3124.06 3121.65 3114.97 3115.69
3109.15 3117.17 3113.81 3078.26 3066.38 3088.26 3100.37 3090.49 3107.92 3137.45
3165.14 3144.75 3155.18 3155 3114.92 3094.74 3074.18 3066.03 3077.98 3070.69
3044.65 3017.6 3009.83 3016.99 3011.91 3015.6 3016.56 3017.6 3012.22 3030.95
3034.58 3016.64 3012.63 3004.67 3008.04 3023.45 3019.83 3007.26 3030.38 3020.46
3000.09 2978.69 2945.16 2929.85 2927.8 2925.21 2923.66 2919.44 2933.23 2928.98
2917.26 2921.19 2898.64 2893.34 2865.76 2852.52 2853.2 2860.24 2859.27 2860.76
2854.4 2850.12 2845.2 2848.52 2846.81 2842.21 2828.18 2816.21 2815 2815
2816.13 2817 2814.78 2815.93 2818.09 2822 2822.14 2822.01 2823.39 2825
2826 2825.97 2823.9 2827.99 2827.66 2830 2832 2830.09 2831.63 2830.04
2830.19 2832.42 2833.94 2830.4 2831.99 2832.8 2831.99 2831.02 2833.76 2833.79
2831.51 2829.99 2828.91 2829.31 2828.01 2826.95 2826 2826 2826 2824.97
2824 2822.77 2823.79 2822.12 2820.37 2821 2816.89 2817 2816 2815.39
2814.98 2812.94 2812.14 2810.97 2810.57 2808 2810.83 2808.45 2806.33 2805.98
2805 2806.94 2801.55 2801 2800.67 2799.91 2797.07 2792.96 2791.77 2786.31
2782 2780.7 2782.94 2779.39 2778 2780 2778.69 2779 2776.72 2776.18
2777 2775.54 2775 2775.87 2774 2772.95 2774.38 2774.04 2773 2772.85
2772.8 2772.89 2771 2768.98 2770 2768.77 2769 2768 2767.97 2767.92
2766.92 2766 2764.32 2762.95 2762.91 2764 2762.94 2763 2763 2762
2760 2761.79 2761 2759 2758 2761 2758.04 2757 2757.99 2758.81
2754.89 2755.8 2755 2754.86 2756.92 2756 2754 2752.31 2753.26 2753.36
2754.27 2756.17 2756.54 2759.85 2763.61 2763.88 2774.43 2775.18 2773.42 2783
2784.99 2786.94 2788 2787.39 2787 2786.03 2782.36 2783.69 2785.87 2785.96
2783.53 2785.02 2789 2792 2794.36 2794.08 2796.76 2796 2798.44 2801.59
2801 2800.97 2803.01 2801.43 2802.01 2817.07 2834.68 2842.93 2847.01 2857.24
2866.71 2873.83 2883.15 2882.57 2866.12 2830.61 2809.47 2808.97 2809.63 2809
2808.97 2808.58 2807.88 2810 2812.61 2810 2810 2810.88 2809.95 2809.33
2808.49 2802.74 2798.99 2796.99 2795.61 2795.94 2794 2793 2793.61 2792.85
2794

3429.85 3421.4 3389.86 3407.51 3419.65 3390.15 3356.22 3327.4 3308.16 3328.18
3344.93 3366.99 3362.83 3326.38 3296.7 3264.07 3235.88 3215.48 3210.9 3199.28
3181.98 3173.22 3154.6 3137.39 3129.71 3116.63 3106.28 3094.6 3082.45 3075.8
3058.31 3058.13 3056.83 3051.82 3048.92 3065.33 3075.22 3059.34 3078.37 3088.75
3104.62 3104.42 3102.43 3101.37 3078.88 3065.03 3057.37 3046.58 3073.37 3072.28
3046.54 3019.12 3000.39 3004.09 3008.78 3006.57 3005.6 2997 3000.07 3015.57
3023.29 3010.34 3002.6 2989.2 2995.75 3001.4 2992.18 2991.04 3003.72 2993.19
2976.91 2976.56 2951.12 2923.19 2915.99 2913.09 2909.94 2904.87 2907.44 2905.85
2909.48 2911.28 2885.2 2860.59 2841.96 2836.14 2842.03 2843.9 2850.6 2843.47
2838.81 2842.52 2837.66 2842.68 2842.85 2830.26 2817.88 2816 2815.91 2815.91
2816.76 2817 2816 2816.67 2818.85 2822 2823.99 2824.02 2825.54 2825.1
2827 2827.99 2827.39 2829.74 2831 2832 2832.48 2832.99 2832 2831.36
2831 2833 2833 2833.09 2833.26 2835 2832.95 2832.25 2834 2832
2832.99 2831.25 2830.78 2831.96 2830.2 2827.88 2825.98 2830 2829 2827.2
2826.77 2827.94 2823.88 2823 2822.99 2822 2819.05 2819.13 2818.98 2817.34
2815.94 2817.04 2814 2815.36 2813.41 2809.1 2809.37 2809.29 2808.03 2809
2806 2806.83 2805.25 2803 2801 2800.99 2798.12 2795 2792 2788.08
2787.98 2786.81 2782.95 2780.94 2779.91 2778.75 2778.49 2780 2777.88 2777
2777 2776.93 2775.09 2774 2773.5 2774 2773 2772.66 2773.19 2772
2771 2771.97 2769.91 2769.53 2771.96 2770 2769.99 2769.15 2767.16 2768.08
2767.76 2765.59 2766 2766.04 2767.9 2767.3 2764.08 2768.8 2762.72 2762
2761.95 2762.73 2761 2758 2759.4 2760.3 2758.11 2758 2757.19 2757.93
2756.14 2757.88 2759.24 2759.56 2758.17 2757.56 2758.19 2759.14 2760.29 2765.1
2768.93 2767.96 2773.4 2782.71 2783.94 2785.16 2788 2786.36 2778.57 2786.8
2789.32 2789.82 2790.92 2789.12 2789.73 2789.11 2786.98 2788.49 2789 2789.01
2789.51 2790 2792.29 2794.8 2797 2798 2798.12 2800.48 2803.03 2807
2804 2805 2806.36 2806 2806.75 2815.93 2830.1 2846.56 2859.95 2864.04
2870 2872 2880.55 2879.94 2855.36 2819.35 2812.08 2813.11 2814.14 2812.19
2811.44 2813.88 2814.03 2813.81 2813.34 2811 2812.23 2812.15 2811.43 2811.51
2809 2806 2801.3 2800.99 2799.9 2798.13 2796.02 2799 2798.49 2797.99
2799.2

3400.99 3384.95 3350.44 3379.22 3402.51 3395.4 3357.87 3324.78 3291.45 3281.5
3316.85 3364.45 3367.87 3336.81 3324.24 3290.72 3266.84 3242.63 3213.2 3197.81
3177.25 3166.36 3153.94 3138.39 3127.39 3121.89 3113.11 3098.25 3086.14 3076.21
3069.13 3052.81 3042.02 3030.5 3032.04 3052.53 3053.98 3035.48 3037.49 3043.26
3052.41 3057.9 3060.14 3063.77 3048.76 3044.42 3035.91 3048.33 3075.2 3061.92
3036.57 3016.44 2994.29 2995.95 2994.62 2991.58 2987.09 2985.24 2982.38 2980.89
2996.59 3003.93 2998.22 2977.42 2963.7 2963.84 2961.36 2973.7 2989.64 2980.83
2950.11 2949.05 2951.01 2922.68 2902.87 2900.99 2897.8 2894.28 2891.77 2889.65
2896.22 2897.67 2868.65 2842.71 2831.36 2827.71 2827.29 2827.03 2827.66 2826.65
2824.36 2828.93 2827.03 2826.26 2820.42 2816.89 2815.88 2815.18 2815 2818.64
2817.59 2816.93 2816 2816.32 2819.61 2823.42 2825.4 2828 2828.94 2828.76
2831.3 2832.43 2833.32 2830.57 2832 2831.59 2832.77 2833.99 2832.38 2834
2833.17 2835.04 2835.8 2835.81 2837.15 2838 2837.21 2834.53 2832.76 2833.14
2833.23 2831.3 2832.63 2832.81 2831 2831 2831.5 2830.68 2829 2829.99
2828 2826.58 2825.76 2824 2824 2823.34 2822.83 2821.86 2821.2 2818.44
2819.91 2819 2815.02 2815.97 2815.28 2813.06 2812 2809.17 2811.95 2810.93
2809.58 2807.7 2805.99 2808 2802.97 2800.79 2798 2796.35 2793.68 2791.25
2787.14 2786.03 2785.41 2782.75 2782 2780.27 2778.7 2778.06 2777.94 2777.51
2776.98 2776.96 2776.95 2774.99 2773.91 2774 2771.65 2771 2770.58 2771.98
2771 2771.75 2771.96 2770.26 2772.96 2769.3 2769 2771 2768 2769
2768.07 2767.83 2767.98 2767 2768.56 2768.69 2766.99 2767.19 2765.47 2763.39
2764.42 2761.9 2760.71 2757.52 2761 2759.55 2759 2758 2758 2762.54
2764.74 2761.64 2769.54 2778.79 2775.42 2776.38 2782.13 2786 2782.81 2782.57
2783.65 2773.1 2779.74 2785.07 2786 2785.65 2791 2789.13 2786.79 2787.74
2793.26 2792.35 2793.05 2794.78 2792 2791.99 2789.79 2790.33 2791.01 2791.37
2793.08 2794.25 2798 2798.02 2801 2802.74 2804.75 2803.21 2805.99 2807
2807.95 2809.15 2812.59 2808.67 2812.73 2815.91 2830.01 2846.41 2857.44 2864.97
2867.85 2865.53 2863.34 2860.02 2843.51 2817.97 2814.64 2816.75 2815.87 2817.85
2816.06 2817.61 2817.98 2815.05 2816.26 2814.93 2818.57 2814.95 2814.31 2813.46
2810 2808 2806.66 2805.93 2804 2801.03 2801.27 2800 2799.94 2801.84
2802.97

3377.45 3351.56 3326.84 3368.7 3396.33 3385.92 3350.39 3309.01 3269.78 3262.03
3296.25 3344.01 3365.33 3360.86 3353.82 3330.98 3298.06 3257.95 3233.29 3213.85
3193.79 3183.05 3163.48 3143.39 3130.47 3118.8 3110.39 3099.57 3084.22 3076.94
3067.79 3053.18 3045.47 3029.75 3018.35 3012.53 3017.71 3007.99 3007.9 3007.64
3016.58 3025.66 3042.68 3039.26 3030.84 3018.77 3017.2 3038.39 3070.03 3063.1
3028.2 3013.6 2989.84 2982.42 2981.92 2979.89 2974.73 2975.38 2973.32 2967.29
2970.86 2991.05 3003.66 2990.89 2964.24 2951.46 2940.09 2948.75 2963.77 2975.47
2948.2 2915.78 2924.75 2911.5 2895.55 2889.34 2888.94 2884.11 2884 2882.26
2883.05 2872.95 2847.77 2829.73 2827.51 2825.03 2825 2823.05 2824.47 2821.5
2819.38 2818 2820.61 2819.03 2816.93 2818.83 2817 2817.81 2817.05 2818.9
2816.99 2816.9 2816.24 2817 2819.56 2824 2832.02 2830.3 2831 2832
2832 2834 2834.98 2833.46 2835 2837.83 2838 2836.22 2834.94 2835.88
2836.79 2838.29 2837.55 2838.09 2838.97 2839 2838.94 2838.02 2835.12 2836.98
2838.27 2835.02 2835 2834.87 2833 2832.41 2835 2833.59 2831.15 2831
2827.65 2827.76 2828.18 2828 2825.95 2825.56 2824.37 2823.93 2823 2823
2821 2818.29 2817.11 2816.33 2815 2814 2815.87 2816.97 2811 2810.75
2810 2810 2808.43 2807.94 2805 2803.86 2803.45 2798.3 2800.35 2800.45
2789.53 2783.82 2785.92 2783.35 2782.99 2780.73 2782 2780.8 2782.11 2780
2779 2781 2778.2 2774.85 2775 2772.47 2774.89 2771.41 2770.54 2772
2772.04 2773 2770.85 2771.92 2772 2772.04 2770.88 2769 2768.99 2770.64
2769.18 2767.25 2768.03 2768.55 2770.91 2771.11 2768.16 2766.04 2765.9 2766.3
2767.98 2771.42 2763.5 2761.99 2761 2760.58 2759.94 2761.66 2762.16 2766.93
2773.03 2772 2775.51 2784.05 2783.1 2780.77 2788 2786.18 2786.62 2790
2785.59 2779.65 2784.99 2789.36 2790.78 2789.09 2791.58 2793 2791.53 2788.28
2797.3 2797.03 2796.72 2796.8 2796.09 2794.23 2791.38 2794.13 2793.98 2796.99
2795 2798.72 2799.82 2800.01 2802.47 2806.58 2807.85 2808.01 2808.3 2809.46
2810.97 2812.13 2816.24 2817 2816.25 2816.74 2822.08 2841.96 2856.53 2856.7
2862.54 2862.07 2854.93 2851.41 2838.94 2819.63 2820.27 2819.76 2820 2820.03
2819.51 2819.74 2821.89 2821.99 2821.05 2820 2819.02 2818 2814.88 2814.66
2814.66 2808.75 2808.97 2805.88 2806.79 2807 2804.02 2804.33 2806 2805.61
2808

3359.94 3322.66 3320.47 3373.9 3386.43 3364.09 3335.68 3309.12 3267.67 3238.11
3268.19 3291.25 3349.14 3363.64 3354.92 3332.88 3294.03 3257.1 3234.13 3211.84
3197.43 3183.22 3163.84 3152.62 3141.07 3127.06 3112.34 3096.5 3083.08 3076.73
3064.75 3052.78 3045.19 3033.36 3023.96 3016.68 3004.1 2992.7 2987.83 2984.05
2992.86 3000.32 2999.43 3011.93 3010.32 2996.22 3000.1 3022.4 3061.76 3063.25
3048.74 3032.74 3010.36 2971.59 2971.25 2972.42 2968.98 2965.32 2959.18 2951.43
2954.47 2972.52 2982.23 2986.98 2973.07 2947.45 2931.6 2934.33 2951.18 2956.83
2931.62 2894.45 2895.21 2880.45 2882.74 2882.1 2875.74 2872.39 2873.88 2867.97
2863.97 2861.26 2842.7 2829 2824.56 2821.08 2821.24 2821 2821 2819.94
2819 2818.97 2818.38 2819.99 2817.82 2819.19 2818 2818 2818 2816.99
2816 2818.38 2818.26 2820.68 2825.68 2832.45 2835.02 2835.91 2832.95 2833.47
2833 2837 2837.73 2837.25 2836 2837.45 2840.16 2838.39 2838.04 2838.71
2839.9 2841.17 2841.05 2839 2841.04 2840.56 2841 2841 2840.27 2839.15
2839 2836 2836 2837.16 2837.6 2835 2834.92 2836 2835.99 2835
2833.04 2830.08 2831.12 2828.88 2828.32 2826.96 2824.82 2825.91 2823.59 2823.96
2821.99 2820.98 2820.1 2818.97 2817.57 2815.92 2815.96 2815.86 2811 2811.03
2812 2812.47 2810.98 2808.91 2807.09 2805.12 2804.92 2801.43 2803 2802.23
2803.05 2798.61 2785 2787.69 2783.05 2783.22 2783 2784 2784.93 2780
2780 2781 2778.75 2776.96 2775.94 2777.46 2774.47 2771 2773.99 2772.98
2773 2773 2772.01 2775.28 2777.48 2778.7 2779.85 2773.06 2769.98 2769
2767 2770.36 2771.49 2774.99 2777 2777.97 2773 2771.19 2770.7 2773.19
2772.69 2771.14 2767.9 2765.9 2769.66 2771.11 2776.79 2778.02 2778.5 2784.05
2785 2777.64 2772.38 2785 2787.81 2785.67 2787.84 2789.33 2791.12 2792.02
2790 2782.43 2789.05 2794 2794 2794 2792.37 2793.62 2797.76 2791.1
2800.33 2801.04 2799.79 2801.09 2800.97 2800.98 2795.54 2795.72 2798.14 2800.37
2800.44 2801 2803.1 2805.23 2805.49 2811.99 2811 2811.58 2812.79 2813.2
2815.77 2814.14 2818.33 2818.8 2820.09 2820.92 2822.33 2846.38 2856.24 2854.89
2857.22 2859.82 2852.21 2841.51 2823.98 2825 2823.08 2822.83 2822.22 2824.22
2824.42 2823.1 2823.98 2823.16 2823 2823.07 2822.8 2821.78 2819.29 2818.03
2817.09 2815 2813.02 2811.09 2810.67 2809.95 2808.33 2808.98 2806 2807.13
2808.1

3325.81 3291.8 3313.01 3354.28 3358.96 3344.51 3331.56 3313.82 3267.09 3226.57
3227.04 3254.91 3281.38 3306.54 3303.43 3288.99 3274.41 3251.18 3221.47 3209.34
3198.86 3186.15 3177.35 3162.13 3152.92 3135.24 3114.95 3101.69 3084.29 3074.9
3062.89 3053.18 3045.11 3036.26 3024.08 3015.29 3005.4 2998.15 2990.35 2979.14
2970.95 2977.3 2975.22 2974.44 2980.97 2979.35 2985.57 3014.05 3042.03 3047.74
3044.99 3031.4 3017.12 2986.49 2961.47 2957.38 2957.67 2951.29 2946.43 2943.54
2944.73 2948.16 2952.48 2955.27 2961.22 2944.96 2926.71 2915.38 2925.12 2931.41
2908.6 2884.07 2876.63 2869.96 2872.99 2873.52 2869.69 2865.93 2868 2861.3
2853.46 2850.62 2837.13 2825 2823.97 2822 2820.96 2820.85 2820.32 2820
2819 2819.02 2818.89 2818.95 2818.67 2818.99 2821.04 2818.31 2822.48 2823.17
2821.63 2827.42 2832.77 2836.15 2837 2836.87 2836.5 2836.48 2836.99 2836.64
2835.76 2835.99 2837.96 2838.56 2837.75 2838.79 2840 2838.96 2839.57 2841.13
2842.14 2843 2841.98 2841.92 2843.06 2843.17 2843 2842.4 2841.54 2843
2841.03 2839.48 2838.51 2840.62 2839.13 2836.24 2836.4 2837 2836.86 2836
2835.36 2835.05 2833.3 2831.41 2828.99 2828 2827.04 2827 2827 2825.36
2824.95 2825 2822.5 2820.63 2820 2817.58 2817.97 2816.08 2814.11 2814
2815.03 2814.63 2813.27 2809 2808.76 2806 2805.13 2805 2805.87 2807
2807 2806.13 2804.44 2801.03 2795.17 2784.48 2782.42 2782.99 2783.71 2780.35
2780 2780.94 2778.36 2778.8 2778.57 2780 2777.19 2775.83 2774.96 2778.19
2777.51 2777.67 2781.08 2781.23 2780.39 2783 2782.51 2778.13 2772.95 2770.56
2770.82 2773.18 2778.32 2778.52 2779.77 2780 2776.79 2774.38 2778.73 2778.75
2779.52 2782.43 2778.58 2781.79 2786.27 2786 2787 2787 2786.84 2789
2786.86 2784.74 2776.11 2786.11 2793 2792.55 2788.81 2791.25 2793.05 2793.36
2793.1 2787.88 2791 2793.92 2796 2796.17 2798 2798.05 2800.85 2799.02
2804.99 2805 2803.99 2802.22 2802.22 2803 2800.73 2799.9 2802.16 2803.96
2804 2806.38 2806.15 2809.23 2809.03 2812 2813 2814.13 2816.01 2818
2819.79 2821.11 2824.04 2823.61 2824.48 2825.15 2825 2834.46 2841.49 2853.02
2854.02 2860.99 2853 2833.03 2828.17 2829 2827.08 2829.79 2829.07 2827.99
2826 2826.96 2828.8 2826.65 2826.02 2828 2826.53 2825.93 2822.74 2821.5
2819.32 2816.04 2815.34 2815 2815.63 2815.06 2811.74 2809.38 2809.71 2810
2812.28

3299.66 3258.68 3292.4 3320.16 3330.3 3310.63 3311 3308.62 3262.72 3221.63
3198.09 3208.35 3233.12 3256.17 3252.25 3231.86 3256.48 3250.95 3250.87 3241.79
3227.23 3215.78 3183.12 3162.03 3153.06 3135.46 3117.63 3097.98 3087.36 3070.77
3057.34 3051.65 3041.86 3031.83 3023.39 3015.58 3003.37 2996.75 2989.83 2980.55
2970.63 2963.5 2956 2953.53 2950.1 2954.37 2976.95 2994.02 3010.82 3020.02
3012.82 3011.54 3012.81 3009.33 2971.73 2953.25 2944.17 2939.56 2937.26 2935.9
2930.52 2927.59 2925.69 2934.95 2937.98 2943.1 2940.3 2907.1 2901.77 2909.61
2893.51 2872.87 2861.67 2861.99 2861.63 2863.41 2863.28 2858.11 2858.79 2858.84
2846.52 2837.75 2826 2825 2825.74 2821.08 2822 2821 2821 2820
2820.61 2821.99 2822 2818.94 2817.17 2819.84 2827.74 2833.27 2834.89 2833.98
2837.81 2837.12 2836.97 2839.92 2838 2839.02 2839 2839.24 2840 2838.82
2839 2839 2839.09 2839.32 2842.05 2843.97 2842 2842.5 2841.98 2843.11
2844 2845.38 2846 2844.73 2846 2846.21 2844.75 2844 2842.95 2843
2844.8 2842.95 2841.99 2841.45 2842 2839.01 2838 2840.29 2840.86 2836.89
2836.4 2837.92 2834.86 2834 2831.68 2831.44 2829.85 2828.93 2827 2826.99
2825 2826.13 2824.71 2822.3 2821.33 2820.49 2818.99 2816.82 2816.82 2816.62
2816.99 2815 2814.99 2812.05 2810.79 2808.96 2810 2810.02 2807.99 2807.88
2808.83 2808.37 2809.43 2809.39 2808.99 2804.34 2788.97 2785.6 2784.41 2781
2781.01 2781.28 2778.41 2778.87 2779 2779.85 2776.92 2775.9 2776 2777.71
2777.31 2780 2783 2785.3 2785.49 2787.65 2785.77 2788.3 2788.28 2785.78
2786.52 2785.75 2784.75 2783.99 2783 2784.52 2785.08 2790.99 2787.49 2783.85
2784.42 2784.59 2782.07 2785.18 2789.01 2788.55 2789.47 2791 2790 2790.91
2791.07 2787.74 2781.85 2788.03 2793 2793.96 2794.84 2797.05 2795.7 2796.91
2797.67 2793.88 2794.28 2795.52 2799.54 2800 2800.58 2802 2802 2803.82
2804.39 2805.95 2805.99 2804.92 2806.71 2804.23 2803.34 2804.2 2805.98 2807.32
2806.13 2809 2811.03 2815 2814 2816.04 2816.62 2817.11 2821.3 2820.98
2823.79 2823.88 2827 2828.81 2828.59 2827.94 2829.31 2829.43 2831.74 2843.94
2853.76 2850.39 2848.86 2834.59 2833.19 2832.04 2832.58 2833.17 2832.83 2834
2831.63 2832.79 2833.89 2832.01 2833 2831.18 2831 2830 2830.01 2826.05
2823.2 2820.62 2820.22 2818.87 2819 2817 2815.14 2815 2814.01 2817.81
2816.04

3274.57 3247.97 3259.01 3295.51 3297.77 3271.34 3290.58 3288.65 3252.67 3212.74
3186.07 3191 3207.63 3214.93 3220.43 3200.58 3238.15 3246.44 3254.99 3248.85
3237.29 3217.86 3185.9 3167.39 3151.64 3134.93 3123.49 3107.88 3087.6 3074.58
3058.95 3044.61 3033.91 3030.07 3020.52 3016.62 3005.24 2990.34 2985.06 2978.78
2972.58 2963.81 2957.92 2949.78 2942.17 2939.82 2950 2960.03 2978.67 2978.29
2974.53 2976.66 3006.15 3007.73 2994.44 2970.21 2953.51 2937.36 2926.88 2920.51
2919.66 2913.05 2908.03 2915.83 2924.32 2941.94 2942.03 2910.25 2889.6 2884.34
2876.14 2864.54 2855.13 2854.04 2854.67 2851.56 2852.31 2848.94 2846.91 2847.45
2834.28 2824.58 2823.01 2823.22 2823.62 2823 2822 2822.17 2821.29 2820.74
2822.68 2821.13 2821.97 2819.12 2818.95 2828.09 2837.5 2837.58 2838.35 2840
2839.02 2840 2840.04 2840 2842.62 2843.12 2845 2842.27 2840 2841
2840.99 2841 2842.04 2843 2844.07 2844.89 2843.3 2849.08 2848.34 2847
2847.01 2849 2846.52 2847.99 2848.14 2849.45 2848 2850.64 2849.32 2845
2846.01 2845.97 2841.99 2843.9 2843.49 2842.23 2840.31 2839.99 2842.15 2841.24
2839 2839.75 2836 2833.85 2835.04 2833.99 2833.1 2830.7 2828.84 2827.85
2827.04 2827 2826.91 2826 2823.19 2821.9 2821.91 2820 2821.03 2821
2818.22 2815.11 2813.07 2813 2812.25 2812 2809.98 2811.04 2811.71 2811.95
2810 2810.11 2811.42 2810.11 2811.02 2813.16 2796.97 2798.73 2802 2799.15
2798.47 2793.34 2790.58 2783.64 2779.95 2780.99 2777.92 2781.88 2780.87 2779.16
2781.55 2789.45 2790.8 2789.24 2788.37 2792.01 2791.84 2793 2794.01 2791.54
2793 2793 2791.88 2787.88 2786 2787.25 2791.51 2793.35 2791.75 2790.89
2788.02 2789.99 2788 2789.14 2794.35 2793.08 2794.1 2793 2791.98 2795.06
2794.21 2793.98 2783.15 2792.36 2792.3 2795.92 2796.96 2798.72 2798.81 2798.89
2798.06 2796 2797.66 2799.09 2801.87 2804 2803.19 2802.13 2805.89 2806
2807.21 2801.57 2805.38 2807.14 2810.21 2810.3 2806 2807.77 2809.14 2813
2812.05 2812.79 2814 2816.01 2816.26 2820 2820.13 2821.16 2823.71 2827.06
2826.12 2826.17 2827.91 2830.79 2832.11 2834.98 2834.27 2835.05 2835.24 2839.04
2842.34 2843.5 2835.07 2835.93 2835.15 2835.4 2836.63 2836.11 2837.15 2837
2836.56 2837.79 2837.12 2834.96 2835.28 2835.08 2834.64 2833.99 2831 2828.95
2826.11 2825.14 2824 2821.46 2820 2820.04 2821.16 2817.03 2818.88 2820.13
2820.21

3243.67 3228.12 3249.3 3276.51 3270.76 3241.75 3256.01 3276.99 3264.04 3221.64
3189.22 3163.18 3171.76 3178.94 3189.52 3176.07 3191.24 3208.67 3219.23 3219.1
3216.68 3199.62 3185.92 3172.21 3153.01 3134.08 3123.42 3110.24 3095.52 3081.19
3068.29 3047.81 3032.68 3024.8 3017.87 3009.75 3000.74 2990.98 2984.08 2975.21
2968.25 2961.25 2957.55 2949.18 2941.13 2934.96 2933.06 2928.15 2943.12 2954.08
2957.64 2967.52 2997.44 3006.9 3013.05 3010.94 2995.67 2969.96 2950.26 2940.18
2913.14 2904.07 2900.14 2898.91 2906.71 2913.37 2916.85 2901.3 2889.62 2873.77
2865.53 2852.35 2848.18 2847.62 2847.98 2843.75 2843.72 2843.53 2835.83 2828.67
2825.04 2825.67 2823.41 2823 2821 2821.9 2820.82 2823 2821.35 2819.95
2822.84 2820.38 2821.41 2821.49 2826.53 2834.82 2839.95 2841.05 2839.38 2840
2840.09 2841.85 2842 2844.93 2846 2845.95 2844.98 2846.23 2843.98 2843.67
2843.85 2844 2844.7 2845.3 2846.97 2846.55 2847.28 2850.08 2851.99 2850.77
2848.49 2847.89 2847.44 2850.71 2850.87 2850 2849.28 2851.3 2851.69 2851.85
2846.99 2846.42 2846.92 2844.57 2846.77 2845 2843.56 2843.83 2844.89 2844
2840.82 2839.55 2837 2836 2835.99 2835.99 2834 2831.99 2831.65 2832.33
2830 2827.36 2827.91 2826.1 2824.53 2824.67 2825.87 2824.11 2825.33 2823.94
2820.47 2819 2818 2814.7 2816 2813 2813.19 2814.3 2815.12 2814.76
2813.76 2814 2815 2812.82 2812.94 2816.99 2798.23 2801.05 2804.02 2807.86
2807.97 2802.09 2803.94 2791.01 2792.52 2798.97 2799.13 2798.42 2801.18 2800.81
2792.05 2793.11 2794.93 2793.53 2794.99 2792.26 2797.27 2799.17 2799.36 2798
2797.03 2797.84 2796.31 2796.28 2791.66 2791.55 2799 2797.8 2796.35 2793.98
2792.42 2790.68 2790.51 2795.16 2796.98 2797 2797.42 2797.27 2794.8 2796.27
2796.88 2795.65 2791.7 2794 2793.8 2801.48 2798.96 2802 2802.5 2803.69
2802.07 2799.02 2803.37 2805 2803.04 2806.91 2810 2808.92 2806.66 2811.89
2811.98 2807.99 2808.59 2812.62 2813.98 2812.31 2811.67 2811.66 2813.77 2815
2814.68 2816.67 2815.17 2819.25 2820.81 2822 2824.29 2825.57 2829.21 2830.4
2831.79 2831.17 2836.32 2834.51 2835.11 2838 2836.77 2838.95 2837.68 2841.14
2843.15 2843.37 2839.58 2840.74 2841.15 2840.35 2840.49 2841.74 2841.12 2842.84
2842.05 2842.73 2842.11 2840 2840 2836.81 2838.91 2836.14 2833.45 2831.49
2830.76 2827.95 2827.02 2826.38 2826 2824.79 2822 2820.37 2821.61 2823.99
2824.02

3219.29 3203.55 3214.05 3226.4 3229.72 3214.39 3232.47 3271.81 3259.17 3228.22
3190.67 3153.3 3141.24 3140.72 3142.43 3139.6 3147.64 3162.56 3159.62 3161.08
3167.81 3162.32 3163.09 3156.43 3141.29 3125.03 3118.84 3110.62 3105.39 3091.56
3081.05 3055.82 3035.04 3020.17 3010.71 3003.11 2995.94 2987.73 2981.57 2973.42
2968.3 2961.97 2954.69 2948.33 2941.71 2933.91 2927.98 2926.46 2920.66 2924.12
2927.53 2966.52 2980.76 2978.93 3010.78 3015.98 3003.62 2987.8 2975.58 2970.78
2947.2 2915.7 2895 2887.18 2888 2890.09 2889.48 2887.2 2880.15 2871.25
2858.84 2850.92 2844.22 2841.24 2839.49 2837.35 2834.27 2828.1 2828.99 2827.29
2824.99 2826.92 2824.4 2824 2823 2822.62 2821.82 2821.96 2823 2822
2820.79 2820.91 2824.41 2837.32 2840.5 2841.96 2840.92 2842.03 2842.8 2843.98
2843.57 2845.15 2844.54 2846.04 2846.56 2845.89 2847.43 2848.68 2848.43 2846
2846.35 2847 2846.91 2848.25 2849 2850.02 2850.29 2853.74 2849.62 2850.95
2850.99 2851.14 2854 2851 2852 2852 2852 2852.83 2854 2853.97
2850 2848.53 2847 2846.88 2848.98 2845.44 2845.51 2845.99 2846.12 2845.3
2842.14 2841.08 2839.83 2838 2835.58 2836.98 2837.07 2836.9 2834.21 2834.96
2832.05 2832.72 2827.95 2827.02 2827.03 2826.42 2826 2826.97 2825.98 2823.56
2820.54 2819.07 2820 2818.04 2818.51 2815.02 2816.23 2815.96 2815.99 2816.96
2815 2815 2815.79 2815.16 2814.14 2813.09 2801.18 2803.84 2805.5 2808.92
2807.97 2806.34 2805.8 2797.05 2800.41 2803.4 2803.66 2805.03 2804.17 2802.83
2796.6 2795.89 2801 2800 2798.41 2799 2799.74 2802.04 2803 2802.56
2800.36 2800 2801.01 2802.03 2797.03 2795.67 2800.19 2802 2800.14 2799.23
2797.63 2796.58 2796.86 2802.17 2802.24 2800.13 2802.58 2800.93 2799.13 2799.05
2801.58 2798.96 2797.04 2794.93 2796.93 2800.79 2801.01 2801.94 2804 2805.55
2806 2800.99 2803.33 2808.65 2807.69 2808 2810.38 2811.25 2814.63 2814.21
2813.99 2813.47 2815.66 2815.84 2816.01 2817.64 2816.21 2816.79 2816.94 2820
2819.15 2821.01 2820.99 2822.33 2824.31 2828.63 2829 2830.01 2831.37 2833.69
2836.74 2839.02 2838.38 2840.12 2838.07 2840.83 2843.88 2843.31 2843.66 2843.59
2846.93 2846.02 2845.54 2844.8 2844.91 2846.01 2842.56 2846.07 2847.82 2846
2846.01 2847 2845.02 2844.14 2842.04 2841.64 2840.82 2840.99 2837.73 2835.04
2833.77 2832.71 2830.41 2831.29 2827.45 2827.82 2826 2825.04 2827.75 2828.81
2830.94

3202.61 3194.8 3188.24 3191.54 3195.87 3186.81 3206.53 3221.02 3227.34 3212.95
3177.67 3152.07 3132.1 3123.59 3121.88 3120.31 3122.74 3127.97 3128.13 3130.65
3129.91 3134.51 3143.52 3141.98 3132.62 3127.15 3129.31 3128.37 3121.87 3107.05
3087.23 3066.53 3042.27 3033.1 3017.18 3007.56 2997.56 2986.53 2977.62 2968.42
2962.6 2958.24 2953 2946.48 2939.62 2932.99 2930.69 2921 2917.98 2914
2912.75 2924.19 2939.32 2954.69 2988.8 3009.38 2998.18 2983.6 2973.81 2968.14
2946.83 2921.71 2901.1 2887.38 2879.09 2877.28 2875.77 2877.08 2873.39 2862.04
2853.97 2847.03 2838.63 2834.91 2829.88 2829.74 2826.24 2827.88 2828 2825
2824.92 2823 2823.01 2823.84 2823 2823.55 2823 2821.15 2821.53 2821.99
2826.46 2833.08 2840.64 2843.21 2842.5 2845.71 2845.42 2847.99 2846 2847.71
2846.93 2848.14 2848.02 2848.33 2851.02 2850.47 2850.3 2851.01 2850.03 2849.65
2848.91 2849 2847.04 2849.56 2851.1 2851.14 2852 2853.62 2854.37 2853.1
2852.99 2853.82 2854.4 2855.53 2855.33 2855 2854 2852.3 2852.89 2853.06
2851 2851.94 2850.27 2849 2850 2849.02 2849 2847.37 2848 2847
2844 2842.07 2842.87 2841.62 2842.31 2840.79 2837.82 2837.91 2837.94 2834.06
2834.09 2833.02 2831.95 2831 2829.76 2827.03 2827.14 2828.01 2826.96 2823.66
2823.22 2822.05 2821 2820.95 2819.19 2818.13 2819 2817.74 2817.22 2815.98
2818.38 2819.1 2818 2816.83 2817 2814.49 2802.53 2807 2807.03 2810.16
2810.15 2812.33 2808.69 2800.55 2801.46 2809 2806.09 2807 2805.75 2804.7
2798.52 2798.67 2803.13 2803.03 2804.35 2802.1 2804.12 2804.69 2806.01 2804.99
2804.11 2804 2805.01 2802.95 2803.09 2801.48 2804 2804 2803.52 2805
2804.14 2800.62 2801.11 2805 2804.27 2803.61 2806 2803.09 2804.2 2801.33
2804.07 2803.05 2802.05 2794.7 2801.96 2801.82 2805.14 2804.74 2806.07 2808.63
2810.27 2803.41 2806.99 2810.8 2812.82 2814 2816.36 2816.03 2815.95 2816.42
2817 2817.04 2820.81 2818.64 2818.16 2823.44 2822.54 2822.03 2822 2822.28
2822.49 2825.99 2823.92 2825.9 2827.93 2830.11 2832.89 2833.16 2836.3 2838.46
2839 2841.96 2842 2842.88 2845.08 2844.28 2844.73 2845.49 2849 2848.26
2849.11 2850.96 2849.08 2847.96 2848.17 2849.24 2850.91 2849.42 2849.14 2850.21
2847.13 2848.1 2848.06 2849.15 2846.43 2845.95 2844.11 2844.06 2840.38 2840.01
2841.04 2838.98 2835.95 2836 2832.98 2830.65 2830.02 2827.97 2830.09 2831.64
2832.16

3196.54 3179.9 3174.24 3165.94 3161.49 3167.51 3171.99 3180.82 3189.17 3185.13
3173.15 3154.44 3133.6 3112.96 3102.98 3101.24 3099.16 3110.47 3109.82 3112.99
3113.46 3116.5 3130.26 3136.48 3137.29 3141.31 3143.22 3129.95 3116.15 3103.32
3082.58 3069.48 3063.24 3042.11 3023.97 3009.27 2998.98 2993.44 2989.35 2978.58
2964.78 2955 2949.34 2944.91 2937.89 2932.83 2927.56 2920.16 2914.35 2910.87
2906.16 2906.62 2914.78 2933.85 2970.16 2988.4 2979.86 2966.57 2957.75 2939.13
2922.75 2905.18 2900.99 2887.02 2876.58 2866.05 2868.43 2866.85 2862.39 2853.59
2847.82 2839.84 2832.58 2834.54 2831.84 2828.91 2828.66 2826.85 2826.01 2824.97
2827 2823.21 2823.5 2825 2822.53 2823.92 2822 2823.01 2827.44 2832.02
2845.76 2846.82 2844.99 2844.01 2849.57 2847.74 2849.75 2847.99 2848.53 2849.99
2850.74 2849.99 2850.98 2851.95 2852.09 2852.86 2854.93 2853.99 2853.51 2854.03
2850.85 2850.16 2852.32 2852.56 2853.73 2852.96 2854.99 2853.37 2854.05 2853.88
2855.99 2856.34 2856 2858.9 2856.65 2858.99 2857.99 2855.27 2855 2854
2851.1 2850.57 2852 2851.9 2853.19 2854.28 2849 2849.46 2849 2848
2845.72 2845 2846 2845 2842.96 2843.03 2839.66 2839.14 2838 2837.18
2836 2834.99 2834.14 2833.99 2832.51 2829.72 2831.96 2831.02 2828.37 2826
2825.01 2826.14 2822.46 2823.4 2820.7 2823.33 2822.13 2822 2821 2819.61
2819.87 2820.33 2819.98 2820 2820 2816.29 2806.32 2807 2808.02 2813.99
2813 2812.36 2811.63 2804.09 2802.26 2808 2810.86 2810.2 2806.07 2804.25
2802.49 2804.43 2808.07 2808.43 2808.74 2807.12 2808.11 2808.46 2809.35 2808.64
2808.86 2809.82 2807.49 2809.03 2806.64 2805.82 2809.78 2808.01 2809.29 2807.9
2806.35 2808 2803.82 2807.11 2809.43 2806.72 2808.73 2808.81 2808.17 2806.98
2807 2806 2802.41 2799.04 2805.9 2805.2 2809 2806.35 2808.09 2810.76
2812.99 2809.26 2813.11 2814 2814.87 2814 2817 2818.62 2817.83 2820.93
2820.91 2821.42 2821.63 2819.74 2821 2824.52 2826.65 2827 2827.2 2831.23
2828.01 2826.77 2829.61 2830.16 2829.78 2834.01 2835.96 2838.59 2840.91 2840.55
2841.94 2845.12 2846.12 2849.77 2850.7 2849.02 2849.69 2851.57 2851.92 2853.1
2855.86 2852.74 2851.69 2852.93 2853.09 2852.86 2854 2852.1 2853.84 2853.16
2853.5 2852.53 2851.81 2852.99 2851.99 2847.8 2847.82 2848 2846.31 2844.64
2843.13 2842.72 2841.19 2840.5 2836.65 2834.03 2832.08 2830.76 2832.91 2835.89
2836.19

3187.34 3175.89 3159.96 3150.44 3142.67 3147.76 3150.4 3171.13 3170.92 3157.23
3152.53 3149.3 3135.36 3123.08 3094.06 3084.29 3083.66 3086.4 3089.43 3094.92
3090.81 3103.29 3110.23 3116.34 3131.03 3152.11 3157.33 3149.23 3136.27 3120.92
3102.35 3080.52 3064.42 3042.05 3024 3020.21 3017.71 3010.75 2997.54 2983.26
2968.45 2955.13 2943.11 2936.01 2934.37 2932.25 2921.1 2919.47 2913.99 2907.29
2907.28 2901.66 2899.14 2898.52 2930.77 2946.4 2949.94 2945.92 2930.68 2910.72
2900.28 2892 2892.13 2880.31 2873.46 2868.73 2859.19 2862.5 2857.17 2853.08
2840.59 2832 2828.55 2829.83 2828.53 2827.07 2829 2827 2826.99 2826.32
2826.93 2824 2824 2825 2823.02 2822.08 2822.12 2829.89 2838.18 2845
2848.79 2849 2846.32 2847.43 2849.48 2849 2850 2849 2853.94 2854.62
2854.6 2851.98 2853.93 2854.15 2855 2854.98 2855 2855 2856.01 2856.17
2852.38 2853.95 2854 2855.06 2856.83 2857.26 2856.6 2854.36 2854.95 2856.91
2857.9 2857.96 2859 2860.99 2858 2858.98 2857.83 2857.51 2857.07 2857.96
2858.21 2854.03 2853.99 2853 2853.95 2854.7 2853.07 2850 2849.01 2849.02
2849.76 2849 2847.82 2847 2843.02 2846.07 2844.42 2842.87 2840.99 2837.66
2837.94 2837.83 2836.99 2835.46 2833.94 2831.94 2833.12 2831.99 2829.02 2827
2827 2827.1 2826.26 2825 2824.08 2824.18 2826 2824.37 2823.05 2825.85
2826.39 2823 2822.94 2822.68 2823 2819.9 2807.99 2808.3 2811.1 2813.94
2814 2815.51 2813.19 2808.07 2808.43 2809.41 2810.97 2810.12 2809.34 2808.4
2807.96 2808.12 2811.07 2812.97 2813.47 2811.85 2810.12 2813.22 2814 2813.05
2813.16 2814.93 2814.21 2812.28 2810.06 2811.13 2812.1 2813.35 2815.65 2813.05
2811.02 2809.57 2806.19 2813.99 2811 2811.55 2811.73 2813.08 2813 2808.02
2810.62 2809.29 2808 2806.21 2807.06 2809.94 2810 2812.03 2812.33 2813.99
2815.89 2813.26 2815.05 2816.53 2818.96 2822 2822 2822.37 2822.68 2824.97
2824.01 2825 2823.98 2824.01 2825.95 2825.01 2833.57 2832.51 2831.93 2833
2832.41 2833.61 2833.04 2833.02 2835.51 2838.9 2838.57 2842.02 2845.07 2845.59
2846.18 2849.86 2850 2851.59 2852 2851.09 2855.26 2855.9 2858.96 2855.98
2856.99 2858.46 2857.61 2856.73 2856.13 2858.02 2857.48 2857.36 2855.98 2857.03
2857.99 2856.13 2855.73 2856.98 2854.25 2852.68 2851.26 2851.82 2850 2848.48
2847.7 2845.89 2845.03 2843.54 2841.4 2840.44 2835 2835.05 2835.82 2838.86
2843.03

3163.85 3161.97 3157.83 3143.63 3127.74 3129.99 3135.97 3148.67 3153.13 3136.6
3124.35 3120.88 3131.55 3133.05 3111.91 3084.98 3067.97 3065.16 3067.3 3072.95
3078.34 3089 3093.49 3100.98 3133.19 3154.26 3164.86 3161.68 3154.48 3134.96
3107.36 3085.7 3067.96 3049.09 3040.81 3041.86 3039.42 3023.52 3008.29 2988.74
2977.52 2964.48 2949.53 2934.56 2928.22 2925.51 2916.99 2915.99 2910.45 2906.6
2901.47 2897.37 2895.34 2892.28 2894.56 2916.64 2924.25 2917.4 2907.07 2887.42
2887.7 2883.97 2879.46 2872.12 2866.5 2865.1 2853.26 2849.84 2854.08 2849.89
2832.92 2828 2828.89 2829 2826.96 2828 2828 2827.21 2825 2827
2824.99 2825 2823.93 2826 2824.99 2825.71 2834.83 2847 2846.01 2848.52
2850 2848.69 2852.92 2851.25 2851.07 2851.88 2852.75 2854.26 2854.37 2856.93
2856.82 2854.99 2853.99 2856 2855.42 2859 2858.98 2858.01 2857.96 2855.94
2854.8 2855 2856.24 2856.98 2856.27 2859 2858.01 2857.04 2861 2860
2858 2861.36 2862 2861 2861 2860.19 2861 2861 2858.82 2860.73
2858.99 2857.05 2855.91 2855.58 2856.26 2856.04 2854.97 2852.41 2852.14 2849.99
2851.04 2852 2849.93 2845.5 2845.33 2847 2845.44 2844.12 2841 2841.01
2841 2838.21 2838.94 2837.16 2836.71 2836 2835.88 2831.94 2830.03 2831
2830 2828.69 2827 2828 2826.94 2827 2826.16 2825.04 2825.93 2825.1
2825.08 2824.07 2823 2823.9 2823.91 2819.34 2813.31 2812.74 2813.93 2818.04
2818.31 2817.52 2813.44 2810.34 2811.29 2812.04 2815.18 2815.9 2815.06 2814.04
2813.2 2813.74 2816.17 2818.28 2819.76 2815.43 2815.14 2815.12 2818.39 2817.4
2818.64 2819.93 2819.18 2818.18 2814.76 2817.53 2818.07 2815.33 2820.91 2818.64
2815.43 2814.66 2814 2813.16 2814.38 2815 2815.1 2815.93 2816.28 2814
2814.07 2811.66 2812.18 2808.28 2805.99 2814.76 2813.83 2817 2817 2817.73
2819 2818.18 2816.42 2817.42 2821.11 2823.62 2825.24 2824.08 2824.81 2827.14
2827.29 2826.54 2827.24 2825.99 2828.34 2832.23 2834 2836.21 2837.1 2837.36
2841 2843.52 2837 2836.96 2840.96 2844.08 2845.99 2846.74 2848.35 2849.59
2850.96 2852.11 2854.61 2856.07 2856.93 2857.08 2857.99 2858.99 2858.93 2859.99
2862.2 2862 2861.04 2860.91 2861 2861.37 2861.04 2859.74 2861.13 2861.01
2860.06 2861.09 2860.25 2858.78 2857.43 2858.09 2858.1 2856.66 2853.07 2853.35
2852 2848.81 2848.27 2847.94 2845.09 2842.89 2839.89 2838.97 2840.09 2842.97
2845.01

3161.91 3142.75 3138.04 3140.99 3123.93 3109.95 3117.86 3127.6 3130.91 3117.22
3100.83 3103.98 3126.05 3132.01 3126.3 3100.18 3066.58 3055.52 3047.8 3054.13
3073.23 3078.83 3068.76 3096.97 3126.21 3136.89 3151.03 3163.26 3161.23 3141.79
3114.84 3093.59 3078.71 3065.72 3061.87 3057.31 3050.59 3035.04 3019.91 3001.19
2983.73 2964.41 2954.69 2940.94 2931.56 2918.89 2916.48 2912.85 2906.62 2904.88
2898.12 2893.37 2892.33 2888.93 2883 2885.15 2888.8 2881.49 2879.33 2876.4
2875.95 2872.22 2867.05 2855.03 2838.56 2840.42 2842.78 2840.67 2841.19 2835.19
2831.6 2829.91 2829.79 2829.57 2827.99 2828 2827.98 2827 2826.94 2825
2825.47 2824.98 2824.05 2824.96 2826.81 2840.72 2849.97 2848.2 2847.18 2849.96
2848.64 2851.75 2851.99 2851.96 2851 2852 2854.39 2855.2 2856.97 2858
2858.72 2855.99 2858.32 2860.85 2859.82 2861.6 2860 2861.14 2862.27 2862
2858.8 2857.17 2857.2 2858.05 2858.99 2860.82 2861.96 2860.29 2861.89 2864.79
2863.18 2863 2863.05 2863.7 2863 2864.21 2862.27 2860.2 2862.78 2861.9
2861.29 2861.4 2858.61 2857.89 2858.08 2858 2856.56 2855.57 2855.03 2853.05
2852.88 2852.44 2850.48 2849.16 2848 2848.33 2846.76 2845.91 2844.99 2844.48
2843.49 2841.73 2840 2839 2838.47 2837.52 2835 2833.82 2832.37 2833.68
2833.83 2831.92 2831.64 2831.99 2830.1 2829.76 2828.23 2826.43 2826.51 2826.7
2827 2825.51 2827.77 2830.09 2826.49 2822.1 2813.11 2815 2817.01 2820.16
2822 2820.98 2814 2813.86 2816.99 2814.3 2816 2819 2817.58 2818.94
2818.52 2818.8 2820.85 2821.16 2821.42 2818.65 2819.49 2820.1 2822.3 2823.61
2823.11 2823.83 2822.28 2821.63 2818.03 2820.97 2825.17 2823.32 2824.73 2822.01
2821.01 2820.43 2817.9 2816.92 2821.51 2821 2820.12 2820.81 2819 2818.04
2818.13 2815.85 2814 2813.38 2812.51 2814.83 2815.99 2817.76 2817.04 2820.36
2822.82 2821.99 2820.79 2821.19 2823.97 2828 2829.12 2831 2830.09 2829.18
2831.01 2831.66 2831.64 2831.05 2835.21 2837.99 2834.88 2839.93 2843.94 2844.16
2845.47 2844.67 2842.77 2841.23 2844.22 2848.72 2848.72 2848.19 2851.42 2853.55
2856.86 2858.54 2860.02 2860.43 2859.01 2861.87 2860.03 2862.79 2864 2864
2867.01 2866.63 2864.33 2864.49 2864.32 2864.96 2864.55 2865.74 2864.66 2865
2865.88 2865.08 2863.98 2864.2 2864.31 2861.57 2860 2859.86 2858.26 2856.5
2854.03 2853.96 2852.79 2850.8 2850.61 2846.1 2842.96 2842.78 2843.5 2846.08
2849

3168.26 3148.59 3131.18 3118.36 3121.29 3101.75 3096.18 3105.92 3106.48 3096.54
3082.4 3094.92 3107.34 3125.15 3126.82 3103.68 3085.09 3055.97 3036.43 3036.77
3053.45 3052.69 3062.84 3093.66 3101.96 3108.37 3122.8 3158.31 3159.63 3148.07
3128.9 3109.66 3094.12 3081 3069.72 3058.06 3050.24 3036.36 3018.63 3002.36
2982.43 2964.25 2953.06 2946.12 2930.19 2916.16 2909.74 2907 2903.98 2901.19
2897.99 2891.73 2886.88 2882.36 2879.36 2876.31 2875.97 2873 2870.72 2871.02
2866.93 2864.1 2854.62 2835.68 2834 2830.44 2832 2830.28 2830 2831.98
2833 2830 2831 2829.96 2828.28 2828.47 2829.94 2829.79 2827.04 2825.99
2826 2826 2826.6 2828.73 2844.89 2851.45 2852 2853.06 2850.01 2852.68
2854.18 2855.08 2854.15 2853.69 2858 2856.56 2856.28 2858.04 2859.53 2860.56
2860 2861 2860.73 2862.94 2863.5 2863.95 2863 2866.14 2865.45 2864
2863.93 2861.94 2861.73 2862.45 2862 2864.76 2863.16 2865.98 2866.16 2865.93
2865.99 2866.54 2865.98 2865 2864.12 2865.19 2866.03 2863.98 2862.46 2863
2862.61 2863.06 2861 2859.22 2860.55 2859 2857.61 2856.51 2858 2856.17
2855 2854 2853.96 2851.94 2852.03 2850.97 2847.99 2848.95 2846.33 2846.66
2846.98 2841.92 2840.56 2840.48 2839.94 2839 2837 2835.42 2833.15 2836.57
2836.61 2835.98 2835.99 2835 2834.49 2830.29 2830 2828 2828 2827.47
2827 2827.97 2828.57 2832 2830.64 2821.2 2815.01 2816.91 2821 2823.99
2822 2820.66 2816.9 2820.86 2819.62 2819.26 2820.7 2821 2822.09 2824.23
2823.11 2821 2825 2824.51 2824.84 2821.47 2823.04 2825.99 2827.01 2828
2826.74 2826.05 2826 2825.76 2821.73 2826.98 2827 2828.03 2826.39 2825.96
2826.01 2824.69 2823.84 2823 2826.18 2826.99 2823.67 2825.43 2824.69 2822.06
2822.56 2819.94 2820.03 2820.27 2817.46 2816.25 2820 2819 2819.6 2824.04
2824.87 2825.03 2825.84 2824.72 2828.74 2829.96 2831 2830.95 2833.64 2834.92
2835.02 2836 2835.85 2834.72 2837.84 2841.41 2838.86 2842.81 2848.57 2845.61
2848.52 2848.89 2848.86 2848 2848.83 2851.94 2854 2856 2855.58 2860.22
2861 2862.02 2863.44 2864.53 2865.7 2865.06 2866.19 2866.06 2866.86 2869.85
2870 2870.05 2869.48 2871.09 2872.88 2870.88 2870.44 2869.73 2871.04 2870.98
2870.05 2870.04 2867.85 2868.99 2868.47 2866.49 2865.7 2862.66 2865.19 2860.84
2858.75 2857.98 2858.98 2855.44 2853 2849.9 2847.24 2844.76 2847.91 2849.3
2853.02

3180.45 3152.4 3131.66 3113.57 3106.81 3091.02 3081.51 3090.74 3092.48 3089.28
3071.48 3075.12 3085.54 3115.07 3120.35 3117.06 3093.76 3067.43 3037.26 3023.04
3029.14 3028.1 3055.25 3071.99 3075.78 3087.58 3110.15 3139.23 3148.88 3153.51
3143.97 3126.07 3103.29 3084.82 3067.39 3052.17 3039.83 3029.56 3011.87 2989.87
2973.14 2964.09 2950.6 2944.39 2940.27 2930.96 2916.2 2904.63 2901.12 2896.06
2895.01 2890.27 2884.57 2881.25 2876 2875 2874.81 2870.77 2866.08 2864.86
2860 2858.61 2841.45 2835 2833 2832.98 2831.64 2831.64 2833 2831
2832.46 2830.01 2830.95 2828.16 2828.99 2829.94 2830 2829.4 2828 2826.42
2826 2826.77 2838.03 2849.26 2851.72 2854.51 2855 2856 2853.62 2853.05
2854.77 2856.77 2855.63 2856.1 2861.03 2856.87 2859 2859.23 2861 2863
2861.88 2863.16 2862.23 2865.78 2866 2865.25 2863.76 2866.99 2867 2866.47
2867.11 2863.99 2863.04 2863.07 2864.08 2865 2866.02 2865.99 2866 2867.02
2868.98 2869 2869.01 2867.48 2867.01 2868 2867.99 2866.48 2864.1 2865.97
2866.26 2865 2864 2862 2862.94 2860.29 2861.42 2859.14 2859.87 2858
2857.05 2857.08 2855.8 2854.56 2857 2851.66 2850.83 2851 2848 2846.28
2845.28 2844.12 2844 2845.98 2842.58 2840 2839.52 2836.01 2836.48 2838
2836.85 2836.15 2836 2834 2832.34 2832 2832 2832.02 2832 2829.78
2828.95 2827.91 2832 2830.22 2827 2820.33 2822.26 2822.97 2822.33 2825
2823 2821.36 2821.37 2823.11 2820.27 2823.68 2825.25 2825.2 2825.42 2827.96
2830.51 2828.39 2828.93 2828.98 2829.04 2827.38 2829.06 2831 2832 2831.07
2831.09 2832.01 2833 2829.23 2828.73 2830.83 2831 2832 2830.24 2829.15
2827.34 2829 2827.11 2827.16 2828.38 2828.07 2829 2828.15 2828.12 2826
2826.08 2823.7 2823.13 2822.29 2820 2818.74 2821.3 2821.15 2823.98 2826.1
2826.8 2828.24 2830.41 2828.44 2832.13 2833.14 2833.34 2836.58 2836.48 2840.08
2839.35 2839 2839.09 2841.8 2846.19 2847.27 2847.02 2846 2850 2850.35
2855.07 2856 2853.87 2850.74 2852.97 2854.12 2857.11 2859.14 2859.01 2861
2864.12 2866.13 2867.2 2868.05 2868 2870.02 2872.2 2872.06 2872.09 2872.96
2875 2874.85 2874.11 2874.01 2875.15 2874.05 2875.97 2876.4 2877.72 2874.37
2874.06 2873.16 2873.13 2872.82 2872.99 2869.76 2868.13 2868.09 2867.21 2865
2863.07 2862.15 2861 2856.35 2854.09 2854 2853 2849.28 2851.51 2853.9
2856.08

3185.05 3157.03 3136.45 3114.55 3093.75 3083.9 3080.18 3073.23 3070.93 3068.53
3058.41 3060.12 3074.79 3091.5 3103.33 3107.81 3089.85 3063.85 3038.26 3019.38
3014.79 3029.8 3039.41 3046.28 3066.07 3089.33 3113.16 3127.89 3146.96 3146.69
3141.11 3130.45 3112.36 3091.81 3080.35 3066.33 3049.98 3030.97 3001.91 2983.73
2981.65 2968.45 2958.45 2952.6 2944.81 2932.1 2920.66 2901.25 2895.64 2893.86
2892.95 2888.99 2883.71 2877.2 2873.66 2869.69 2868.44 2866.81 2865.17 2861.84
2859.78 2846.72 2833.25 2834.79 2832.99 2834 2832.92 2834.92 2835 2833
2830.28 2828.93 2829.67 2830.92 2828.62 2831.06 2831.47 2827.33 2827.81 2826.34
2829.23 2842.21 2849.87 2852.01 2853.43 2856 2857.99 2858 2855.3 2854.5
2857 2858 2859.18 2859.69 2861.99 2859.67 2862.61 2862.86 2863.98 2865.66
2863.44 2865.99 2865.2 2866.39 2866.71 2866 2869 2868.27 2869 2868
2868.82 2868.14 2865.17 2867.12 2866.97 2866.91 2869 2868.36 2872 2874
2869 2870.31 2870.01 2871.64 2871.85 2869 2871 2871.92 2869.68 2870
2870 2866 2865.99 2863.92 2864.99 2861.97 2863.4 2860.76 2860.11 2859.51
2860.17 2859.96 2856.81 2857.11 2856.97 2853.51 2852.85 2851.04 2849.66 2848.07
2847.65 2848 2845.97 2846 2843.81 2842.63 2842.98 2840 2838.96 2840
2840 2838.97 2836.32 2836.29 2835.7 2833.76 2835.98 2834.26 2835.56 2833.23
2833.91 2829.31 2832 2830.3 2826.58 2823 2824 2823.29 2825.04 2826.87
2824.58 2823.19 2826 2824.55 2826.99 2826.44 2827.15 2831.03 2831.02 2831
2833.49 2833 2832.07 2835.15 2833.57 2832.99 2830.7 2835.86 2835 2835.05
2835.74 2835.93 2837.09 2832.01 2831.4 2834.89 2835.75 2835.81 2836.5 2834.21
2832.47 2832.69 2832.92 2835.02 2832.24 2834.05 2833.05 2830.9 2830.97 2830.36
2828.87 2829.77 2825.94 2827 2824.09 2819.83 2826.62 2828 2828.01 2829.67
2829.75 2830.96 2832.25 2831.9 2834.07 2835.4 2837.99 2839.22 2839.53 2841
2842 2840.61 2844.15 2846.04 2849.1 2849.99 2849.08 2849.86 2851.04 2856.62
2862.02 2862.66 2860.91 2862.18 2859.4 2858.72 2860.63 2863.18 2865 2865.61
2868.49 2868.01 2870.22 2873.04 2871.91 2874.11 2874.58 2876.25 2876.48 2877
2877.49 2881.31 2877.54 2877.92 2878.03 2880.35 2879.09 2878.67 2878.99 2879
2878.55 2877.74 2876.6 2876.24 2875.89 2872.62 2872.09 2872.7 2871.01 2870.49
2868 2867.03 2864.97 2861.37 2858.66 2857.01 2855.24 2852.76 2853.42 2857.8
2859.96

3201.25 3170.68 3144.82 3121.23 3101.23 3080.17 3068.76 3067.6 3056.37 3052.84
3043.14 3044.75 3067.9 3075.52 3078.67 3090.99 3088.05 3066.77 3046.06 3019.35
2999.14 3010.56 3020.99 3052.62 3066.67 3088.85 3103.84 3106.35 3109.15 3116.61
3125.61 3133.53 3120.39 3105.6 3097.05 3083.37 3070.94 3053.04 3026.2 3003.05
2989.35 2972.98 2958.94 2952.38 2937.81 2929.77 2920.72 2906.35 2890.81 2890.92
2889.16 2884.95 2883.07 2873.32 2869.98 2868.1 2865.96 2862.99 2859.47 2860
2855.97 2840.82 2833.78 2835 2833 2833.68 2833.73 2833.28 2833.16 2831.41
2833.99 2830.24 2831.92 2832 2832 2829.05 2829 2826.96 2827 2827.98
2839.19 2849.08 2854.19 2854.28 2855.01 2856.92 2859 2860 2859 2861.45
2857.57 2860.89 2861.83 2861.14 2863.02 2865.77 2865.95 2864 2865.71 2867
2866.28 2868.27 2869.22 2869.48 2871 2872 2869.72 2871.81 2870.36 2870.09
2872.99 2870.76 2870.01 2868.97 2870.08 2869.97 2870 2868.99 2872.65 2873.88
2873.99 2874 2871.5 2873.94 2873.76 2870.23 2871.38 2871.4 2873.99 2870.37
2871 2869.52 2866.04 2867 2865.1 2866 2865.96 2864.9 2864.87 2861.67
2861 2860.06 2858.85 2859 2855.38 2855.82 2853.93 2854 2852 2851.28
2850.99 2849 2848.99 2847 2845 2843 2841.33 2842.01 2842.4 2840.77
2841.9 2842.13 2839.52 2839 2837 2835.99 2835 2835.72 2837.52 2834
2834.88 2837.42 2836.58 2831.6 2827.51 2823.03 2824.07 2825.51 2828.08 2830.11
2827.01 2826.86 2829.1 2829.09 2830 2832.48 2833.7 2834.85 2835.17 2835.05
2836.41 2838.67 2840.91 2837.76 2839 2839.67 2837.37 2837.07 2839.4 2840.45
2839.7 2841.92 2841.22 2837.44 2836.65 2840.14 2840.09 2841 2840.09 2839.03
2838.77 2838.66 2839.56 2839.87 2839.98 2838.42 2834.89 2834.91 2835 2834.04
2832.18 2832.79 2832.92 2829.05 2827.49 2824 2826.34 2829 2828.5 2831
2833.91 2835 2835.2 2836 2835.32 2839.99 2839.04 2842.58 2843.86 2844.99
2845.02 2849.4 2849.53 2848.84 2853.99 2853.3 2854.51 2855 2856.72 2859.92
2863.73 2866.82 2867.03 2867.99 2864.67 2863 2865.58 2867.91 2866.21 2870.61
2871.76 2873.08 2874.43 2876.5 2878.58 2878.81 2880.23 2881 2880.61 2879.01
2881.25 2884.99 2882.64 2882.79 2882.94 2881.98 2882.1 2883.69 2882.55 2884.13
2883.38 2882.57 2881.87 2881.17 2880.08 2877.53 2876.76 2875 2875 2874.47
2871.49 2869.94 2869.36 2865.39 2865.42 2864.06 2859.15 2856.96 2857.24 2861.9
2863.04

3202.54 3171.88 3142.99 3121.29 3101.73 3077.13 3066.02 3054.07 3052.98 3044.04
3030.28 3030.44 3046.13 3051.29 3064.11 3076.17 3087.85 3069.78 3049.01 3020.82
2997.23 2988.78 3018.12 3043.84 3057.12 3068.33 3075.67 3081.19 3086.82 3097.74
3104.81 3123.17 3125.32 3114.1 3101.54 3088.11 3078.33 3061.55 3039.46 3004.12
2985.87 2964.26 2951.97 2941.18 2933.52 2926.9 2920.55 2907.83 2891.66 2888.5
2887.09 2881.92 2877.64 2874.63 2868.47 2861.76 2859.98 2861 2857 2852.49
2844.66 2832.98 2835 2835.87 2834.73 2833 2835.08 2835.6 2832 2832
2834 2832.77 2833.87 2832.03 2831.78 2828.98 2828 2828.99 2829.3 2840.23
2851.67 2855.84 2855.37 2857 2859.17 2860.7 2863.79 2862.48 2859.8 2861.52
2861.44 2862.96 2863.2 2864.34 2865.55 2864.68 2866.87 2866.04 2869 2869
2869.12 2870 2872.05 2872.72 2873.07 2872.99 2873 2873.01 2872.3 2875
2876.12 2874.14 2872.98 2870.17 2870.91 2870.99 2872.01 2873.45 2874.02 2874.1
2875 2874.99 2875.48 2876 2876 2874.16 2875.05 2876.08 2873.68 2872.57
2871 2871.91 2871.91 2869.75 2868 2868.76 2867 2865.86 2867.03 2863.88
2864.03 2862 2861.01 2862.91 2859.06 2858.48 2856.34 2857.66 2854.41 2854.03
2851.61 2852 2850.92 2847.03 2846.32 2845.48 2844 2844.88 2845 2843
2844.12 2844.15 2844 2840.98 2838.7 2837.21 2838.86 2837.19 2838.97 2835.96
2834.64 2836.67 2835.4 2832.45 2828 2825.77 2827.36 2829.01 2829.98 2833
2828.93 2830.06 2831.82 2831.42 2832.73 2837 2837.31 2838.11 2839.16 2839.22
2841.05 2839.53 2842.39 2844.27 2844.69 2844.04 2843.06 2840.33 2843.96 2845
2846.09 2845.89 2845 2842.82 2841 2844.07 2846 2844.01 2845.05 2843.11
2843.41 2841.08 2844.12 2842.61 2840.8 2840.07 2839.89 2838.15 2838 2839.34
2837.08 2835.2 2836.22 2833.02 2831.99 2828.65 2830.91 2834.03 2833.5 2835.67
2837.1 2838.01 2839 2839.04 2838 2841.09 2846.27 2845.02 2848.1 2848.24
2848.18 2852.71 2853.06 2851.91 2854.97 2857 2860 2859.9 2863 2864.15
2869.65 2870.09 2870.78 2871.88 2870.97 2864.18 2867.13 2869.1 2872.43 2875
2876.81 2878.14 2879.32 2880 2881.99 2882.98 2884.52 2885.31 2885 2886.95
2886.16 2887.99 2887 2887.57 2887.87 2887.37 2886.01 2887 2885.26 2886.17
2886.04 2886.72 2886.07 2884.09 2882.46 2882.07 2881.1 2881.06 2878.36 2878.06
2877.06 2874.55 2873 2870.82 2868.09 2868 2862.19 2860.02 2858.92 2863.84
2868.98

3188.55 3165.69 3139.01 3114.6 3089.67 3071.38 3060.53 3049.06 3042.88 3036.22
3028.33 3017.19 3024.63 3032.5 3047.59 3051.11 3060.98 3060.4 3042.58 3014.15
2993.18 2984.12 3003.17 3013.8 3042.95 3058.88 3056.51 3057.1 3065.24 3083.51
3096.53 3117.46 3125.54 3112.54 3089.75 3074.08 3059.62 3051.99 3032.05 2997.81
2969.61 2950.98 2936.29 2920.23 2917.95 2921.32 2915.33 2908.68 2899.05 2882.38
2880.07 2880.41 2872.42 2870.19 2867.41 2859.37 2855 2854.98 2854.15 2846.63
2835.45 2834.51 2834.63 2834.88 2835.96 2833.37 2833 2832 2831.95 2830.36
2832.39 2832 2831 2830.29 2829 2828.96 2829.7 2831.61 2841.68 2844.91
2866.82 2864.15 2859.48 2860.21 2860.53 2864.14 2865 2863 2864.67 2865.41
2864.67 2866 2864.98 2867.37 2868.99 2870 2869.82 2870.14 2872 2871.63
2872.82 2872.99 2874.71 2874.26 2875.92 2875.74 2875.39 2876.28 2876.65 2876.64
2876.88 2878 2877.24 2875.74 2873.71 2873.94 2876 2877.42 2877.6 2878.74
2878.88 2876.14 2877 2878 2877.87 2876 2878.96 2877 2875.77 2874.87
2872.82 2872.26 2872.01 2872.77 2871.92 2872 2869.53 2867.76 2868 2867
2865 2864.7 2864 2864 2863.56 2861.95 2860 2860 2856.13 2855.33
2855 2853.77 2852.95 2852.2 2849.96 2846.92 2846.86 2846.09 2844.39 2844.56
2846.02 2846.7 2844 2843.43 2842.6 2843.82 2841.99 2839 2837.01 2837.14
2836 2836 2837.96 2834.29 2828.45 2827.16 2829.87 2834.13 2835.69 2833.31
2833.25 2834.52 2837.48 2836 2836.96 2839.48 2841.65 2843.8 2843.97 2845.34
2845 2845.8 2845.18 2846.17 2847.44 2849 2845.57 2846.65 2846.39 2847.5
2849.8 2848.14 2850 2846.47 2844.7 2848.83 2847.93 2849.3 2848.86 2848
2846.02 2845.42 2848.12 2847.74 2845.18 2845.6 2844.49 2845.04 2844.87 2844.39
2841.58 2839.94 2840.11 2838.23 2836.98 2835.62 2832.72 2838.22 2839.41 2837.99
2840.56 2841.79 2839.73 2842.05 2841.77 2845.65 2848 2851.52 2853.5 2853
2854.25 2857.52 2857.61 2855.02 2860.93 2860.59 2864.24 2863.88 2864.21 2868.34
2870.21 2876.78 2876.5 2874 2873.49 2873.02 2872.66 2874.16 2876.38 2878
2880.05 2881.77 2882.86 2883.39 2886.99 2888.76 2890.09 2888.5 2887.75 2891.9
2892.19 2892 2890.58 2892.9 2893.13 2892.96 2891.45 2892.98 2893.08 2892.11
2889.49 2889.56 2889.11 2890 2890 2885.57 2887.66 2885.71 2884.22 2883.56
2882.02 2878.11 2876 2875.05 2871.9 2870.1 2866.93 2865.3 2861.5 2866.71
2870.02

3191.83 3168.2 3153.87 3131.21 3115.52 3092.88 3075.53 3046.9 3037.44 3026.41
3022.92 3016.55 3011.14 3022.43 3026.5 3036.02 3040.98 3051.16 3035.64 3009.88
2989.37 2977.65 2995.01 3006.27 3022.53 3036.65 3035.7 3034.27 3048.65 3064.54
3084.34 3103.32 3108.24 3095.63 3071.86 3048.67 3034.06 3039.82 3031.22 2996.35
2963.93 2940.06 2925.03 2908.55 2910.86 2904.84 2912.86 2906.34 2897.45 2876.13
2870.74 2869.46 2866.44 2864.16 2864.04 2856.96 2850.58 2849.94 2847.46 2836.29
2837 2836.59 2835.19 2836.97 2837 2835.24 2834.65 2833 2833 2831.09
2831.49 2831 2831 2831 2830 2828.95 2835.91 2848.92 2857.37 2859.03
2865.8 2863.92 2862.08 2864.99 2862.33 2864.65 2865.01 2869 2871.99 2866
2869.96 2867.44 2869.12 2869.01 2869.18 2871.71 2872.06 2874.01 2874 2874.08
2874.18 2876.14 2875.03 2876.23 2878.25 2879.76 2880.85 2879.99 2878.45 2881.04
2880.48 2879.35 2883.71 2878.79 2876.66 2877.02 2877.12 2877.95 2878 2880.11
2880.98 2878.32 2879.95 2883 2880.88 2878.13 2876.72 2878.04 2878 2877.96
2875.76 2875.53 2876 2876 2875.91 2871.98 2871 2869.51 2869.92 2868.68
2866.99 2865.84 2865.15 2866 2864.99 2862 2859.18 2859 2857.55 2858.05
2856.94 2856.99 2855.85 2853 2852.05 2849.52 2849.09 2846.96 2848.97 2850
2848.22 2846.39 2844.94 2845.99 2845.09 2844 2844.14 2840.11 2841 2840.81
2838 2837.99 2836.58 2834.36 2830.99 2831.23 2836.62 2839 2839 2839.11
2837.43 2839.04 2839.45 2841.89 2840.87 2843.47 2846.65 2847.69 2847.01 2847.03
2848.01 2848.81 2849.97 2852.25 2853.04 2855.6 2851.11 2850.91 2851.39 2851.06
2854.58 2854 2853.11 2854.41 2851 2850.98 2853.45 2853.38 2853.49 2852.01
2850.97 2851 2852 2850.85 2849.01 2849.93 2848.59 2847.82 2847.21 2846
2845.92 2844.06 2842 2842.04 2839.48 2837.51 2835.44 2841.65 2840.51 2841.72
2841.92 2844.05 2846.02 2846.69 2847.36 2849.11 2853.23 2855.05 2856.09 2858.85
2858.02 2860.57 2860.98 2859.57 2870.1 2869.18 2868.57 2869.87 2871.97 2876
2875.03 2878.04 2881.74 2880.37 2880.35 2879 2877.87 2878.18 2881 2881.64
2882.88 2885.89 2889.52 2889.81 2890.7 2893.98 2893.07 2893.67 2894.12 2895
2896.98 2896 2895.82 2895.77 2896.15 2896.18 2895 2896 2896.89 2897
2895.06 2894.04 2893.87 2894.16 2893.29 2892 2892.78 2890.01 2888.03 2886.06
2884.07 2882.88 2880.28 2878.39 2876.64 2875.98 2870.97 2869.02 2866.63 2868
2873.59

3192.96 3180.5 3168.79 3151.51 3130.24 3110.67 3082.38 3057.66 3037.13 3026.89
3018.59 3011.78 3003.76 2994.4 3004.09 3008.41 3027.75 3031.01 3026.75 3007.27
2981.58 2967.17 2980.58 2996.38 3013.11 3017 3015.58 3021.1 3035.2 3057.51
3082.05 3100.37 3103.63 3087.78 3058.93 3029.12 3011.07 3019.4 3004.98 2981
2964.04 2942.43 2914.17 2899.41 2893.72 2891.75 2888.7 2890.68 2878.6 2871
2867.96 2865.97 2864 2862.93 2859.91 2854.17 2848.67 2844.79 2841.45 2838
2837 2837 2835 2836.17 2834 2835 2832.44 2832 2832.86 2832
2831.98 2831 2830.26 2831.87 2829.81 2837.62 2857.49 2859.72 2862.95 2868.97
2862.84 2862.15 2866.58 2867 2865.96 2866 2867.87 2869 2870.26 2869.25
2869.62 2870.99 2870.15 2868.68 2871.08 2874 2874.38 2876.18 2877.44 2876.94
2876.83 2878.27 2879.01 2880 2879.1 2882.99 2881.88 2882.99 2882 2885
2883.35 2884 2883.59 2882.05 2879.19 2879.56 2880 2880.25 2882.5 2884.42
2882.42 2881.98 2882.39 2885.9 2883.28 2882.21 2881.15 2880.06 2879.07 2879
2879.29 2879.55 2877.99 2875.96 2875.93 2875.33 2872.58 2872.84 2872 2869.99
2869.26 2868 2868.11 2866.16 2866 2862.35 2861 2862 2861.01 2860.01
2860.6 2859.08 2857.29 2856.98 2854.32 2852 2850.99 2849.23 2850.33 2850.97
2851.09 2848.55 2848 2846.22 2848.9 2847.81 2845 2842.9 2843.36 2841.88
2842.15 2841 2837.06 2836.76 2833.14 2832 2836.68 2840 2842.88 2842.11
2841 2842.36 2843.1 2845.15 2847.01 2848.75 2850 2848.94 2851 2851.19
2853 2854.11 2854.5 2856 2855.71 2859 2858.75 2855.96 2855.01 2856.27
2858.09 2856.99 2857.28 2857 2854.57 2855.07 2857.17 2860 2857.9 2857.11
2855.42 2855.08 2854.21 2855.15 2853.2 2853.06 2852.99 2853 2852.99 2851.49
2848.12 2847.12 2845.25 2845.38 2844.11 2842 2838.95 2842.98 2846.06 2846.1
2845.09 2848.07 2848.29 2848 2849 2849.9 2855.94 2858.01 2860.09 2861.98
2863.24 2863.39 2864.01 2868.49 2873.99 2874.06 2874.99 2875.11 2876.95 2879.33
2879.4 2885.59 2887 2885.1 2884.38 2884.08 2883 2883 2883 2885.07
2886.01 2888.41 2893.11 2895 2895.11 2897.13 2898.23 2899 2896.88 2899.85
2900.13 2902.33 2899.07 2901.65 2902.68 2900.98 2901 2900.1 2900.98 2902.89
2900.04 2899.89 2899.1 2899.19 2898.42 2896.55 2894.76 2894.08 2893.43 2889
2887.28 2887 2885.55 2882.72 2881.87 2877.5 2874.21 2871.66 2869.68 2873.86
2874.24

3178.27 3177.59 3167.45 3148.16 3128.09 3111.04 3090.65 3071.47 3052.49 3038.23
3022.6 3010.49 2999.24 2987.96 2989.4 2989.85 3010 3010.67 3010.66 3004
2978.98 2963.31 2966.49 2991.03 2997.64 3000.26 2996.34 3009.04 3031.47 3054.69
3074.14 3081.3 3081.62 3061.47 3043.32 3022.66 2996.4 2975.1 2965.01 2949.24
2939.2 2933.43 2909.36 2885.54 2880.27 2868.13 2874.4 2874.06 2864.44 2864.19
2862.83 2860.63 2858.32 2855.26 2854.1 2852 2843.02 2838.85 2835.23 2837
2836 2836 2835 2834.73 2834 2832.98 2832.97 2832.98 2832.86 2830.8
2831 2831.65 2832.79 2835.95 2849.81 2859.09 2861.56 2861.83 2864.47 2867.65
2863.53 2864.64 2869 2867.44 2870.71 2871 2871.91 2873.99 2872 2869.95
2870.86 2872.76 2872.91 2871.36 2873.65 2875.61 2877.84 2879 2878.95 2880.59
2878.93 2881 2881 2881.99 2883.37 2883.99 2883.47 2885.27 2887.37 2884.99
2884.22 2883.62 2883.58 2884.93 2883.27 2879.98 2882.24 2883.42 2884 2886.2
2887.07 2884.81 2884 2884.9 2885.86 2884.32 2886.28 2883.7 2884 2881
2881 2880 2878 2880 2878.85 2878 2877.39 2875.9 2872.98 2874
2871.16 2872.02 2872.58 2868.34 2869.3 2867.31 2864.03 2864.03 2863.06 2863.47
2862.28 2863.78 2863.06 2857 2855.42 2854.63 2853.13 2851.33 2852.5 2853
2852.7 2850.9 2850 2850.46 2849.06 2846.84 2845 2845 2845 2842.81
2842.99 2842.21 2839 2839.94 2836 2837.21 2837.99 2840.22 2844.99 2846
2845 2846.76 2846.81 2848.84 2848.01 2853.15 2852.73 2852.83 2857.02 2857.01
2857.39 2860.59 2861.39 2858 2859.39 2859.56 2861.19 2860.74 2858.38 2861.53
2862.97 2862.94 2861.98 2863.4 2859.67 2860.81 2860.95 2861.29 2861.51 2860.23
2859.89 2859.66 2859.25 2860.89 2859 2858 2856.82 2857.05 2857.16 2855.47
2851.2 2852.79 2852.93 2849.14 2848.52 2847.75 2844.7 2844.6 2847.99 2851
2849.08 2850.99 2851.17 2852.63 2852.16 2853 2859.63 2866.35 2867.53 2867
2868 2868 2865.64 2872.86 2878.02 2881.38 2882.59 2883.85 2886.08 2887.31
2888.13 2890.65 2891.01 2892.99 2890.85 2888.93 2888.79 2885.28 2887.42 2889.05
2890.1 2892.99 2897.48 2897.37 2898.66 2900.83 2903 2900.41 2903.28 2902
2904.01 2904.98 2905.63 2905.85 2905.27 2903.6 2906.11 2905.7 2906.82 2905.99
2904.41 2902.07 2902.76 2902.39 2901.75 2900.62 2900.84 2899 2895.95 2896.56
2893.81 2889.93 2889.19 2886.49 2884 2881.06 2879.85 2877.21 2873 2876.71
2881.09

3181.45 3179.33 3156.87 3141.73 3122.93 3107.91 3090.56 3073.86 3052.71 3039.5
3030.55 3022.54 3005.5 2989.09 2974.49 2978.28 2972.73 2991.76 2995.57 2995.14
2974.83 2958.17 2956.96 2974.61 2979.65 2979.64 2986.96 3005.97 3033.39 3048.85
3065.54 3064.62 3052.67 3035.43 3022.58 3011.05 2991.67 2969.87 2935.44 2922.31
2922.98 2915.3 2892.26 2878.17 2860.42 2858.22 2864.43 2860.94 2858.93 2858.59
2856.73 2857.14 2854.75 2850.35 2850 2844.86 2838.58 2837.07 2837 2836.97
2835.94 2836 2835.05 2834.99 2834 2835 2835 2832.99 2831.12 2835.23
2834.22 2838.34 2843.72 2857.79 2860 2862.19 2863.99 2863 2864.41 2868.54
2869.53 2865.01 2869.17 2870.15 2873 2871.99 2869.94 2872.91 2874.31 2874.93
2875.9 2875 2877.96 2876.03 2876.95 2877.96 2877.02 2879.25 2880 2883
2882.11 2882.55 2885.26 2883.27 2886 2886.68 2888.06 2886.6 2888.44 2887.08
2890.71 2888.87 2888.98 2889 2885.05 2882.54 2883.26 2885.95 2886.95 2887
2891 2888.71 2887.98 2887 2885.87 2885.73 2887 2885.73 2884 2884.04
2885.99 2884.99 2881 2881 2880.59 2880 2877.16 2876 2877.97 2877.19
2874.05 2872.68 2874 2869.26 2869.98 2867.42 2866.8 2867.13 2866 2865.95
2865.87 2865.14 2864.75 2859.77 2857.76 2856.91 2856 2856.39 2855 2854.92
2854.74 2852.93 2853 2851.4 2849.91 2848.87 2850.66 2847.84 2846.99 2845
2844 2842.99 2841.03 2839.43 2839.13 2840.42 2843.78 2843.81 2848 2848
2847.49 2848 2850.68 2853.04 2852.89 2855.4 2855.34 2858.93 2858.97 2859.02
2861.52 2863.12 2865.8 2863.83 2864.86 2867.97 2867.92 2867.81 2864 2864.08
2867.99 2868.12 2866.41 2870.4 2866.54 2865.35 2866.18 2865.73 2865.87 2865.94
2864.41 2865.08 2864.79 2863.76 2865.27 2862.41 2861.96 2863.52 2860.98 2858.98
2858.98 2857.67 2856.74 2855.25 2853.09 2852.62 2850.07 2844.65 2848.8 2853
2853 2854.16 2855.54 2856.65 2856.41 2856.46 2863.51 2867.34 2870.94 2871.96
2873.26 2873.37 2874.15 2879.81 2880.97 2883.38 2888.72 2894.86 2898.18 2896.5
2891.97 2897.55 2899.86 2897.97 2896.05 2895.59 2897.38 2894.18 2893.56 2893.53
2894.71 2897 2899.02 2900.12 2902.88 2906.98 2908.17 2905.99 2907.15 2909.23
2909.88 2907.3 2910 2909 2911.09 2911.82 2909.61 2910.64 2912 2910.77
2910.51 2908.5 2907.8 2907.01 2906 2905.6 2904.72 2903.01 2900.96 2900.01
2897.69 2895.02 2894.98 2889.99 2887.68 2886.05 2882.94 2881.06 2878.2 2879.7
2883.99

3176.49 3173.77 3156.75 3134.03 3116.1 3094.09 3077.39 3063.77 3048.3 3040.98
3032.5 3022.49 3006.62 2991.31 2972.56 2964.09 2965.03 2970.32 2975.23 2974.81
2969.13 2950.17 2949.53 2958.34 2957.95 2967.11 2986.21 3016.91 3037.17 3050.97
3053.08 3040.27 3026.24 3011.11 3004.51 2985.1 2993.5 2982.3 2942.54 2906.57
2900.49 2898.31 2877.19 2855.14 2852.44 2849.85 2850.62 2848.71 2854 2853.45
2853.83 2855.17 2851.68 2846.24 2842.06 2838 2836.95 2838 2836.26 2836
2835.98 2834.81 2834.91 2835 2834.47 2835 2835.93 2833.56 2837.3 2839.21
2841.55 2851.77 2861.76 2862.85 2863.27 2862.58 2864.1 2868 2868.16 2869
2870.06 2870.99 2870.08 2872.23 2872.76 2873.02 2874.73 2875.66 2876.98 2877.53
2878.55 2877.12 2880.16 2880.03 2877.99 2877.83 2880.05 2882.63 2884.32 2885.35
2885.82 2883.44 2886 2887 2887 2887.91 2890.16 2890.25 2892 2891.64
2890.29 2888.98 2889.35 2891.04 2889.08 2886.97 2886 2889.96 2890.08 2889.76
2890 2889.31 2887.53 2889.01 2890 2885.62 2888.02 2888.45 2888.79 2887.95
2885.51 2884.99 2882.74 2882.97 2882 2880.04 2880.02 2877 2878.94 2881.12
2881.59 2874.99 2873 2871.73 2869.94 2871.45 2871.05 2872.88 2867.99 2867.05
2866.43 2867.96 2866.15 2864.18 2859.05 2859.09 2857.54 2858 2857.04 2857.08
2856.88 2856.83 2854 2854.28 2851.61 2849.86 2851.5 2851 2848.92 2847.83
2847 2845.5 2843.27 2840.25 2843 2846.22 2845.1 2850.05 2850.79 2852
2853.34 2853.19 2859.84 2859 2858.02 2858.77 2859.86 2862 2862.45 2865.03
2864.61 2866.26 2866.9 2867.79 2870.05 2868.96 2870.13 2869.32 2868.01 2868.16
2873.1 2873.03 2871.53 2871.04 2868.95 2871.95 2871.04 2870.36 2870.12 2871.16
2868.34 2869.08 2868.15 2867.2 2868.31 2866 2865.08 2866 2864.91 2862.33
2863 2861 2860.4 2858.02 2857.07 2855.84 2852.71 2848.18 2851.97 2853.29
2855 2859 2859.35 2860.91 2859.87 2860.15 2865.93 2870.93 2875.66 2877.93
2877.26 2878 2879.7 2881.97 2885.96 2887.54 2895.91 2903.32 2906.9 2904.98
2898.59 2900.89 2903 2902 2899.42 2898.83 2899.01 2898.59 2901.36 2898.06
2898.23 2901.24 2905.3 2905.08 2906.81 2909.83 2911.15 2908.59 2910.13 2913
2912 2912.03 2912.67 2912.11 2913.16 2913.19 2913.02 2914.09 2913.12 2912.31
2914.83 2915 2910.11 2912 2911.01 2909.06 2909.97 2907.24 2905.23 2903.05
2902.8 2900.09 2898.05 2895.35 2892.08 2889.05 2885.19 2884.19 2881.08 2883
2888.22

3148.56 3158.07 3152.58 3129.86 3100.24 3090.1 3074.82 3066.86 3048.12 3029.21
3017.49 3003.35 2997.66 2986.62 2980.37 2970.29 2956.24 2948.11 2948.86 2962.92
2964.34 2944.72 2938.03 2937.54 2953.44 2973.88 2991.71 3021.45 3033.61 3035.8
3024.79 3013.29 3006.32 2986.19 2975.75 2966.32 2984.7 2984.16 2951.91 2904.33
2880.29 2869.81 2857.97 2847.18 2845.98 2843.98 2843.01 2840.85 2844.35 2845.99
2843.75 2842.66 2840.54 2837.9 2838 2837.36 2837.47 2838 2837 2836.98
2836.93 2836.98 2834.56 2834.77 2835.17 2836.74 2838.94 2837.13 2841.27 2851.49
2854.9 2860 2863.75 2864.01 2865.25 2868 2866.97 2868.52 2870 2870.31
2871.53 2871.26 2873.95 2873.99 2875.97 2875.48 2875.49 2876.41 2878.02 2881
2880.66 2879.91 2881.99 2882.96 2881.14 2881.82 2883 2883.33 2884.98 2885.06
2888.56 2888.07 2888.38 2891.29 2890 2889.98 2891.87 2892 2892.43 2893.5
2893.95 2894 2893 2894 2893 2891.18 2888 2889.01 2891 2890.39
2891.12 2894 2893.04 2890.11 2890.93 2890.3 2892 2890.3 2892.88 2889.56
2887.2 2885.55 2885.58 2885 2885.99 2884 2885 2881.68 2879.9 2880.23
2880.44 2876.89 2875 2873.89 2875.26 2874 2873.9 2872.95 2871 2869.51
2867.12 2868 2867.37 2865.08 2862.52 2863.59 2860 2859.95 2860.14 2861.94
2859.65 2857.29 2856.76 2856.99 2856.74 2855 2853.66 2851.69 2850.46 2847.67
2845.16 2847.97 2844.61 2841.63 2848.67 2847.23 2849 2852.86 2855.1 2855.23
2856.21 2858.97 2860.34 2861.07 2863.99 2860.55 2864.14 2864.16 2868 2866.37
2867.76 2870.82 2871.9 2872.25 2874 2874 2874.74 2872.56 2873.24 2874.54
2877.67 2877.73 2875.52 2876.36 2873.51 2875 2874.89 2874.52 2874.78 2874.16
2874.41 2873.59 2872.79 2871.11 2870 2870.18 2870.21 2869.61 2868.02 2868
2865.66 2862.96 2863.93 2863 2861 2858.6 2857.45 2855.38 2853 2856.67
2855.15 2860.99 2862.05 2861.75 2862.88 2862.65 2865.86 2875.38 2879 2881.15
2881.96 2885.47 2887.65 2886.76 2888.15 2894 2898.02 2903.68 2906.87 2906.11
2901.45 2905 2906.07 2905.24 2906.9 2903.34 2903.22 2901.11 2909.81 2905.4
2904.89 2907.11 2909.16 2911.88 2912.02 2915 2913.27 2916.46 2918.61 2916
2916.21 2918.36 2919.57 2919.56 2919.98 2919.23 2918.09 2918.51 2920.01 2916.33
2917.05 2917.58 2916.92 2915.12 2915.1 2913.61 2912.81 2911.57 2911 2907.77
2908 2903.79 2900.13 2897 2895 2894 2889.8 2888.12 2885.06 2887.07
2892.93

3137.14 3160.7 3158.99 3134.31 3106.44 3106.82 3103.2 3085.56 3064.29 3046.49
3025.81 3011.74 3001.54 3005.29 2995.57 2984.5 2968.36 2950.53 2941.55 2942.13
2947.12 2941.76 2927 2933.09 2954.23 2972.05 2992.43 3006.53 3017.42 3005.82
2996.73 2987.55 2977.19 2964.03 2950.89 2941.21 2946.88 2954.62 2935.74 2888.01
2863.03 2854.08 2849.06 2845.41 2844.02 2843.38 2844.98 2845 2841.42 2839.88
2839.56 2839.01 2840 2840 2840 2837.35 2838 2836.42 2839 2835.93
2837 2839.47 2838.39 2838.94 2839.77 2843.95 2843.02 2848.19 2860.12 2863.15
2862.96 2864.08 2865.55 2867.14 2866.98 2870.01 2871 2870.11 2871.91 2871.74
2872.03 2874.06 2876.03 2875.07 2878.05 2878 2878 2878.24 2880.98 2881.04
2883 2882.93 2885.04 2884.93 2883.17 2882.91 2885.87 2886 2887.04 2887.77
2891 2891.13 2892.31 2892.33 2894.46 2894.01 2895 2895.26 2896.34 2897
2895.33 2894.9 2893.47 2895.93 2895.72 2897 2890.39 2890.03 2893.98 2893.4
2894.95 2894.26 2895 2895 2893.74 2892 2893 2892.64 2893.16 2889.14
2890.78 2889 2888.95 2885.98 2886.16 2886.25 2885 2883.95 2884.99 2880.99
2878.94 2878 2877.36 2878.51 2878.53 2878.49 2877.72 2876.99 2874.44 2874.99
2872 2871.55 2868.55 2865.99 2865.99 2864.51 2863.97 2862 2863 2862
2861.89 2860.98 2858.83 2857.88 2856.63 2856 2858 2855.91 2851.6 2853.73
2848.5 2848.8 2846.5 2845.46 2849.12 2852.23 2855.41 2854.77 2856.31 2859.97
2860.01 2861.66 2862.65 2863.95 2864.89 2866.05 2869 2869.83 2872.07 2870.36
2873 2874.9 2879 2875.25 2877.16 2878.63 2878.78 2877.09 2877.93 2878.04
2880.09 2879.89 2882.19 2882.92 2880.69 2879 2880 2879.43 2878.45 2879
2877.99 2875.93 2876.01 2879 2876.33 2874.86 2872.56 2873.9 2874.13 2871.95
2868.09 2869.76 2866.04 2866 2865 2864 2861.82 2861.99 2856.77 2859.39
2860.14 2864.01 2864.6 2867.65 2866.75 2865.57 2869.42 2878.09 2884.91 2885.06
2886.51 2891.81 2895 2893.82 2897.14 2898 2905.01 2908.54 2911 2910.81
2906.63 2909.69 2911 2909.15 2910.85 2908.99 2908.68 2905.93 2912.42 2912.82
2907.62 2910.86 2913.21 2914.44 2915.42 2917.89 2918.74 2918.98 2921.61 2924.91
2925.27 2922.54 2923 2923 2924.12 2923.12 2923 2923.24 2923.88 2923
2923.81 2922 2922 2920.08 2922 2919.25 2917.63 2916.03 2913.89 2913.51
2910.95 2908.71 2904.83 2900.43 2900.51 2896.11 2893.01 2890.03 2887.69 2891.67
2895.94

3142.7 3158.58 3157.07 3134.28 3128.62 3125.52 3114.73 3094.41 3072.76 3051.53
3033.01 3022.8 3016.46 3006.99 2999.96 2990.1 2977.52 2959.38 2938.38 2932.99
2932.93 2928.21 2922.42 2929.57 2944.86 2961.82 2972.69 2986.86 2988.5 2978.43
2968.59 2953.69 2955.23 2939.22 2918.39 2915.86 2912.08 2907.69 2886.51 2858.32
2852.13 2845.99 2842.99 2844.35 2845 2845.14 2844.98 2844.52 2840.36 2839.73
2841 2840 2838.47 2839.72 2840.99 2837.65 2838.54 2841.92 2842.66 2839.02
2834.75 2840.55 2840.01 2841 2842.15 2844.27 2858.16 2861.61 2864 2864.34
2864.69 2866.96 2869.1 2868 2870 2870.03 2874.33 2873.95 2873.15 2875
2876.29 2875.78 2877.9 2879 2880.45 2881.08 2881 2882.06 2883.98 2885.93
2886 2884.84 2885.99 2885.97 2886.54 2886.09 2886 2887.58 2889 2889.99
2891.6 2895.15 2894.07 2895.42 2895.94 2897 2897.95 2898 2899 2901
2898.45 2897 2897.35 2897.28 2896.09 2897.01 2895.72 2895 2895 2895.01
2896.92 2900.24 2898.96 2896 2900.97 2898.85 2894.01 2893.35 2893.98 2893
2891.29 2890.29 2891 2889.92 2889 2887.1 2886.21 2886.09 2884.2 2882.01
2880.66 2880.06 2880.32 2882.14 2882 2879.99 2879 2878.85 2877 2875
2875.06 2872.53 2870.1 2870.01 2868 2865.94 2865 2865.74 2865.43 2865.43
2862.9 2862.92 2860.98 2860.03 2858 2857.93 2858 2856.35 2853.95 2853.2
2852.96 2849.99 2847.22 2853 2853.96 2856.05 2860.95 2858.99 2860.89 2862.3
2864.34 2866.12 2867.79 2868.06 2872.27 2873.99 2873.09 2877.74 2877.98 2878
2879 2878.81 2882 2881.99 2881.65 2885.09 2884.76 2881.37 2883.2 2884.47
2885.75 2884.91 2886.25 2890 2887.96 2882.48 2884.46 2884.99 2883 2882.25
2881.57 2882.44 2882.03 2881.16 2883.24 2881 2879.07 2878.99 2877.1 2876.86
2876.05 2871.9 2873.12 2869.66 2869.05 2868 2866.36 2862.29 2859.71 2860.36
2863.03 2864.99 2866.43 2869.94 2868.2 2871 2874.12 2884.17 2889.06 2892.14
2894 2895.08 2897.03 2896.76 2899.26 2902.31 2905.96 2910.8 2912.87 2913
2911.99 2912 2913 2913.22 2915.47 2913.61 2913.11 2910.3 2911.83 2917.85
2917.64 2917.76 2915.26 2918.06 2920.27 2922.14 2922.16 2924.46 2924.64 2926.13
2927.12 2926.44 2925.08 2927.12 2930 2929 2926.67 2927.93 2928.2 2928.19
2928.31 2926.44 2926.12 2925.15 2924.35 2923.07 2922.77 2922.13 2920.3 2916.01
2914.19 2911.13 2908.16 2906.04 2903.98 2900 2896.35 2894.29 2891.94 2894.06
2897.17

3137.6 3151.73 3156.48 3137.78 3129.97 3127.43 3118.25 3096.16 3076.95 3064.05
3044.09 3036.27 3015.05 3006.4 2992.56 2987.15 2975.4 2960.48 2941.48 2931.32
2924.89 2921.06 2915.75 2918.3 2929.42 2943.77 2956.93 2968.8 2958.97 2955.61
2950.02 2934.1 2920.23 2906.43 2895.89 2889.52 2886.83 2867.17 2854.6 2849.81
2845.99 2844.99 2843.54 2843.64 2843.89 2845.85 2842.46 2840.96 2840 2839.99
2840.79 2841 2839.91 2840.88 2839.99 2837.13 2840.5 2842.58 2844.37 2844.99
2841.3 2843 2842.73 2846.31 2855.98 2860.13 2861.43 2865.26 2865.31 2866
2870 2869 2870 2870.19 2871.27 2873 2874.91 2876.81 2876 2876.32
2878 2880.63 2880.87 2881 2881.39 2882.66 2883.66 2885.58 2886.5 2886.36
2885.92 2886.06 2889 2888.66 2889.47 2889 2890.93 2890.47 2891.33 2892.29
2893.36 2896 2895.46 2897.48 2898 2899.16 2899.99 2899.07 2900.44 2902.98
2901.77 2900.86 2900.32 2901.44 2900.48 2898.75 2900.19 2897.51 2895.73 2897
2897.85 2900.98 2901.39 2897.93 2900.86 2898.08 2894.97 2896 2895 2894.92
2893.99 2891.68 2891 2891.14 2891.17 2891 2889.63 2889 2885.92 2885
2884 2884.73 2885.63 2885 2881.25 2880 2878.97 2880.08 2877.7 2877.27
2877.23 2876.76 2873.19 2871.3 2869.63 2869.91 2867.73 2863.66 2868 2867.45
2866.7 2865 2862.99 2860.99 2859.69 2860.73 2861 2857.57 2856.08 2855.67
2852.62 2849.99 2850.16 2855.77 2857.13 2859.21 2860.05 2864.21 2866.56 2866.93
2869 2868.91 2873.53 2873.83 2875 2875.06 2877.31 2880 2880.5 2882.24
2881.33 2883.71 2885.89 2884.52 2885.29 2889.44 2888.92 2887.5 2886.12 2887.87
2890.6 2890.78 2889.42 2890.21 2890 2888.12 2888.29 2889.76 2889.62 2889.14
2890.28 2888.31 2887.56 2885.28 2886 2883.54 2884.91 2882.81 2882.13 2879.44
2878.66 2877.45 2876.97 2873.9 2873.2 2871.52 2869.09 2868.95 2865.13 2865.42
2866.98 2868.11 2871.91 2872.91 2874.91 2873.93 2877.29 2886.45 2891.73 2898.92
2900.28 2900.69 2901.65 2901 2906.74 2911.34 2907.25 2910.48 2914.54 2913.36
2912.38 2909.95 2914.01 2919.6 2920.71 2919.53 2918.84 2918.33 2919 2919.35
2923.09 2925 2922.01 2923.02 2922.74 2924.9 2927.5 2927.19 2928.69 2931.87
2930 2930 2929.54 2932.01 2932.97 2933.2 2931.59 2932.01 2932.8 2933
2932.4 2931.53 2931.79 2930.33 2929.4 2929.55 2926.84 2926.85 2924.46 2920.51
2918.37 2916.47 2913.78 2909.41 2906.62 2903.99 2901.11 2898.23 2893.85 2895.96
2900.03

3116.12 3151.24 3156.29 3139.93 3125.29 3115.45 3113.7 3099.94 3083.31 3073.78
3064.21 3046.52 3023.74 3005.05 2991.59 2979.98 2966.36 2957.92 2959.31 2949.2
2930.54 2916.19 2908.99 2908.29 2916.94 2928.47 2945.33 2948.25 2938.9 2935.81
2918.84 2909.17 2902.63 2885.91 2872.73 2865.11 2862.63 2854.39 2849.42 2846
2845.89 2844.9 2845.94 2845.03 2845 2840.81 2843.76 2841.99 2841 2841
2841 2841.01 2840.99 2841 2840.47 2841.17 2845.43 2843.05 2844.8 2844.05
2844.55 2845.98 2856.67 2861.2 2863.99 2864.41 2866.03 2866.15 2867.13 2869
2871.04 2871.06 2872.09 2873.04 2873 2874 2876.61 2877 2877.93 2880.95
2880.56 2882.1 2882.13 2884.23 2884.96 2885.02 2886.5 2887.96 2887.75 2887.04
2889.94 2891.1 2891.17 2892 2894 2892.25 2891.14 2892.31 2892.47 2894.18
2895.86 2897.96 2898.99 2900.06 2901.55 2900.86 2902.98 2902.96 2905 2902.8
2904 2904.06 2904 2902.28 2902.58 2902.92 2902.22 2902.3 2898.88 2899.96
2898.98 2901.3 2902.54 2902.62 2901 2900.57 2901.35 2897.52 2897.11 2896
2896 2894.73 2890.05 2896 2895.7 2892.01 2893.99 2889.53 2889.06 2886.23
2889.24 2888.51 2887.88 2887 2885.98 2883.06 2881.97 2883.82 2882 2879.14
2878 2878 2874.37 2871.99 2871.04 2872 2872.11 2868.05 2870.83 2869.02
2868.77 2866.66 2863.52 2864.98 2861.07 2861.84 2861 2859.96 2859.98 2858.84
2854.99 2852.02 2852.95 2858.11 2860.96 2862.64 2865.33 2866.87 2868.75 2870
2871.32 2871.23 2875.36 2877 2877.1 2878.32 2880.63 2884.23 2884.56 2885.02
2887.13 2888.9 2888.05 2891 2891.05 2892.66 2893 2890.75 2893 2894.02
2894.76 2895.03 2896 2895.35 2894.57 2892.01 2892.12 2893.3 2890.94 2892.05
2894 2893 2891 2891.94 2888.02 2889.47 2886.52 2886.85 2886 2886
2884.94 2884.52 2882.68 2879.82 2878.5 2880.57 2875.89 2872.17 2871 2868.65
2871.8 2873.01 2873.04 2875.74 2880 2876.98 2881.69 2889.05 2894.8 2903.45
2905 2906.48 2905.52 2904.69 2908.49 2914.04 2912.82 2911.58 2916.96 2917.26
2915.91 2914.77 2916.08 2923 2924.99 2923.6 2922.81 2922.34 2926.63 2924.42
2928.9 2934 2930.89 2925.4 2927.59 2930.68 2932.02 2933.96 2932.6 2933
2936.71 2936.25 2937 2936.76 2937.16 2937.4 2937.39 2936.89 2936 2936.78
2936.45 2933.69 2935.84 2934.23 2934.2 2930.93 2930.2 2929.84 2926.81 2924.51
2920.72 2918.92 2916.82 2911.03 2909 2907.75 2905 2899.98 2899.06 2899.82
2903.95

3114.54 3131.79 3130.93 3133.97 3128.26 3106.72 3110.74 3103.04 3098.72 3091.77
3083.37 3059.41 3033.84 3015.27 3003.46 2990.75 2976.78 2964.41 2958.65 2949.52
2933.41 2918.6 2910.82 2902.06 2898.92 2912.7 2924.19 2930.41 2919.78 2912.03
2904.53 2891.21 2882.7 2863.85 2857.48 2854.07 2853.85 2849.48 2846.08 2845
2846.02 2844.62 2846.99 2845.03 2845 2840 2842 2841 2841.9 2841.27
2842 2842 2839.74 2841.09 2850.42 2857.25 2856.36 2858.66 2860.87 2859.13
2858.6 2859.53 2862.61 2866.56 2868.68 2866.21 2867.06 2867.89 2869.95 2872.58
2872.96 2874 2873.01 2875.15 2877 2877 2878.45 2879.13 2879.16 2882.35
2883 2885.87 2883.64 2885 2887 2888 2888.11 2888.91 2887.98 2891.52
2891.72 2893.12 2895.99 2896.99 2898.48 2895.59 2895 2895.09 2895.05 2897.65
2897.07 2899.63 2901.59 2902.57 2903.83 2903.63 2906 2905.37 2907.43 2906.03
2907.31 2906.98 2906.89 2905 2905 2906 2905.47 2904.37 2902 2902
2902.13 2906 2907.68 2909.92 2903.92 2900 2903.96 2902.05 2899.82 2897
2897 2897.05 2895.52 2899.95 2897.44 2892.97 2893.54 2892.14 2889.9 2890.59
2893.28 2891.99 2890.11 2888.98 2887 2885.41 2887 2885.11 2884 2882.54
2879.31 2880.7 2876.96 2873.02 2874.53 2876 2874 2870.69 2873.04 2873.95
2870.91 2868.15 2868.15 2865.06 2865.41 2864 2861.96 2860.55 2862 2860.66
2859.71 2855 2859.94 2864.76 2864.14 2865.61 2868.03 2868.28 2873.11 2875.01
2876 2877.55 2880.1 2879.3 2882.18 2884.51 2886.47 2886.92 2889.3 2892.27
2888.76 2892.7 2895.92 2895.99 2894.39 2898.05 2898.77 2897.95 2894.2 2900
2899.68 2900.98 2900.15 2900 2899 2897.08 2897.56 2899.27 2897.13 2896
2895.44 2894.32 2895.1 2895.12 2892.89 2893.93 2890.91 2891.1 2888.93 2887.43
2886.51 2886.13 2885.01 2883.04 2882.06 2881 2878.15 2876.21 2875.05 2875.1
2874.18 2875.11 2876.97 2878 2881.88 2879.38 2886.47 2898.59 2900.93 2906.04
2909.98 2908.8 2908 2909 2908.69 2916 2914.7 2915.71 2922 2921.98
2922.43 2921.54 2922.32 2921.86 2926.91 2928.07 2928.43 2931.16 2932.25 2932.04
2930.91 2935.09 2935.2 2930.06 2932 2933.54 2934 2935.45 2938.35 2938.11
2941 2940.38 2940.08 2940 2941.98 2941.02 2941.05 2940.11 2941.71 2941.98
2941.36 2940.09 2938.95 2940 2939.05 2938.54 2936.62 2932.96 2932.23 2929.41
2926.69 2924.13 2921.24 2918.35 2914.09 2912.88 2909.21 2905.29 2903 2902.57
2909.18

3100.61 3106.06 3107.72 3126.19 3123.18 3098.68 3102.69 3111.67 3115 3112.5
3095.26 3070.95 3046.91 3029.24 3008.13 2990.32 2975.27 2959.77 2946.21 2940.52
2937.48 2936.49 2919.68 2905.52 2894.78 2896.42 2904.38 2912.66 2908.5 2904.97
2890.2 2870 2861.56 2858.93 2855.35 2854 2850.99 2850.66 2846 2846.39
2848.98 2846.69 2846.56 2844.65 2843.95 2841.2 2843 2844 2843 2842
2841.04 2840.98 2841 2847.57 2858.93 2859.17 2860.04 2861 2862.76 2864.11
2864.3 2866.47 2867.84 2868.98 2871 2868.47 2871.51 2870.58 2871.92 2873
2873.99 2876.94 2876.31 2878.09 2877.27 2879.31 2880 2883.17 2883.97 2884.03
2885.47 2885.08 2885.95 2888.99 2888.4 2890.99 2890.99 2892.89 2891.25 2893.01
2895 2895 2895.66 2897.32 2899 2896.71 2898.13 2897.99 2896.99 2900
2899.89 2900.84 2901.99 2903.42 2906.96 2905.99 2907 2908.2 2909.43 2910
2907.46 2909.15 2907.34 2907.93 2909.64 2907.88 2908 2908 2905.4 2905.66
2904.98 2905.03 2907.02 2906.97 2907.85 2901.11 2902.01 2904.91 2903.9 2899
2900.44 2899.75 2897.78 2898 2897.26 2895.1 2894.99 2893 2893.89 2893.25
2895.37 2893 2891.96 2889.94 2889.14 2890.46 2890.68 2888.76 2886 2885.39
2885 2881 2879 2877.28 2879 2878.05 2876 2874.11 2874.06 2872.64
2873.65 2869 2870.29 2870.62 2868.35 2868.73 2865.1 2865.76 2863.99 2861.36
2857.92 2858.29 2863.46 2866.14 2870.14 2872.21 2872.44 2875 2877.89 2878.93
2879.33 2881 2882.76 2884.11 2885.99 2887.39 2888.97 2890.69 2892.91 2894.03
2895.37 2897.4 2898.81 2897.25 2898.43 2901.51 2902.37 2903.04 2898.45 2903.55
2903.82 2906.93 2905.98 2906.65 2904.05 2901.88 2901.54 2900 2901 2900.21
2902.23 2899.45 2900.63 2898.72 2900.8 2899.12 2897 2896.93 2894.66 2895.42
2891.75 2891.53 2889.36 2886.32 2885.63 2886.41 2882 2878.78 2877.02 2877.91
2881.87 2879.04 2880 2880.92 2885.88 2883.98 2889.01 2903.94 2907.11 2907.13
2912 2910.03 2907.46 2910.75 2911 2920.39 2918.99 2919 2922.69 2924.69
2927.68 2927.72 2928.78 2926.3 2929.8 2933 2932.56 2936.08 2939.16 2939.47
2932 2936.3 2937.31 2936.93 2934.9 2936.9 2939.25 2942 2941 2942.02
2945.77 2943.96 2945.55 2945.57 2946.84 2946.03 2945.44 2944 2945.02 2948.06
2948.37 2945.1 2945.87 2942.93 2944.01 2942.11 2940.79 2939.17 2936.22 2933.53
2931.94 2928.31 2927.18 2920.7 2918.38 2913.97 2911.99 2909.03 2910.45 2924.04
2929.59

3088.3 3081.36 3094.05 3116.01 3111.22 3080.42 3100.56 3108.88 3120.04 3118.57
3107.61 3082.99 3056.94 3039.24 3023.98 3006.21 2993.8 2970.49 2950.63 2952.41
2952.99 2939.51 2921.29 2912.17 2898.69 2887.95 2892.49 2906.47 2897.76 2884.16
2875.81 2862.89 2860.14 2856.93 2855.09 2853.48 2849.01 2849.6 2848.92 2849.8
2849 2848.92 2847 2844.92 2844.57 2843 2842.89 2843 2842 2841.86
2842.01 2843 2844.39 2857.95 2859 2861.16 2863 2863.08 2865.42 2866.96
2869 2868.4 2869 2871.36 2872.44 2871 2872.26 2873.07 2874.02 2875.33
2876.05 2877.57 2879.93 2880.54 2882 2880 2883 2884.12 2885 2886.64
2888 2887.97 2888.68 2890.97 2890.99 2891 2892.83 2896.87 2894.18 2896.39
2896.09 2897 2898.06 2901.12 2901.47 2898.99 2900.86 2899.53 2900.02 2900.7
2902.29 2903.95 2903.13 2904.24 2906.95 2907.71 2909.95 2910 2912.99 2912.99
2911.02 2912 2911.18 2911.45 2910.01 2911 2910.95 2910.03 2908.55 2907.03
2905.99 2906.13 2910.44 2909.31 2908.43 2905.4 2903 2904.92 2903.9 2902.95
2902.77 2902.97 2900.66 2898.83 2898.95 2898.01 2897.29 2894.18 2898.02 2897.98
2896.97 2897 2896.78 2896.75 2891.35 2893 2892 2889.08 2887.97 2887.32
2884.99 2884 2883.35 2880.01 2880.22 2878.92 2877.88 2874.44 2874.2 2875.03
2874.21 2873.53 2873 2873.96 2869 2870 2867.27 2868 2864.86 2862.45
2860.99 2860.05 2865.82 2866.99 2872.87 2874.95 2875.35 2879.51 2882.63 2882.79
2885.31 2885.53 2889.82 2891 2889.14 2893.71 2893.99 2893.12 2896.87 2898
2900.5 2900.31 2903.92 2903.11 2902.79 2907.63 2908.28 2910 2906.89 2907.17
2909.62 2908.04 2910.02 2911.37 2907.05 2905.63 2905.01 2908.24 2905.72 2906.31
2908.09 2903.94 2905.66 2905.83 2904.28 2903.74 2900.61 2900.01 2898.09 2897.53
2896.93 2894.77 2893.05 2893 2892.43 2889.48 2885.78 2885 2883.89 2881.58
2888.73 2888.04 2886.57 2883.81 2885.94 2887.12 2891.99 2904.03 2907.37 2911.64
2914.99 2914.14 2918.24 2918.95 2916.2 2923.49 2921.58 2924.58 2926.01 2931.15
2929.72 2933.71 2934.05 2935.14 2934.14 2939.7 2942.94 2946 2944.26 2940.55
2937 2940.12 2941.87 2938.43 2939.81 2941.02 2940.9 2945.93 2943.61 2947.67
2948 2949.04 2950.41 2952.71 2950.22 2951.03 2949.49 2948.69 2952.96 2952.01
2953.45 2951.14 2950.82 2950 2949.17 2947.58 2944.95 2943.95 2941.73 2937.69
2934.93 2932.61 2929 2926 2920.51 2919.99 2920.13 2925.38 2945.96 2952.51
2938.25

3072.05 3072.36 3092.26 3098.95 3084.01 3073.66 3076.21 3089.84 3110.61 3125.96
3122.99 3094.21 3075.55 3052.31 3033.07 3021.46 2994.75 2975.46 2968.71 2961.33
2952.37 2937.86 2921.58 2911.62 2899.77 2890.87 2879.41 2882.77 2877.01 2870.2
2865.23 2861.19 2861.46 2857 2853.68 2849.12 2851.79 2847.69 2849 2846.56
2848.22 2845.77 2844.32 2845.67 2844.89 2842.97 2842.08 2843 2843.9 2842.78
2842.01 2843.46 2853.44 2861 2863 2863 2865.69 2865 2866.68 2867.1
2868.81 2871 2870.09 2871.13 2873.17 2875.31 2874.31 2875.01 2876 2878.98
2878.58 2880 2883.02 2883.16 2884 2884.35 2884 2886.13 2889 2888.45
2888 2892 2891.14 2893.21 2891.4 2894.08 2895 2897.99 2898.49 2900
2900 2901.5 2902 2904.29 2904 2901 2902 2903 2903.44 2905.34
2905.11 2906.98 2907 2908 2910 2911.11 2911.02 2913 2913.01 2913.92
2914.11 2913.14 2914.99 2913.15 2912.36 2912.98 2911.41 2912.04 2911.49 2908.36
2909 2907.34 2912 2910 2909.08 2910 2903 2906 2905.9 2907.16
2906.79 2904.03 2904.99 2901.97 2900 2899.2 2899.03 2898.1 2899.15 2900
2899.77 2901.38 2898.99 2897 2895.99 2894.06 2893.73 2892.13 2892 2889.73
2885.24 2885.99 2884.09 2884.01 2882 2881.09 2878.62 2879.18 2879.65 2878.07
2876.97 2875.14 2874 2871.81 2872.08 2871 2869 2869.04 2868.35 2865.68
2862 2866.24 2872.87 2873.68 2877 2877.52 2878.35 2881 2883.59 2885.15
2888.03 2890.37 2891.78 2894.37 2893.53 2896.04 2898 2899.12 2901.97 2906.97
2906.56 2905.79 2907.21 2907.98 2908.27 2911.08 2911 2911.88 2911 2909.44
2912.93 2914.12 2914.01 2915 2912.45 2911.78 2911.65 2912.06 2912.18 2914
2912 2908.73 2908.11 2908.2 2908.81 2907.84 2905.46 2904.13 2903.25 2902.69
2899.45 2899.05 2898.15 2895.25 2893.45 2893.08 2892.92 2889.06 2885.87 2886.19
2893.5 2894 2892.41 2887.59 2889.37 2891.59 2892.7 2907.76 2912.58 2915
2916.18 2918.81 2921.09 2919.99 2917.7 2924.49 2929.94 2929 2929.05 2934.01
2936.53 2938.69 2941.95 2946.22 2946 2941.84 2948.58 2950.11 2949.39 2946.47
2940.5 2944 2946 2947.93 2943.76 2945.14 2947.23 2949 2949 2952.95
2954.98 2952.01 2954.07 2953.3 2955.01 2955.27 2955.07 2954.45 2955.26 2955.36
2957.47 2954.26 2954.11 2954.79 2953.53 2953.07 2952.02 2948.12 2946.2 2941.38
2939.52 2937.93 2932.96 2930 2925.07 2929.01 2946.75 2965.95 2966.94 2957.03
2960.46

3048.54 3066.66 3084.51 3086.56 3076.04 3056.82 3067.36 3095.73 3108.57 3123.79
3124.17 3113.3 3093.71 3066.62 3043.64 3022.36 3000.9 2987.48 2974.29 2963.96
2950.54 2930.06 2914.28 2902.42 2896.73 2890.1 2877.07 2873.9 2871.78 2868.58
2864.98 2862 2860.37 2856.93 2853.62 2850 2850.14 2851 2850.78 2849.19
2851.91 2849.52 2845 2844.28 2845 2842.91 2844 2843 2842 2844
2842.01 2846.09 2865.53 2863.4 2863.92 2866.07 2866.07 2865.87 2868 2868.98
2869 2870.44 2872.65 2873.96 2875.16 2876 2876.99 2877.59 2878.59 2878.54
2880 2881.27 2884.45 2885.37 2886.01 2886.99 2885.62 2888.8 2888.99 2890
2892.31 2893.98 2892.89 2894 2895.18 2895.57 2896.18 2899.01 2900.27 2901.45
2901.64 2902.79 2903.92 2904.98 2904.43 2904 2905.89 2905.17 2906.41 2905.92
2909 2909.64 2911.26 2909.29 2912.04 2913.98 2913.79 2913.98 2915.97 2916.85
2917.69 2917 2916.55 2916.15 2916 2914.52 2915.21 2916.19 2915.49 2909.38
2909 2910 2913 2912 2911.63 2910.07 2907.3 2908 2909.58 2907.96
2908.19 2907.5 2905.01 2905.88 2902 2901.98 2903.5 2902.75 2903 2900.57
2903.71 2901.95 2899 2898.96 2898 2895.57 2895.6 2893 2891.15 2890.49
2890 2886 2887.85 2885 2884.94 2883.06 2880.96 2881 2882 2880
2878.89 2876.99 2876.17 2874 2873 2873 2872.17 2870.5 2869 2867.29
2865.42 2870.71 2875.36 2876.99 2879.9 2881.15 2883.85 2885.88 2887.28 2888.86
2891.3 2894.07 2896.61 2897 2896.22 2899.92 2900.11 2903.76 2909.77 2906.97
2909 2910.04 2911.61 2913.19 2913 2914.56 2915.92 2914.9 2912.31 2914.55
2918.11 2919.94 2919.97 2918.36 2915.24 2915.21 2919.7 2916.46 2914.73 2915
2914.93 2914.96 2914.61 2910.89 2911.24 2910.46 2909.98 2907.01 2910 2906.69
2904.37 2902.58 2903 2901.26 2900 2896.3 2894.79 2892.55 2889.68 2891.04
2897.99 2900.19 2899.01 2893.15 2894.81 2896 2896 2908.96 2916.2 2920.96
2921.02 2923.97 2923 2923.68 2925.97 2924.68 2929.94 2929.01 2932.84 2935.09
2940.83 2946.49 2952.83 2955.1 2952.47 2953.49 2950.42 2955 2954 2949.99
2945.87 2948.62 2951.17 2949.75 2949.7 2949.13 2951 2953.54 2954.36 2958
2958.19 2959.11 2958.52 2957.78 2959.95 2960.28 2959.59 2961.1 2963.03 2963.18
2961.35 2960.74 2959.97 2960.02 2957.31 2956.53 2956.76 2953.23 2950.31 2946.52
2944.14 2939.17 2936.04 2934.42 2940.42 2963.44 2975.05 2976.86 2971.06 2963.27
2976.42

3045.16 3055.1 3059.54 3060.88 3060.67 3047.85 3064.93 3084.13 3101.38 3116.43
3118.38 3115 3102.33 3084.2 3056.25 3028.51 3005.18 2986.52 2973.59 2963.79
2952.49 2929.16 2909.18 2896.06 2887.35 2883.16 2873.95 2873.76 2870.03 2869.11
2860.35 2860.02 2860.97 2855.94 2851.5 2847.09 2850.37 2851 2849.4 2848
2847.98 2848.99 2845.99 2845.16 2845.38 2844 2844.33 2841.79 2843 2842
2845 2858.37 2866 2867 2866.9 2867.02 2869 2869.65 2869.93 2871.71
2873.29 2874 2874.01 2877.46 2880 2879.22 2879.57 2881 2881.91 2884.3
2884.27 2884 2886.92 2888 2887.79 2888.99 2887.66 2891.94 2892.12 2892.41
2893.01 2895.05 2896.87 2898.1 2897.04 2898.09 2899.67 2901.94 2903 2904
2905.85 2904.95 2906.08 2906.63 2906.67 2907.1 2907.36 2908 2908 2908.46
2911.1 2912.13 2912.91 2912.66 2913.16 2914.7 2915 2915.36 2920.99 2918.71
2918 2916.96 2917 2919.04 2918.72 2919.98 2918.8 2918 2918.99 2914.56
2912.99 2912.67 2917 2915.67 2912 2911.05 2911.37 2911.59 2910.29 2911
2908.99 2908.16 2908 2905.4 2904.6 2906.34 2905.5 2905 2903.44 2904.03
2906 2901.08 2900.75 2903.09 2898.95 2897.16 2895.84 2894.9 2895 2893.24
2892 2889.94 2889.93 2886.36 2887.95 2884.25 2883.8 2882.1 2884.37 2883.63
2881.39 2880.96 2880.16 2876.17 2876.99 2873.48 2875 2873.52 2871 2870.4
2871.96 2873.31 2878.2 2881.2 2882.98 2884.09 2887.3 2889 2893.74 2892.09
2896.26 2898.02 2899.11 2901.82 2901.89 2904.05 2905.69 2907.4 2910 2909
2911.29 2915 2915.93 2916.24 2918.44 2918.51 2921.95 2920.46 2919.03 2919.05
2922 2923 2922 2921.19 2919.97 2921.11 2920.66 2921.99 2920.99 2919.01
2919.22 2917.91 2917.87 2916.99 2917.2 2915 2913.95 2913.95 2913.4 2913.01
2911.11 2906.76 2906.98 2904.01 2904 2899.6 2897.09 2898.01 2894.72 2893
2900.99 2904.18 2908.34 2904.6 2897.05 2899.17 2901.09 2908 2917.78 2922.72
2925.01 2927.33 2927.07 2930.52 2930.05 2928.04 2932.68 2934.72 2938.54 2941.59
2943.04 2953.84 2959.81 2956.97 2954 2954.56 2952.51 2954 2955 2955.32
2949.76 2954.15 2954.55 2955.49 2955.63 2955.1 2954.02 2958 2959.59 2960.72
2962.02 2963 2962.57 2962.95 2964.96 2964.84 2964.43 2966.67 2967.72 2967.96
2965.41 2965.75 2965.98 2963.95 2962.28 2961.99 2959 2957.36 2954.66 2950.97
2947.62 2942.86 2941.01 2947.57 2966.68 2980.91 2986.99 2984.82 2984.03 2979.31
2984.09

3040.11 3040.4 3058.98 3053.93 3038.02 3041.97 3051.67 3075.21 3090.3 3100.3
3103.8 3108.9 3107.95 3086.86 3062.43 3035.42 3003.32 2980.84 2971.63 2962.46
2950.24 2927.14 2910.83 2894.55 2874.64 2873.11 2871.1 2867 2865.81 2864.51
2859.92 2857.36 2855.72 2852.94 2851 2850.54 2850.99 2849.63 2849 2846.29
2847.96 2847.93 2847 2845.04 2846 2844.97 2846 2843.07 2844.09 2845.59
2860.93 2866.38 2866.59 2867.65 2868.05 2869.16 2870 2873 2873.99 2873
2873.64 2877.33 2876.59 2879.12 2880.96 2880.09 2882 2883 2883.98 2884.2
2884.96 2886.58 2886.97 2889.05 2890 2892.25 2893.02 2894.69 2895 2895.98
2896.98 2896.91 2899.13 2900.72 2899.06 2900 2901.23 2903.81 2904 2904
2906 2906.42 2906.91 2906.37 2909.64 2910.97 2910.3 2911.14 2909.31 2912.2
2915 2914.1 2915 2918 2916.94 2917.09 2917.12 2917.99 2920.93 2920
2921.12 2922.7 2921.98 2919.81 2921.07 2921.9 2921.01 2922.01 2920.02 2915.69
2915.15 2914.42 2916.97 2919.72 2917.33 2914.39 2912.12 2914 2912.63 2912
2909.58 2907.66 2909.09 2910 2910.16 2910.17 2909 2907.61 2907.12 2906.13
2905.62 2904.83 2904 2904 2901.99 2900.04 2898.89 2898.13 2897.95 2895.04
2893.21 2892.58 2891.99 2889.07 2886.02 2884.31 2884.83 2887 2886.53 2886.46
2882.9 2883.14 2882 2880.99 2878.55 2877.84 2876.68 2873.99 2871 2872
2874.16 2880.21 2881.94 2882.98 2888 2889.05 2893.04 2893.01 2894.12 2898.63
2898.18 2902.55 2904.72 2905.51 2908.57 2908.56 2912.27 2912.85 2913.06 2916
2915.71 2918.87 2919.48 2920.22 2923 2923.61 2926 2926 2923.3 2925.42
2924.83 2927.15 2928.99 2926.35 2925.56 2924.82 2927.75 2927.95 2923.05 2923.32
2924.58 2922.37 2926.84 2926.65 2922.25 2919 2918.99 2917.03 2916.24 2917.32
2915.07 2912.51 2909.16 2908.32 2907.49 2904.63 2902.13 2900.01 2898.38 2898.98
2910.61 2914.2 2913.43 2914.06 2907.94 2904.59 2904.75 2905.88 2921.61 2925.15
2929.01 2930.34 2932.24 2934.01 2935.52 2935.4 2935.32 2940.98 2941.23 2951.31
2950.06 2954.48 2957.2 2957.62 2956.87 2957 2956.03 2959.09 2960.31 2959.36
2955.05 2956.77 2960.24 2958.45 2960.09 2958.86 2960.43 2962.44 2962.51 2966.59
2967.98 2967.41 2968.93 2969.11 2969.13 2968.34 2969.06 2970.28 2972.13 2972.22
2972.96 2971.01 2968.63 2967.19 2967.42 2966.08 2964.58 2961.14 2958.19 2955.05
2952.51 2948.02 2954.33 2968.4 2975.38 2987.6 2990.29 2991.4 2994.25 2990.92
2990.47

3026.86 3036.13 3043 3044.14 3028.8 3030.8 3043.21 3069.09 3082.1 3084.79
3094.68 3101.63 3094.85 3076.14 3048.77 3030.78 3000.82 2977.66 2964.88 2958.33
2940.18 2919.58 2902.72 2888.07 2871.92 2867.18 2865.84 2865.33 2865 2863.99
2860.9 2855.09 2853 2852.48 2851.98 2851.47 2851 2849.81 2848.58 2848.71
2846.69 2848 2847.63 2843.64 2844.89 2847 2845.06 2845.5 2848.33 2860.68
2868 2867.89 2871 2870.22 2871 2870.45 2872.32 2872.85 2874 2875
2876.37 2880 2880.09 2881 2882.99 2882.31 2883.03 2884.96 2886.99 2886.82
2887.69 2889.87 2890.9 2892.6 2893 2893.44 2894.61 2894.91 2899.06 2897.57
2897.95 2898.66 2901.9 2901.01 2901.38 2903.13 2903.05 2905.92 2905.18 2904.13
2907.62 2907.69 2911.23 2910 2909.94 2912 2912.85 2914 2913.37 2912.54
2915.71 2916.8 2917.31 2918 2918.59 2920 2920.52 2921.19 2922 2922.5
2923.78 2924.14 2923.13 2924.4 2923.6 2924.09 2922.5 2923 2922.5 2917.31
2917 2918 2918.35 2922 2920.98 2915.69 2915.96 2915.98 2914 2913
2912.15 2911.43 2912.6 2910.63 2912 2911.33 2911.59 2911.25 2909.14 2909.01
2905.52 2905.01 2906 2905.25 2905 2903.36 2901.56 2901.74 2899 2897
2895.47 2892.06 2891.93 2890.79 2889.39 2888 2889.78 2887.17 2888.05 2889
2885.01 2884 2883.01 2881 2879.01 2880 2880.69 2875.43 2874.57 2874.96
2879.62 2883.29 2886.03 2886.66 2889.85 2891.16 2893.96 2897.99 2898.88 2902.37
2903 2904.55 2906.77 2909.86 2911.38 2913.44 2913.31 2916.9 2920.13 2921.36
2922.48 2924 2925.06 2925.19 2926.95 2927.67 2929.89 2928.89 2930.34 2929.37
2931 2932.08 2932.16 2933.42 2932.02 2929.51 2931.89 2930.31 2930.97 2930.72
2929.38 2927.24 2928.88 2928 2925.23 2923.44 2923.6 2921.69 2922.11 2920
2918.9 2915.82 2916 2913.99 2911.1 2907.5 2905.2 2903.24 2901.05 2903.97
2915 2919.2 2921.73 2921.63 2913.42 2905.32 2908.32 2909.04 2921.56 2928
2929.19 2932.08 2936.63 2937.87 2935.09 2938.3 2936.67 2945 2952.01 2953.89
2959 2954.93 2955.84 2958.87 2960.89 2959.68 2961.07 2961.96 2964 2964.04
2958.86 2959.67 2962.71 2963.33 2966.77 2965.13 2964.11 2967.02 2968.09 2969
2970.19 2970.72 2970.99 2972.87 2972.65 2974.4 2975.62 2976.06 2977.56 2976.27
2977.46 2975.61 2974.91 2972.82 2973.29 2971.53 2968.61 2965.84 2963.24 2959.99
2958.49 2963.88 2974.72 2972.07 2988.13 2995.47 3002.8 3007.2 3007.53 3004.24
3001.24

3013.91 3029.04 3035.38 3037.72 3020.85 3028.69 3049.08 3061.55 3060.97 3077.57
3088.17 3092.59 3079.75 3060.99 3032.83 3015.32 2996.67 2976.63 2961.83 2945.65
2927.06 2908.63 2891.23 2877.56 2866 2862.68 2864 2865.93 2864.99 2862.77
2857.25 2855.81 2853.01 2853.98 2851.03 2851.12 2850 2848.98 2848.92 2848.97
2846.53 2847.02 2847 2845.95 2845 2846.84 2845.38 2845.51 2858.28 2867.16
2870 2871 2871.12 2872.04 2872.01 2871.03 2874 2876 2877.72 2878.86
2878.93 2880 2882 2882.11 2884.09 2882.99 2884.56 2885.25 2889 2889.46
2890 2891.99 2893 2894.28 2895 2895.95 2896.33 2900 2899.94 2899.44
2900.29 2903 2903 2903 2906 2904.71 2907.74 2907.79 2907.07 2908
2909.01 2910.9 2912 2913.02 2913.78 2914 2916.14 2917 2916.99 2915.92
2917 2919.09 2919.14 2919.62 2921 2922.72 2924.01 2923.29 2924 2925.94
2928 2926.13 2926.51 2926 2925.86 2927 2926.94 2925 2925.06 2919.34
2918.06 2918.17 2921.45 2922 2919 2920.04 2917.98 2918 2918 2916.84
2915 2914.34 2913.99 2914.41 2915 2913.98 2913.9 2911.62 2913.97 2910.15
2911.02 2909.59 2907 2907.14 2906.78 2906 2904.38 2904 2901.18 2900
2896.55 2898 2895.85 2895.21 2892.3 2889.54 2891 2892.9 2891.27 2890.55
2889.61 2884.98 2886 2884 2882.59 2881.04 2881.92 2877.83 2874.69 2879.82
2883 2886.58 2888.42 2889.99 2894.02 2895.21 2897 2900 2903.09 2905.18
2907.35 2909.14 2911.65 2913 2916.21 2917.06 2919.58 2919.97 2923 2923.03
2926.02 2929.69 2928.8 2929.99 2930.41 2932.03 2933 2934.59 2935.23 2932.28
2934 2935.24 2937.16 2937.42 2936.06 2935.21 2936.89 2935 2934.67 2933
2934.99 2932.63 2932.94 2932.98 2932.27 2928.52 2925.71 2926 2926.14 2925.1
2921.16 2919.86 2918.94 2916.47 2914.52 2913 2911 2907.61 2906.8 2908.33
2916.09 2925.01 2925.04 2922.79 2921.41 2910.56 2911.31 2911.5 2916.51 2932.88
2935.99 2937.36 2941 2939 2942.81 2941.99 2941.37 2954.07 2961.05 2959.08
2958.56 2959 2962.95 2963.99 2961.09 2963.01 2965.76 2964.54 2967.31 2967.55
2967.56 2963.96 2969.5 2969.61 2971 2971.84 2970.96 2972.06 2972.51 2973.91
2974.95 2976.36 2977.6 2977.97 2977.04 2980.25 2978.57 2980.09 2981.79 2980.19
2981.3 2980.54 2979.72 2979 2979.01 2975.61 2973.21 2971.2 2969.02 2971.32
2974.79 2978.66 2995.63 2992.54 2994.3 2998.22 3004.51 3012 3009.89 3007.92
3010.47

3006.86 3011.94 3019.15 3019.08 3015.06 3024.47 3044.34 3049.15 3049.82 3072.3
3077.21 3076.1 3073.73 3050.23 3025.58 3014.82 3001.32 2981.11 2961.89 2941.07
2924.11 2907.07 2884.17 2866.18 2862 2864.02 2864.21 2860.47 2861.59 2860
2857.73 2855.01 2853.23 2852.37 2850.51 2851.99 2851 2848.76 2849 2848.95
2847.13 2847.98 2846.8 2845.53 2845.98 2845 2846.14 2856.19 2868.66 2869.06
2870 2870.66 2872.07 2873.9 2875 2876.6 2876.4 2877.67 2880 2879.15
2880.02 2880.74 2882.83 2885 2887.44 2887.52 2887.95 2889.74 2890 2892
2892.04 2892.99 2895.98 2896.02 2896 2900.01 2899.26 2900 2902 2902.01
2903.33 2903.55 2905.13 2904.21 2907.32 2909 2908.89 2910.69 2909.72 2911.99
2911.38 2912.86 2913.99 2914.03 2914.01 2916.34 2917.93 2918.22 2916.7 2919.7
2919.77 2921 2923 2924.79 2922.7 2925 2927.14 2926.71 2926.02 2927
2928.89 2930.01 2929 2929.05 2928.08 2929.07 2928 2927.98 2927.04 2922
2922.01 2922.98 2924.95 2922.99 2921.11 2921.98 2919.39 2919.99 2918.87 2917.99
2917 2916.04 2918.21 2918 2919 2916.14 2913.58 2913.01 2915.69 2915.99
2915.48 2912 2910 2909.74 2909.27 2908.4 2906.88 2906.11 2903.86 2900.41
2899.14 2898 2896.26 2896 2894 2891.53 2893.98 2894 2893.26 2893.96
2893.88 2891.82 2889.97 2886.7 2886.09 2884.41 2882 2877.31 2877.54 2883.77
2887.11 2891 2891 2892.09 2897.13 2897.08 2899.42 2904.04 2905.13 2909
2911 2915.06 2914.11 2916.93 2919.13 2921.76 2922.33 2924.36 2926.11 2926.1
2930.2 2932.9 2932.33 2933.09 2936.45 2937.06 2937.53 2939.04 2941.69 2943.3
2937.75 2941.02 2941.38 2944 2942 2939.79 2943.8 2938.23 2937.56 2938.18
2937.37 2936.98 2935.72 2935.96 2933.23 2932.05 2930.09 2929.04 2929.22 2928.37
2927.61 2926.07 2925.61 2920.04 2918.99 2915.77 2914.23 2913 2912.36 2910.73
2923.9 2929.17 2929.97 2931.2 2929.84 2917.85 2914 2914.94 2915.51 2930.71
2938.69 2940.05 2943.31 2946.1 2945 2945.4 2947.05 2957.49 2964 2962
2961.06 2961.76 2963.04 2966.03 2966.34 2968.09 2969 2968.07 2971.39 2972.54
2973.99 2969.05 2973.03 2974 2975.28 2978.13 2975.91 2976.35 2978 2978.96
2980.78 2981.84 2982.04 2983.65 2982.69 2984 2985.06 2985.45 2985.25 2987.13
2986.52 2985.07 2986.06 2983.58 2983.18 2979.78 2979.1 2980.29 2989.2 2997.8
2997.43 2995.21 3006.29 3006.88 2999.6 3007.96 3012.24 3016.37 3020.31 3021.71
3023.16

3008.25 2998.38 3000.73 3007.45 3013.19 3017.49 3023.39 3035.17 3038.81 3051.05
3064.61 3075.94 3062.69 3036.37 3016.04 3005.81 2997.89 2973.77 2948.18 2924.66
2904.57 2892.07 2875.57 2864.28 2862 2864.06 2863.92 2860.99 2859.71 2860
2856.92 2852.91 2851.97 2852.94 2851.5 2850.69 2849.78 2850 2849 2847.75
2848 2847.99 2848 2847 2845.61 2847.01 2851.28 2867.93 2870.91 2870.64
2872.9 2875.55 2875.98 2874.64 2877 2879.39 2878.34 2879.94 2879.36 2882.77
2883 2884 2887 2886.99 2887.16 2887.98 2891 2890.94 2890.63 2892
2894 2896.07 2897 2899 2898.45 2899.99 2900.7 2901.48 2902.98 2902.97
2906.5 2905.88 2907.93 2909 2910.32 2910.25 2910.48 2913.89 2912.17 2913.82
2915.27 2913.41 2916.98 2919 2917.96 2918.68 2918.9 2922 2920.99 2920.36
2921 2923 2923.02 2925.03 2926 2926.68 2928.87 2928.14 2930.04 2930.74
2930.03 2932 2930 2932.51 2930.26 2931 2930.46 2929.62 2929.42 2924.07
2923.01 2922.46 2925.24 2924.96 2923.26 2926 2920.2 2923.45 2920.71 2920
2919 2919.52 2922.53 2921 2919 2918.22 2918.44 2916.9 2917 2916.21
2914.43 2913.48 2913.62 2913.87 2910.23 2909.94 2910 2907.27 2904.18 2904.34
2902.56 2902.08 2899.93 2897.49 2896.46 2896 2895.82 2895.23 2895.7 2893.42
2892.83 2892.03 2890.26 2891 2887.74 2885.72 2883.03 2881.32 2881.08 2887
2887.83 2890.18 2894.84 2897.29 2900.01 2902 2904.05 2907.47 2912.7 2914.15
2911.74 2920.19 2921 2921 2924.21 2927.15 2927 2926.79 2931 2931.97
2933.18 2937.1 2937.75 2937.32 2941.08 2941.21 2942.78 2944.09 2945.34 2945.4
2941.77 2945.99 2948 2946.91 2947.51 2944 2946.66 2946.19 2941.99 2944.13
2941.33 2943.57 2942.45 2939.97 2939.28 2937.3 2935.98 2938.63 2936.12 2935.45
2932.99 2928.9 2925.3 2925.01 2922 2920.83 2919.98 2917.52 2920.97 2917.69
2919.85 2930.54 2932.98 2934.65 2933.89 2929.41 2920.64 2917.27 2919 2924.84
2938.38 2944.42 2949.56 2948 2950.33 2952.56 2958.06 2962.06 2966 2964.82
2965.45 2967.57 2964.93 2967.15 2971 2971.37 2975 2973.84 2978.16 2979.47
2975.63 2975.58 2972.21 2978.35 2979.14 2980.07 2980.09 2980.01 2981.53 2981.82
2984.58 2986.4 2985.54 2987.24 2989 2988.85 2989.5 2989.26 2990.97 2991.01
2991.08 2991.63 2990.58 2989.16 2987.99 2984.95 3002.35 3007.82 3011.6 3014.03
3003.65 2999.51 3010.04 3015.51 3015.35 3012.43 3020.9 3028.56 3031.24 3035.75
3035.18

3015.76 2995.8 3004.1 3014.36 3034.16 3041.38 3045.49 3057.34 3055.19 3063.53
3076.6 3073.43 3048.46 3021.28 2996.48 2981.56 2972.14 2962.42 2930.7 2906.64
2882.2 2875.37 2862.12 2862.6 2861.56 2861.08 2860.05 2860.98 2860.97 2858.27
2855.51 2851 2852.02 2852 2850.76 2851 2849.32 2850.76 2848.03 2849.11
2848 2849.68 2849.95 2848 2847.97 2852.31 2867.07 2870.52 2872.09 2872
2875 2875.02 2875.49 2879 2878.18 2880 2879.04 2881 2882.96 2884.99
2884.16 2886.01 2887 2889.79 2892.95 2891.01 2893.99 2894 2895 2894.19
2897.99 2899 2897.99 2900 2902 2903 2905.03 2904 2905.06 2908.72
2910 2910.22 2911 2910.01 2912.36 2911.31 2913.74 2915 2915 2916.05
2916.72 2917.87 2918.99 2918.97 2919.05 2921 2921 2921.58 2922.35 2922.9
2922.09 2925.09 2926 2926 2928 2928.89 2929.46 2930 2931.95 2932.07
2932.85 2935 2933.99 2934.98 2932.99 2933 2931.44 2931 2929.2 2926
2928.06 2930.76 2929.88 2926 2928.81 2927.73 2925.83 2925.93 2923.53 2924.96
2922.23 2924.49 2924.6 2923 2921.59 2921.27 2920.4 2919.73 2920 2919
2917.69 2915.71 2916.95 2917 2914.25 2913.43 2910 2907.88 2907.96 2907.01
2903 2903.91 2902.6 2898.75 2898.1 2898.3 2897.78 2897.16 2898 2894.93
2894.83 2896 2895 2891.43 2888.79 2886.73 2884.99 2884 2885.78 2890.34
2891.08 2893.6 2898 2901 2902.03 2904.01 2910.38 2914.15 2914.19 2918.96
2916.65 2921.24 2923.07 2923.88 2928.3 2929.11 2932.65 2932.9 2936.02 2933.98
2935.04 2938.94 2943.96 2942.07 2945.44 2945.49 2947.43 2949.63 2950.02 2950.48
2949.66 2951 2951.7 2951.68 2950.56 2948.33 2950.14 2949.56 2946.13 2947
2947.93 2947.58 2947 2945.94 2942.97 2939 2944.65 2942.91 2940.22 2938.06
2937.93 2933.79 2932.88 2929.39 2928.99 2925.61 2922.07 2927.18 2929.4 2925.14
2923.22 2927 2932.54 2936 2937.99 2933.08 2924.05 2920.5 2923.13 2924.88
2937.13 2948.95 2949.91 2950.74 2956.03 2967.57 2966.4 2960.91 2965.86 2965.02
2968.27 2971.5 2971.71 2975 2973.29 2974.46 2976.86 2978.1 2980.88 2983.8
2981.43 2983.99 2981.71 2982.14 2986.71 2987.57 2988.09 2983 2985.19 2985.13
2987.1 2991 2989.59 2991.76 2991.13 2993.76 2994.44 2993.91 2997.9 2996.02
2996.03 2994.83 2995.78 2994.92 2992.02 2996.88 3019.77 3021.99 3022.86 3020.59
3009.11 3008.41 3016.58 3022.07 3026.63 3021.81 3031.66 3037.69 3041.7 3041.82
3049.19

3011.64 2993.05 3007.14 3031.8 3047.27 3067.26 3074.8 3079.54 3076 3088.12
3090.88 3079.76 3052.61 3021.08 2992.01 2969.45 2957.22 2940.94 2916.87 2890.35
2870.83 2863.21 2860.76 2861.05 2862 2861 2859.84 2860 2859 2858
2855 2853.66 2855.96 2851.94 2851.99 2850.01 2852 2850.99 2849.99 2850.1
2849.91 2850 2849.99 2848 2849.22 2869.33 2871.45 2873 2873.17 2874
2874 2877.07 2878.07 2879 2878.16 2881.21 2881.97 2884.88 2885 2884.99
2886.3 2889.05 2889.47 2893 2893 2893.35 2893.53 2896.59 2898 2897.43
2898.54 2899.05 2901 2903.34 2905 2905.96 2905.4 2908.26 2908.15 2910.98
2910.29 2914.76 2913.54 2916 2915.04 2915.55 2915.98 2917.98 2918.95 2919
2918.7 2920.93 2923.16 2922 2921.46 2921.2 2924 2925.21 2925.97 2924.62
2925.9 2927 2928.02 2928.45 2931.07 2932 2932.13 2933 2934 2935
2934.8 2936.13 2935.23 2933.75 2935 2934.94 2934.99 2935.02 2929.96 2928.66
2931.13 2932 2928.45 2929.06 2928.98 2928.06 2926.3 2926.8 2926.75 2925.87
2923.44 2927 2927.99 2924.26 2923.1 2922.99 2923 2923 2923.1 2920.58
2919.28 2917.15 2918.07 2915.98 2916 2915 2913 2909.89 2909 2908
2907 2903.96 2905.03 2902.89 2902 2901.9 2901.87 2901.63 2903 2900.96
2895 2897.13 2894.19 2893.23 2889.99 2888.38 2886.95 2885.13 2888.93 2892.1
2895.22 2898.02 2901.69 2904.71 2907.14 2909.13 2912.39 2915.96 2917 2918.08
2921.03 2927.06 2926.09 2930.12 2933 2935.85 2934.43 2937.64 2940 2943
2942.29 2943.78 2946.13 2947.05 2949.3 2949.21 2950.9 2952.98 2953.33 2955.05
2952.74 2955.58 2954.58 2956.46 2956.06 2953.91 2954.16 2954 2953.08 2954.15
2952.27 2952.51 2951.06 2949.11 2947.16 2946.81 2949 2948.19 2943.38 2943.28
2939.66 2937.85 2938.14 2932.35 2932.02 2930.95 2930 2934.35 2936.38 2932.88
2925.98 2929.97 2934.99 2941.49 2941.63 2941.27 2937.31 2925.94 2924.9 2927.82
2932.6 2943.75 2954.94 2956.5 2969.84 2972.99 2968.03 2962.98 2965.59 2969
2971.78 2974.19 2975.01 2977.06 2977.98 2980.1 2980.96 2982 2984.35 2983.57
2984.9 2986.14 2987.32 2986.75 2987.16 2993.98 2992.17 2989.5 2989.07 2990.58
2994.31 2994.51 2996.08 2996.87 2997.72 3000.31 2999.06 2999.72 3000.13 3002.24
3001.34 3000.07 2998.25 2998.15 2995.3 3005.18 3019.7 3026.37 3029.29 3026.22
3018.59 3019.56 3030.69 3033.12 3038.35 3034.88 3044.23 3047.5 3050.41 3053.65
3060.16

2988.27 2994.89 3013.75 3047.22 3057.53 3074.14 3079.32 3094.4 3097.71 3095.24
3095.41 3083.41 3056.71 3022.02 2984.77 2962.03 2936.78 2915.47 2898.77 2875.21
2864.25 2862 2862 2861.1 2861.96 2862 2857.58 2859.97 2858.96 2856.91
2854.99 2853 2852 2851 2853.58 2852.99 2852 2849.97 2849 2850.99
2850 2850 2849.99 2849.33 2859.09 2873 2872 2873 2873.66 2876.83
2878 2879.31 2881.34 2882.89 2882.89 2883.15 2886 2883.92 2885.35 2888.5
2889 2890.94 2891.01 2894.79 2895.32 2899 2900 2901 2899.87 2900
2901 2901.53 2902.85 2904.85 2906.25 2906.03 2905.09 2908.89 2909.02 2912
2912.94 2916 2915.82 2916.69 2916.03 2916.96 2918.74 2919.92 2920 2921
2922.05 2923.75 2925 2924.32 2923.44 2924.02 2925.92 2927.38 2927.44 2928
2927.24 2929.92 2931.18 2933 2932.97 2933 2934 2934 2935.01 2936
2936.58 2938.99 2938.16 2936 2936.66 2937.85 2937 2935.99 2932 2930.74
2933.87 2931.31 2928.6 2930.83 2930.18 2932 2930 2928.97 2927.33 2927.22
2931.18 2929.6 2928 2927.77 2927 2928.28 2925.71 2923.95 2925 2922.97
2921 2921.53 2921.91 2918.77 2917.99 2915.89 2913.19 2912 2910.15 2909.26
2909.49 2907.26 2905.99 2906 2903.15 2903 2903.88 2904.15 2903 2900.72
2899.37 2897.99 2894.99 2894.98 2894.05 2890 2888.99 2889 2891.12 2895.73
2897.02 2900.54 2903.97 2907.6 2909.65 2913 2915.91 2918.29 2921.59 2921.85
2926.18 2931.79 2932.68 2933.93 2937.09 2940.35 2940.41 2943.99 2942.1 2945.65
2946.5 2949.77 2951.12 2950.41 2953.89 2954.08 2956.12 2958 2958.34 2961.43
2957.13 2961.03 2960.23 2960.95 2961.49 2957.85 2957.86 2957.24 2958.98 2959.3
2954.8 2953.78 2953.1 2952.11 2953.22 2953 2952.29 2950 2948.09 2946.26
2945.26 2942.34 2939 2939.38 2937.92 2934.57 2939.85 2941.33 2937.36 2933.06
2931.66 2932.97 2939.53 2945.87 2951.89 2949.13 2944.17 2932.67 2932.55 2932.97
2933 2945.03 2959.72 2974.87 2974.5 2973.98 2967.39 2964 2965.07 2970.1
2971.25 2979.07 2980.93 2978.21 2983.44 2983.06 2985.92 2987.15 2985.44 2988.6
2990.72 2992.22 2993.26 2995.36 2990.63 2994.87 2995.74 2996.76 2995.05 2996.88
2997.75 2999.75 3000.59 3001.86 3001.85 3003.85 3004.06 3004.25 3006.23 3007.65
3006.4 3004.74 3004.89 3002.92 3002.56 3019.73 3025.9 3031.16 3035.71 3035.86
3023.7 3031.8 3043.44 3046.07 3050.48 3050.8 3056.01 3058.66 3062.15 3067.82
3074.83

2990.16 3004.25 3016.58 3039.53 3046.1 3064.2 3086.93 3102.01 3102.77 3089.79
3069.46 3060.07 3049.21 3017.05 2988.46 2960.12 2924.49 2900.03 2888.19 2871.56
2862.98 2861.93 2862.02 2862.95 2862.99 2861.34 2861.35 2860 2856.96 2855.92
2854.74 2857.07 2852.35 2848.69 2851.19 2853 2850.85 2851.98 2850.99 2852
2850.85 2850.99 2849.9 2851 2868.46 2874.09 2875 2875.01 2875.07 2877.61
2879.99 2880.01 2882 2883.82 2883.46 2884.99 2887 2890 2889.76 2890.14
2890 2893.26 2894.07 2896.12 2897.14 2899.32 2901.06 2901.63 2904 2904
2901.34 2905 2905.09 2907 2909.98 2910 2911 2912 2913 2914
2914.78 2917.76 2918.06 2920.19 2918.55 2922.07 2923 2921.96 2922.48 2924.05
2925 2927 2924.93 2926.34 2927.08 2927.77 2928 2929.19 2929.01 2930
2931.1 2931 2934.25 2933.21 2936.04 2934.89 2936 2937.13 2939.29 2938
2937.84 2941.1 2940.18 2938 2940 2940.38 2939.5 2935.82 2932 2932.89
2934.79 2936 2934.2 2934 2931.93 2933 2933 2930.5 2930.84 2933.91
2932.02 2932.12 2930 2930.99 2930 2932.93 2930.74 2927.68 2926 2924.2
2921.01 2922.94 2921 2919.29 2919 2917.69 2918.04 2914.78 2913.93 2914
2912.72 2910.74 2907.69 2906.28 2905.24 2909 2907.9 2906.09 2904.4 2903
2902.1 2901.96 2898.27 2897.44 2897.44 2890.59 2890.94 2891 2895.71 2900.44
2903.63 2904.99 2910.53 2911.7 2912.72 2917 2918 2920.03 2925.86 2927.38
2930.51 2932.25 2933.71 2935.91 2940 2941 2944.64 2946.13 2946.43 2950
2950.54 2953 2952.99 2955.12 2957.39 2957.55 2958.9 2962.1 2962.19 2965
2963.95 2964.87 2964.83 2964.56 2964.02 2963.71 2964 2962.47 2960.95 2961.95
2961.87 2960.21 2959.79 2956.94 2956.86 2956.5 2956.73 2952.87 2952.15 2951.01
2948.89 2949.96 2945.24 2944.1 2945.23 2942.73 2947.9 2948.7 2947.51 2941.1
2935.05 2936.7 2941.2 2945.64 2954.77 2954.08 2950.25 2941.1 2933.79 2936.89
2939.23 2946.7 2968.33 2976.75 2974.53 2975.01 2970.64 2968.7 2970 2970.02
2971.95 2979.01 2980.99 2986.17 2989.42 2988.58 2992.71 2995 2992.04 2992.05
2993.64 2998.65 2999.22 2999.23 3001.11 3000.7 2999.01 3002.95 3002 3000.84
3002.94 3006 3005.8 3006.69 3008 3008.01 3009.49 3008.7 3011.02 3012.8
3011 3009.59 3010 3007.13 3014.75 3031.63 3038.81 3043.23 3047.19 3045.11
3022.98 3045.99 3056.57 3061.02 3065.09 3064.09 3069.42 3075.12 3077.07 3081.37
3085.59

3007.1 3024.54 3035.15 3041.05 3057.87 3077.39 3098.35 3109.38 3106.4 3077.19
3055.61 3030.08 3016.9 3000.91 2982.71 2959.98 2925.4 2893.74 2878.06 2867.5
2863.35 2863.25 2863.5 2863 2863.98 2862 2862 2859.42 2856 2855.9
2856.87 2860 2857.73 2850 2851.62 2853.88 2850.99 2851.53 2851.97 2853
2852.05 2849.15 2850 2853.02 2873 2875.51 2877 2878.54 2878.29 2879.27
2882 2881.26 2883.07 2885.9 2886 2885 2886.72 2889.45 2892.11 2894
2894 2894.13 2896.09 2897.02 2899.16 2903 2902 2903.64 2904.12 2904.64
2905.02 2907.78 2908.01 2908 2909.85 2911 2910.92 2912.12 2914.43 2917.18
2916.94 2919.9 2920.51 2922 2920.99 2923 2922.38 2925.14 2925.34 2927
2927.95 2927.78 2927.83 2930.01 2929.46 2932.66 2933 2931.74 2933 2932.54
2935.81 2934.01 2936.97 2935.61 2939 2937.78 2939.91 2940 2939.96 2940.08
2939.56 2942 2942.27 2941.59 2942.62 2942.14 2943 2937.08 2935 2934
2935.69 2935.77 2935.03 2934.09 2935.12 2935 2935 2933.98 2934.68 2935.14
2934 2934 2935 2934.08 2932.95 2930.76 2928.58 2930.99 2928.75 2928
2925.63 2926 2924.89 2923.1 2921 2919.98 2919.37 2916.22 2916.97 2915.46
2915.32 2914.78 2909.7 2909.02 2909.03 2908.92 2909.81 2910.86 2906 2903.84
2905.57 2902 2902 2898.99 2897.16 2894 2893.98 2893.1 2899.29 2902.44
2905.36 2910 2910.49 2912.75 2915.2 2919.04 2921.51 2924.08 2926.85 2931
2933.02 2935.04 2937.15 2940.99 2942.21 2946.02 2949 2950.67 2953.13 2954.01
2955.07 2958 2957 2960.21 2962.05 2962.39 2964.55 2968 2966.98 2968.51
2968.08 2967.46 2968.44 2970.42 2968.01 2969.81 2966.53 2967 2966.82 2967.9
2967.01 2967.98 2961.7 2965.96 2962.26 2962.94 2960.74 2959.8 2959.03 2958.43
2953.86 2952.1 2950.06 2956.21 2950.93 2943.27 2951.23 2950.99 2946.99 2953.05
2949.35 2947.31 2945 2947.38 2955.16 2958.24 2960.68 2961.85 2948.64 2941.12
2941.18 2941.42 2966.91 2969.21 2978 2976 2972.93 2974.73 2975.71 2972.01
2973.72 2977.58 2982.01 2988.5 2991.62 2991.99 2993.37 2998.04 3001.31 2998.22
2999.96 3001.15 3003.74 3005.05 3005.1 3005.11 3004.02 3006.46 3006.69 3007.03
3005.26 3006.38 3010.08 3011.09 3011.81 3012.51 3016.48 3015.56 3015.79 3018
3017.05 3013.08 3013.12 3012.03 3032.47 3042.22 3050.44 3054.27 3061.86 3053.45
3030.13 3052.48 3071.81 3077.96 3077.89 3082.98 3081.55 3088.59 3090.83 3096.09
3099.32

3012.81 3031.13 3043.33 3068.9 3083.9 3095.85 3122.8 3126.28 3106.44 3072.56
3041.28 3015.13 2995.98 2972.3 2950.08 2936.48 2905.67 2882.35 2870.99 2866.74
2867.71 2865.61 2861.75 2863.04 2864 2861.28 2863 2858.94 2855.63 2855.63
2856.24 2858.72 2854.98 2849.93 2852 2851.85 2852 2851.26 2851.63 2853
2850.23 2850 2850.61 2868.74 2874.95 2874.99 2877.3 2880 2879.38 2883.14
2883.6 2883.34 2884 2887 2887.85 2889.11 2890.38 2892.55 2894 2894
2895.26 2895.26 2898.61 2899.01 2901.96 2903.99 2904.47 2905.95 2905.88 2908
2908.35 2909.85 2910.13 2911.23 2912.77 2912.39 2914.33 2917.22 2918.55 2919.22
2918.14 2920.22 2923.96 2923.76 2923.97 2925.04 2926.57 2928.02 2929 2928.44
2928.13 2932 2933.92 2933 2931.27 2933.01 2934.99 2933.53 2934.99 2935.56
2937.97 2936.89 2937.24 2938 2939 2939.92 2941 2941.03 2943.16 2941.32
2943 2943.93 2945 2944.42 2944 2945.83 2943.85 2940 2936.54 2937.21
2935.99 2938 2938 2937 2936 2937.53 2936.82 2936.94 2938.03 2937.77
2936.77 2940 2935.38 2937.69 2933.93 2933.99 2930.53 2930.77 2931.1 2931.58
2927.37 2926.57 2926.5 2925.99 2923 2919.52 2920 2917.92 2917.99 2916.96
2916.46 2915.98 2913 2910.7 2912 2908.17 2912 2909.15 2907.29 2909.5
2908.3 2902.36 2901 2901 2898.02 2897 2895.54 2897.1 2903 2905.73
2907.24 2910 2913.17 2917.09 2920 2922 2925.35 2927.64 2932.67 2932.05
2934.96 2936.98 2940.83 2947.07 2947.2 2949.01 2953.57 2955 2956.1 2958.32
2958.46 2962 2961.74 2963.39 2966.13 2968.07 2968.77 2971.35 2971.31 2972.56
2971.17 2972.87 2977 2975.78 2973.55 2972.74 2974.76 2972.16 2969.94 2970.1
2971.76 2971.47 2968.44 2967.32 2967.25 2965.13 2966.65 2965.63 2960.15 2961
2956.88 2955.79 2956.07 2960.98 2951.79 2952.41 2958.55 2959.17 2966.42 2967.47
2962.64 2949.81 2947.39 2952.07 2957.58 2977.09 2976.06 2969.52 2963.39 2947.98
2946.85 2947.33 2963.31 2968 2974.61 2976 2972.99 2980.59 2981 2975.73
2977.74 2983.26 2985.85 2988.33 2993.25 2996.63 2998.6 3000.17 3004 3001.51
3001.79 3005.93 3008.23 3011.48 3013.66 3011.95 3009.07 3009.24 3013.7 3015.03
3015.89 3015.32 3013 3016.86 3017 3019.03 3022.5 3020.88 3019.95 3021.24
3020.68 3020.5 3018.52 3023.93 3047.14 3054.49 3060.64 3068.5 3069 3055.59
3043.89 3065.19 3085.24 3094.99 3099.36 3098.84 3099.36 3109.69 3110.14 3110.55
3111.42

3000.34 3030.57 3050.96 3078.65 3106.13 3127.65 3145.15 3144.21 3116.21 3078.78
3039.45 3011.65 2984.29 2968.77 2941.15 2916.6 2894.34 2875.51 2868.89 2867.96
2867.88 2864.05 2863 2865.92 2864.96 2862.16 2860.97 2857.17 2856.42 2858
2857.27 2854.9 2850.72 2850.05 2851.28 2852 2851.99 2854 2853.94 2849.95
2850 2850.6 2865.12 2872.06 2877.77 2878 2879.99 2881.02 2883 2884.11
2884.18 2887 2887.07 2888.01 2891 2893 2893.01 2893 2893.8 2895.01
2898.01 2899.88 2901 2903.21 2904.84 2905 2907 2908.53 2907.8 2909.15
2908.17 2910.27 2912.97 2914.18 2915.17 2915.02 2916.85 2918 2920 2921
2920.51 2919.98 2926 2926 2927.23 2928.07 2927.99 2928.13 2931.44 2931.56
2933 2933 2932.97 2933 2932.36 2935 2937.13 2939 2937.02 2938
2940.71 2940.13 2941 2939.41 2941.01 2942 2943.84 2943.12 2943.96 2945
2945 2946.07 2946.68 2946 2945 2945.94 2945.97 2941.49 2939.93 2939.95
2941.99 2940.01 2939.15 2940.6 2939.74 2936.68 2936.02 2940.26 2940.1 2940.13
2938.25 2941 2943.59 2943.4 2937.95 2933.82 2934.54 2935.67 2934.96 2931
2930.32 2930.02 2929.05 2924.31 2924.3 2924.52 2922.2 2923 2919.29 2919.36
2918.2 2916.31 2914.35 2914.98 2913.99 2912.82 2913 2911 2910.99 2910.04
2908.99 2904.91 2904 2902.05 2900.81 2898.88 2897 2897.96 2906.87 2908
2911.05 2912.26 2916.44 2919.99 2922.42 2926.11 2928.23 2931.08 2934.12 2939.08
2942 2943.47 2948.79 2951.91 2952.38 2953.99 2956.08 2958.39 2961 2964.24
2966.99 2965.71 2967.85 2970.32 2969.46 2970.69 2973 2974.16 2975.71 2975.04
2976.04 2976.91 2978 2979.45 2978.08 2977.06 2978.13 2976.32 2976.44 2977.1
2977.17 2974.59 2973.75 2975.94 2976 2970.87 2969.79 2967.97 2965.78 2965.04
2963.06 2959.06 2961.86 2962.92 2955.42 2958.89 2961.98 2965.73 2970.76 2970.99
2963.8 2962.28 2977.02 2978.08 2966.72 2987.49 2985.46 2976.09 2974.39 2956.46
2949 2950.57 2952.31 2967.08 2974.24 2976.22 2971.78 2976.18 2983.07 2987.33
2981.13 2987.97 2989.98 2993 2996.92 2997.6 3002.83 3004 3004.99 3006.49
3005.72 3011.1 3014.02 3014.99 3017.72 3016.74 3014.26 3015.94 3017.05 3020.94
3021.87 3021.26 3018.58 3020.76 3022 3022.98 3024.64 3024.47 3023.22 3028.96
3027.37 3024.53 3026.63 3033.11 3058.69 3064.94 3073.46 3078.24 3075.21 3055.52
3054.45 3072.45 3096.47 3108.31 3116.48 3117.05 3118.42 3120.88 3126.71 3128.46
3125.32

3010.58 3031.6 3060.54 3088.56 3117.34 3131.09 3145.19 3144.66 3121.45 3079.22
3040.12 3013.85 2980.67 2952.13 2928.59 2902.83 2884.54 2871.17 2868.99 2868.8
2864.59 2864.14 2863.08 2863.45 2864.91 2863.73 2861.93 2858 2857.42 2857.68
2855.99 2854.44 2854 2854 2852.88 2853 2853.1 2853.7 2852.49 2853
2851 2868.49 2877.81 2878.8 2880 2880.95 2880.69 2884.28 2884.21 2885.13
2887 2887.96 2888.41 2890.16 2892.11 2893.94 2896 2896 2897 2897
2899 2900.99 2902 2904.23 2905.84 2905.37 2908.28 2910.63 2910.09 2911.68
2914.33 2913.41 2915.63 2916.12 2916 2917.01 2920 2919.1 2922.82 2921.2
2925 2924.07 2926.84 2927.36 2930.27 2929 2931.72 2930.41 2932.82 2932.03
2932.66 2935 2935.02 2936.03 2938.54 2937.42 2938.16 2939.19 2939 2940
2941 2942.04 2944.24 2941.14 2943.58 2944.99 2944.93 2945.21 2944.97 2946.3
2946.3 2947.06 2948.38 2948.98 2949 2948 2947.51 2942.99 2943.07 2940.69
2944 2943.67 2942.38 2942.7 2941.88 2940.07 2943 2943.05 2943.1 2944.87
2941.95 2944 2945 2943.05 2938.03 2938 2938.05 2936 2934.98 2932.61
2932.96 2932.37 2930.82 2929.73 2929.98 2927.67 2924.97 2923 2923.9 2921
2920.05 2917.55 2917.93 2914.83 2914.99 2915 2913.67 2914.03 2914 2911
2910.68 2906.14 2906.97 2905 2903.89 2900.99 2899.29 2900.4 2906.63 2911.23
2915.06 2916.15 2919.41 2922.06 2925.44 2929.07 2932.35 2936.08 2937.92 2943
2945.02 2946.52 2949.74 2953.25 2957.19 2958 2960.08 2962.86 2965.1 2965.31
2969.04 2971.94 2972.13 2973.19 2976.33 2975.48 2978.84 2980.15 2980.01 2981.5
2982.93 2981.01 2982.13 2985.2 2982.42 2981.29 2982.49 2981.35 2981.42 2980.93
2980.01 2979.41 2979.1 2976.15 2978.3 2977.33 2974.09 2972.14 2970.21 2969.36
2966.53 2961.22 2963.13 2962.19 2958.24 2963.41 2965.02 2970.88 2973.77 2969.68
2979.34 2999.34 3015.48 3016.22 2978.9 2990.18 2996.28 2991.12 2982.64 2974.52
2954.77 2955.93 2954.92 2965.15 2973.96 2977 2975.83 2977.91 2984.79 2990.99
2987.4 2989.2 2991.96 2995.85 2999.77 3002.2 3007.89 3008.14 3011 3013.35
3015.28 3015.45 3018.26 3024 3022.4 3023.12 3019.75 3022.86 3021.92 3023
3027.84 3028.83 3024.57 3026 3025.29 3028.9 3030.06 3032 3031.01 3031
3030.49 3028.92 3029.61 3046.28 3074.71 3075.34 3084.27 3089.07 3086.74 3063.12
3070.21 3093.03 3109.32 3121.99 3130.87 3135.88 3136.14 3139.13 3141.3 3140.26
3138.9

3008.16 3043.53 3059.18 3086.53 3113.23 3128.57 3134.12 3123.89 3110.37 3075.06
3037.09 3004.88 2967.4 2943.33 2920.85 2900.09 2880.71 2868.51 2868.98 2868.43
2864.98 2865 2865.05 2866 2865.99 2862.14 2862.48 2858 2857.12 2855.64
2857.85 2858.66 2853.97 2853.91 2852.8 2854 2853.83 2852.18 2851 2851.72
2858.68 2874.98 2878 2879 2881.9 2881.89 2883.38 2885.94 2886.64 2888
2888.91 2891 2890.61 2893.68 2894 2894.14 2897.26 2898 2899 2899.98
2900 2901 2902.08 2905.77 2907.92 2908.01 2909.87 2911.66 2913 2912.67
2915 2914.97 2917.7 2919.41 2920 2920.35 2920.39 2923.32 2923.95 2924.3
2925.76 2927.56 2928.88 2930.3 2932 2934.06 2933.94 2933 2936.82 2938.41
2936.4 2935.95 2937.02 2940.26 2939.94 2939.89 2942.01 2944 2942.33 2942.28
2943.29 2945.48 2947.02 2946 2944.66 2947.6 2948 2949 2948.96 2948.67
2948.75 2949.28 2950 2950.51 2951 2951.18 2950.72 2944 2944.45 2947.68
2945.82 2947 2946 2944.99 2942.91 2944.15 2945.37 2948 2946.7 2945.99
2945.5 2945.33 2945 2944.95 2941.34 2939.99 2939.49 2937.24 2938.99 2938.52
2934.51 2933 2932.42 2932.53 2928.98 2928.83 2926 2925.83 2926.11 2921
2921 2922.72 2921.87 2918.16 2918.97 2918 2916.05 2915.7 2915.13 2914
2909.88 2908.9 2908.16 2906.67 2903.77 2903.74 2901.99 2903.39 2908.9 2913.11
2916.08 2921.08 2923.45 2926.19 2930.82 2931.15 2936.17 2939.48 2941.69 2944.08
2948.03 2950.05 2955.95 2958.05 2960.18 2960.92 2964.55 2966.07 2970.94 2971.22
2972.77 2975.91 2976.38 2979.01 2981.67 2981.66 2981 2982.9 2982.99 2986.39
2987.08 2985.23 2988 2989.31 2986.59 2987.79 2988.09 2986.02 2986.61 2985.95
2984.24 2983.5 2983.12 2983.94 2984.7 2983.48 2978.63 2976.08 2974 2972.53
2971.05 2967.27 2969 2964.77 2966 2969.75 2970.15 2978 2980.48 2985.17
3008.96 3017.15 3026 3019.4 2984.24 2990.97 3003.99 3003.72 2986.61 2981.89
2969.2 2955.98 2958.68 2958.81 2971.65 2979.32 2979.35 2981.01 2984 2989.78
2994.14 2993.04 2993.36 2999.46 3002 3010.35 3014.23 3017.27 3018.39 3018.16
3020.73 3020.9 3022.29 3027.97 3028.35 3027.93 3028.11 3026.02 3028.48 3029.97
3033.16 3034.27 3028.51 3030.01 3032 3031.01 3032.56 3034.89 3035.12 3034.93
3035.1 3033.71 3035.89 3064.2 3087.8 3091.59 3098 3101.24 3097.69 3071.98
3085.2 3113.42 3130.91 3135.11 3143.79 3146.98 3149.28 3150.39 3153.61 3153.8
3147.81

3000.99 3035.83 3051.05 3073.65 3099.45 3114.42 3114.39 3090.07 3070.75 3056.85
3037.22 3000.74 2971.8 2943.65 2915.03 2889.03 2876.88 2867.93 2867 2867.92
2870.7 2867.81 2864.89 2866 2862.78 2863.08 2862.98 2857.8 2859.99 2857
2855.32 2854.78 2854.97 2854 2854 2853.18 2852.21 2852.01 2852.78 2851.43
2869.02 2879.32 2879.98 2881.06 2883.27 2884.15 2886.06 2887.53 2890.8 2891.49
2891.14 2892.37 2893 2895 2896.98 2897.2 2898.96 2900.08 2899.9 2902.05
2904.01 2904.42 2906 2906.36 2908.41 2910.6 2912 2914.03 2916 2915
2917 2916.65 2920.01 2918.95 2920.13 2922 2923.08 2925.79 2926 2926
2928.95 2930.75 2932.86 2933 2933.01 2934 2935 2937.09 2940.45 2940.47
2938.99 2940.82 2939.34 2943.75 2942.17 2942.03 2945.04 2944.47 2944.72 2947
2946.29 2946.42 2948.36 2948.44 2947 2948 2950.09 2950 2950.41 2952
2950.81 2953 2953 2953 2953 2954 2951.87 2947.02 2948 2948.06
2947.08 2948 2946.44 2947.43 2947.41 2950.04 2952 2951.36 2950 2948.96
2949.01 2952 2947.8 2945 2946.91 2943.99 2942.06 2942.7 2943.64 2940
2937.03 2935.89 2933.99 2933.7 2932 2928 2928.96 2928 2926 2927
2926.58 2925.64 2921.17 2919.99 2918.69 2920 2919.87 2918.34 2916.35 2916.99
2915 2912 2910 2909.19 2906.45 2905.72 2903.9 2906.34 2911.58 2915.11
2920.05 2924 2927.04 2929.05 2930.79 2934.18 2937.32 2941.55 2945.96 2946.99
2951.7 2955 2957.49 2961.14 2963.2 2964.86 2971.03 2972.86 2974.34 2975.25
2976 2979.72 2981 2984.74 2984.43 2987 2986.61 2988.27 2990 2991
2992 2990.02 2991.01 2994.38 2992.94 2991.13 2993.09 2992.2 2990.48 2990.01
2989.27 2989.02 2988.36 2986.92 2985.41 2985.37 2983.39 2982.73 2981.65 2976.76
2974.75 2974.75 2970 2968.72 2971.99 2977 2976.9 2979.53 2985.52 3003.94
3013.53 3019.95 3023.2 3018.27 2985.71 2995.91 3007.92 3009.43 2996.92 2986.06
2977.94 2963.72 2961.32 2961.34 2966.67 2981.18 2983.09 2986.2 2989.92 2993.41
2999.84 2999.67 3002.99 3007.33 3006.23 3012 3015 3019.05 3022.02 3023.87
3023.98 3026.67 3028.22 3029.44 3031.48 3032.96 3031.99 3030.31 3034.08 3035.72
3037.01 3040.02 3034.82 3032.93 3036.07 3038.55 3040.9 3041.23 3040.99 3039.67
3039.56 3040.57 3048.02 3079.7 3100.35 3101.66 3108.64 3112.31 3111.07 3084.26
3097.5 3129.51 3143.12 3145.51 3151.08 3155.45 3158.37 3159.32 3160.68 3161.89
3151.14

2998.4 3008.12 3034.62 3071.47 3087.08 3086.1 3084.16 3078.91 3041 3026.34
3019.35 2990.46 2962.68 2932.91 2898.59 2879.75 2872.5 2867.87 2867.24 2865.1
2870.85 2867.86 2862.12 2866.31 2865.18 2863.95 2859.32 2857 2857.29 2856.92
2855 2854.05 2854 2855 2853.99 2854 2854 2852.48 2851 2859.16
2880.07 2881.83 2880.41 2883 2884.08 2889.86 2889.23 2890.88 2892.88 2894.45
2895.9 2894.99 2896 2898 2899.72 2899.13 2901.04 2902.08 2904 2904
2907 2907.49 2909 2908.34 2910.33 2914 2914.06 2915.08 2918.94 2918.9
2917.34 2920 2921.08 2923 2922.96 2924 2924.02 2926 2929.92 2928
2930.83 2934 2934.88 2934.15 2937.36 2937.62 2938.85 2940 2939.41 2942
2941.26 2942.17 2943.13 2943 2945 2948 2946.48 2947.03 2946.04 2947.13
2950.01 2951.04 2951.09 2952.38 2950.63 2951.96 2952.14 2951.14 2952.82 2953.01
2952.11 2955 2954.27 2955.25 2955.56 2955.11 2951.26 2948.04 2951.02 2950.15
2950.27 2951 2950.29 2951.31 2947 2954 2954 2953.04 2950.73 2953.99
2952 2951.73 2950 2949.03 2948 2947.16 2943 2943.1 2943 2941.81
2940.99 2939 2936.91 2935.2 2931.05 2931.24 2931.24 2934.82 2933.77 2929.97
2928 2927.34 2926 2922.14 2920.97 2922 2919.46 2917.46 2919.22 2916.98
2915.9 2912.96 2912.25 2911.81 2910 2909 2908.99 2911.02 2916.73 2919
2921 2924.85 2928.81 2933.09 2933.54 2937.18 2942.12 2944.28 2948.14 2953
2954.1 2958.15 2963.3 2965.96 2967 2971.03 2971.95 2975.11 2978.22 2981.02
2980.39 2982.69 2985.87 2985.1 2987.99 2989 2992.11 2994.14 2991.16 2996.42
2997.67 2997.71 2997 2998 2995.17 2997.51 2996.64 2995 2997.01 2997.11
2992.75 2993.71 2993.5 2993 2992.25 2990 2986.21 2986.02 2982.61 2980.67
2979.47 2977 2975.12 2973.94 2976.69 2979.97 2986.55 2990.2 3003.07 3012.51
3016.94 3019.96 3020.08 3007.83 2983.28 2997.8 3010.55 3012.44 3007.55 2989.32
2984.07 2973.77 2964.07 2966.11 2967.98 2980.25 2985.05 2989.1 2996.79 2997.14
3003.95 3001.05 3006.1 3013.75 3014.97 3017.66 3021.11 3020.64 3030 3027.54
3028.72 3029.62 3035.54 3037.96 3038.88 3038.13 3035.8 3034.69 3039 3039.11
3042.12 3043.34 3039.17 3039.16 3042.1 3043.02 3043.89 3046.67 3046.12 3044.24
3045.41 3047.18 3059.24 3093.28 3108.62 3114.23 3120.61 3129.91 3126.39 3093.69
3110.59 3143.53 3152.31 3157.55 3161.08 3164.37 3166.9 3170 3168.19 3166.9
3148.13

2976.58 2997.08 3034.69 3056.7 3055.35 3052.34 3050 3040.78 3016.05 2993.53
2981.58 2954.61 2933.67 2904.56 2881.69 2871.45 2868.05 2867.93 2867.31 2867.85
2866.38 2868.47 2868.79 2868 2865.99 2862.96 2857.99 2858.18 2857.99 2856.18
2856 2855 2855.89 2855 2854.06 2854.85 2854.92 2853.01 2855.47 2874.48
2880.55 2880 2881 2885.61 2887.81 2889.84 2890.15 2891.76 2893.64 2894.5
2895.49 2897.27 2900 2900.28 2901.86 2902.01 2903 2905 2906.13 2906.85
2907.04 2908.26 2909 2911 2911.85 2915 2917 2918 2920 2920.93
2923.72 2924.93 2924 2923.95 2925.65 2926.43 2928.29 2929.67 2929.86 2931.02
2934 2934.37 2936.62 2936 2938.84 2941.44 2941.94 2943.5 2943 2945
2945 2944.71 2946.16 2949.15 2947.11 2948 2948.75 2948.96 2949 2950.42
2953.7 2954.96 2954 2954 2953 2953 2954 2956 2954.98 2954.47
2954.74 2955.4 2956.29 2957.69 2958 2956.73 2951 2952.35 2952.93 2954
2952.9 2953.2 2953 2952.28 2952.78 2957.02 2959 2955.44 2954.6 2956
2954.14 2950.97 2955 2954.24 2951 2946.98 2949.46 2947 2945.83 2943.12
2940.58 2939.96 2939.82 2939.51 2937.16 2934.93 2934.13 2935.82 2934.61 2930.88
2930.11 2926.96 2925.64 2925 2923.48 2922.3 2921.64 2921.08 2919.99 2919
2915.6 2916.8 2914.99 2913.12 2911 2909.99 2911 2911.97 2917.28 2919.88
2924.96 2925.56 2929.01 2933.95 2937.87 2940.17 2943.79 2947.17 2950.75 2955.26
2956.29 2961.21 2964.6 2967 2973.18 2975.89 2977.97 2981.67 2982.6 2984
2985.96 2990 2988.96 2991 2993.43 2995.16 2996.88 2998.99 2997.02 2999.44
3001.77 3001.37 2998.6 3001.39 2999.78 3000.89 3001.91 3000.21 3000.11 3002.03
3000.25 3001.46 2999.61 2997 2995.22 2993.34 2993.54 2990 2987.15 2986.88
2984.48 2982.01 2980.11 2981.44 2986.86 2988.33 2994 3003.29 3018.03 3021.65
3022 3022.85 3020.58 3004.16 2986.54 2999.56 3008.99 3009 3008.69 3001.86
2990.96 2985.59 2972.05 2968.62 2971.15 2979.48 2987.8 2993.71 2998.8 3003
3007.61 3008.46 3011.85 3016.19 3019.89 3022.66 3025.88 3029.12 3031.04 3030.81
3033.95 3036.8 3039.27 3038 3040.73 3045.86 3044.81 3039.86 3040.66 3044
3047.89 3048.99 3044.96 3042.85 3043.78 3048.23 3048.36 3050.69 3049.92 3051.23
3050.17 3052.3 3071.35 3106.59 3123.93 3126.04 3129.21 3137.29 3137.72 3104.59
3120.72 3149.5 3162.1 3164.57 3164.78 3167.69 3169.99 3169.86 3167.81 3157.16
3125.34

2970.47 2993.51 3018.93 3027.8 3024.25 3021.12 3018.56 3001.14 2980.5 2969.59
2950.84 2934.36 2910.53 2894.19 2879.41 2872.99 2869 2867.35 2869 2867.43
2869 2865.39 2869 2865.49 2865.98 2861.38 2860 2860 2857.71 2858.07
2857 2854.06 2855.55 2854.9 2855.04 2855 2854.83 2856.21 2865.73 2880
2883 2883 2882.05 2884.83 2887.88 2890 2891.82 2894.96 2895.02 2896
2898.14 2899 2901 2902.11 2904.06 2905 2904 2905.5 2907.11 2910
2910.24 2910.29 2909.01 2913.48 2914.85 2916 2917.03 2920.09 2920.93 2923.13
2924.34 2924.73 2925.65 2926.45 2928 2928.75 2930.99 2932 2932.26 2936.06
2936 2937.87 2940.11 2940.16 2942.12 2943.69 2944 2945.02 2944.94 2947.94
2946.98 2947.06 2950 2950.81 2949.54 2950.07 2951.94 2953.61 2954.28 2953.93
2954 2956.96 2956.13 2957.02 2956.18 2956.78 2958 2954.98 2957.5 2958
2959 2958 2958.99 2960 2959.88 2959 2954.56 2953 2953.01 2953.88
2956.67 2957.85 2953.77 2953.98 2960.65 2959.33 2958.79 2957 2959 2958.94
2956.98 2956.99 2955.03 2954.79 2955 2951.67 2949.95 2948.9 2948 2946
2942.99 2942 2942.61 2943.9 2941.76 2940.98 2941 2936.58 2934.66 2931.68
2931 2932 2930.9 2927.28 2927.98 2923.06 2924 2923.99 2923.65 2922.99
2918.79 2919 2914.97 2914 2914.93 2914.8 2914 2916.11 2920.01 2923.28
2926.93 2929 2932.1 2938 2939 2943 2948.02 2951 2955.1 2958.94
2965.26 2966.49 2969.88 2973.84 2975.74 2978.85 2982.85 2984.06 2985.46 2989.3
2991.02 2993.02 2996.97 2995.41 2996.78 3002.21 3000.87 3002 3004 3003.75
3004.98 3004.12 3005.17 3006.19 3004.89 3009 3006.72 3005.33 3005.43 3003.93
3004.05 3003.46 3002.67 3000.83 3000.02 2997.23 2995.93 2993.99 2994.03 2992.74
2991.54 2986.89 2984.23 2989.71 2995.67 2998.14 3010.24 3023.39 3024.06 3026.1
3024 3019.99 3013.98 3003.65 2988.99 2996.83 3003.69 3005.95 3007.99 3005.67
3000.96 2992.78 2980.68 2973.76 2975.49 2977.5 2985.97 2996.27 3001.28 3006.28
3009.13 3012.92 3020.01 3023 3026.06 3029.62 3034.78 3034.96 3038 3038.07
3040.44 3042.18 3042.2 3044.38 3045.69 3047.86 3048.06 3045.05 3045.99 3050.71
3052.11 3053.36 3051.04 3045.9 3047.01 3049.62 3052.32 3053.56 3055.82 3056.02
3056.03 3060.87 3084.01 3116.79 3133.54 3138.66 3140.71 3146.14 3150.15 3118.99
3126.1 3151.85 3166.29 3172.43 3173.62 3171.89 3172.23 3173.26 3165.7 3128.96
3104.22

2961.33 2982.2 2990.94 2997.78 3001.32 3000.19 2998.99 2995.71 2977.03 2963.86
2941.49 2924.04 2904.83 2888.62 2879.46 2873.62 2868.46 2868 2869.03 2867.69
2866.36 2868 2868 2865.43 2865 2861.98 2859.14 2858 2856.72 2858.97
2858.18 2856 2855.08 2854.49 2856.59 2855.31 2855 2860.33 2879.83 2883
2882.52 2885 2887 2886.56 2889.9 2891.92 2893.07 2896.08 2896.91 2897.93
2900.1 2902.96 2904.46 2905.65 2904.56 2908 2907.07 2909.34 2909.02 2910.01
2912 2911.15 2914 2914.88 2916.12 2916.07 2919.44 2920.92 2920.1 2924
2925 2924.93 2926.92 2929 2932 2931.16 2933.57 2933 2935.14 2936.14
2937 2940 2941.74 2944 2944.98 2946 2945.09 2948 2949 2947.97
2950 2950.47 2952.13 2952.02 2951.72 2953.33 2955 2955.89 2956 2955.61
2957.65 2958.14 2960.14 2960.72 2959.52 2959.08 2958 2958.93 2960.33 2961.07
2961 2961.97 2963 2962.91 2962.64 2960.1 2955.95 2956.02 2956.07 2956.94
2958.01 2958.96 2956.96 2957.28 2963 2962.92 2960.13 2961.46 2961.79 2960.48
2958.61 2958.99 2956 2956.9 2955 2953.09 2954.74 2951 2949.08 2947.95
2945 2945.87 2944.91 2944.13 2942.65 2942.86 2941.07 2939.12 2936.34 2936.69
2936.99 2933.71 2932 2933.99 2928.91 2928.61 2927.38 2928.43 2925.52 2924.44
2923.98 2920.83 2917.98 2918 2915.07 2917 2917.82 2921.84 2921.93 2924.12
2929.93 2930.15 2935 2937.41 2941.84 2945.93 2950.38 2953.61 2956.66 2961.08
2966 2969.06 2971.23 2975.41 2979.5 2982.36 2986.07 2986.3 2992.08 2992.21
2995.52 2997.74 3000.13 2999.59 3002.46 3006 3006.01 3005.77 3007.02 3008.06
3009.1 3009.12 3010.18 3011.24 3009.57 3011.85 3010.12 3010.1 3010.13 3009
3009.46 3009.28 3007.96 3006 3005.73 3001 2999.11 2999.59 3000 2998.62
2995.06 2991.78 2996.22 3008.16 3015.59 3026.39 3028.02 3030.15 3028.43 3027.98
3024.05 3018.11 3012.98 3000.51 2992.78 2999.93 3006.78 3006.39 3007.38 3006.11
3006.2 3004.36 2996.72 2984.44 2978.17 2980.29 2987.17 2997 3004.92 3011
3014.01 3018.43 3022.25 3028.03 3030.59 3036.41 3038.63 3042.93 3045.92 3043.59
3047.91 3047.92 3048.28 3051.14 3050.79 3052.54 3054.11 3048.9 3051.34 3053.47
3057.17 3058.96 3053.07 3050.08 3051.09 3054 3056.11 3060.69 3061.91 3060.27
3061.35 3066.69 3095.71 3131.21 3139.54 3148.03 3150.63 3150.93 3155.06 3134.29
3131.48 3160.99 3178.04 3177.07 3177.12 3174.9 3178.29 3174.69 3157.81 3123.76
3096.89

2953.43 2972.46 2973.92 2982.35 2995.91 3012.89 3017.98 3016.48 3004.59 2992.91
2969.56 2944.14 2914.44 2886.2 2876.39 2873 2870.88 2868.77 2870 2868.58
2870.9 2867.68 2865.98 2867 2865.92 2861.2 2860.97 2857.85 2857.98 2858.63
2857.28 2856 2856 2855.23 2856.92 2855 2856.29 2863.53 2882.39 2885.73
2885.59 2886.98 2887 2889.06 2891.72 2893.99 2894.93 2897.99 2898.35 2899.91
2901.93 2903.65 2905 2906 2906.47 2909.98 2909.4 2911 2911.72 2911.96
2912.07 2914.62 2915.06 2917 2918.08 2919.4 2921.94 2924.37 2924.76 2925.96
2926.01 2929.46 2929.66 2931.81 2934 2935.8 2935 2935.52 2939 2937.2
2941 2940.19 2944.31 2944.92 2944.97 2946.5 2949.15 2950.93 2951.95 2949.29
2950.73 2952 2955.99 2955.1 2955.57 2956.05 2956 2958 2959.06 2959.42
2959.12 2961.78 2961 2962.34 2961.53 2960.59 2961 2961.19 2961.94 2962.92
2962.74 2962.8 2964.13 2964.5 2966.8 2960.36 2958.11 2958.01 2961.15 2960.85
2960 2958.71 2958.02 2962.46 2964.1 2964.05 2962.97 2964.03 2963.96 2963.12
2960.94 2959.35 2958.87 2959 2958.13 2956.23 2954.03 2952.94 2951.99 2948.97
2946.43 2947.64 2948.49 2946.05 2945.21 2945 2943.27 2941.7 2941.16 2939.62
2938.94 2935.38 2935 2936 2931.05 2930.54 2931 2931.95 2928.27 2929
2923.97 2922.77 2919.97 2918.18 2917.01 2920.64 2921.14 2923.38 2923.87 2928.6
2932.08 2936 2938.7 2941.44 2946.54 2948.5 2952.15 2954.93 2960.81 2964.25
2968.29 2971 2974.21 2978.13 2982 2984.19 2987.13 2992.74 2996.13 2998
2999.46 3003.36 3003.92 3004.98 3005.32 3007.64 3009.01 3011.82 3012.2 3012.07
3014.09 3013.93 3013.71 3017.41 3016.71 3016.89 3017 3017.24 3013.19 3012.97
3016.3 3012.48 3013.64 3010.93 3007.31 3007.34 3006.75 3007.61 3005.08 3002.38
2999.56 3004.04 3021.01 3031.41 3032.02 3038.61 3038.02 3038.13 3036.32 3030.34
3023.37 3016.24 3007.63 3001.09 2998.09 3006 3008.77 3008 3008.59 3014.86
3016 3014.64 3010.05 2997.86 2987.01 2985.97 2986.01 2995.82 3007.6 3012.02
3015.99 3021.45 3027.01 3032.82 3036.99 3041.37 3044.64 3048.2 3053.54 3051.01
3051.97 3052.07 3052.09 3054.59 3056.68 3056.89 3057.21 3054.22 3055.54 3057.92
3060.98 3061.02 3060.5 3056.08 3056.09 3058.55 3060.56 3063 3065 3066.82
3066.32 3072.44 3115.36 3143.28 3148.08 3153.61 3160.89 3162.1 3169.22 3152.25
3136.6 3167.98 3182.17 3185.69 3186.74 3191.14 3192 3186.96 3153.1 3121.81
3105.34

2949.91 2964.21 2980.32 2987.84 3009.53 3019.99 3018.89 3013.7 3006.78 2998.97
2975.63 2943.46 2907.08 2879.13 2872.27 2872.33 2869.05 2870.08 2869.62 2870.4
2870.7 2866.38 2866.35 2866.96 2865 2859.99 2860 2859.48 2857.5 2859.13
2859.68 2853.75 2855.24 2855.82 2855.05 2856.82 2862.2 2877.18 2883.88 2885.97
2888.45 2889.13 2890.88 2892.65 2894 2895 2897 2897.72 2901.03 2901.45
2903.09 2905.11 2908 2906 2910.01 2911.14 2913 2912 2915 2915
2915.95 2918.17 2919 2919.76 2919.8 2923 2923.02 2926.03 2928 2928.17
2929 2930.63 2933.51 2934 2935 2937 2936.47 2941 2939.4 2940
2943.66 2945 2945.13 2948.99 2948.02 2947.34 2951 2951.89 2954.14 2954.2
2953.07 2955.05 2956.15 2958 2957.99 2959 2960.85 2960.82 2963.36 2961.63
2962.63 2962.89 2963.44 2964.97 2964 2963 2964.74 2964.16 2964 2965
2965 2965.82 2967.07 2967.2 2966.07 2961.84 2960.09 2959.73 2962 2962.91
2962.8 2961.73 2963 2967 2969.09 2968 2966.93 2966.32 2966.8 2966.77
2962.01 2962.69 2962.99 2961 2959.13 2959 2957.99 2952.37 2951.04 2950.12
2951.02 2952 2949 2949 2947 2947.32 2946 2944.98 2943.61 2940.05
2941.48 2938.6 2936.12 2934.25 2934.95 2934.38 2934 2931.92 2929 2927.99
2927.08 2925.12 2924 2920.97 2921.92 2923.01 2926.46 2927.01 2928.03 2929.39
2934.9 2935.53 2940.02 2943.03 2947.35 2952 2954.2 2959.14 2963 2966.19
2970.19 2974 2975.08 2980.88 2984.02 2987.4 2992.93 2995.06 2998.77 2999.98
3003 3006.36 3008.91 3009.71 3011.01 3009.99 3013.16 3016.96 3017.99 3017
3019.66 3020.05 3017.06 3020.33 3020.07 3021.28 3020.67 3018.8 3018.71 3019.83
3020.97 3017.09 3016.99 3012.92 3013 3012.44 3011.63 3011.99 3013.01 3008.79
3015.1 3030.13 3042.32 3047.54 3045.47 3044.63 3043.69 3040.88 3036.04 3033.59
3024.7 3017.33 3010.85 3004.86 3002.8 3011.93 3011.16 3011.97 3015.42 3017.75
3021.08 3025.46 3022.61 3015.51 3003.08 2997.84 2990.46 2993.13 3004.3 3016.62
3019.72 3028 3033.23 3037.99 3041.56 3046.67 3050.34 3053.13 3058.43 3059.89
3060.51 3056.17 3057.25 3062.03 3062.64 3065 3065.93 3061.48 3060.46 3063.95
3064.94 3068.27 3068.4 3064.78 3060.08 3062.02 3063.42 3068.35 3069.76 3069.66
3070.05 3083.2 3128.67 3148.39 3157.81 3163.85 3172.82 3173.56 3175.01 3161.57
3145.81 3173.64 3187.32 3198.48 3202.48 3202.39 3197.98 3187.04 3152.78 3119.95
3119.93

2959.44 2987.19 3010.5 3012.76 3015.45 3030.32 3026.65 3008.22 2992.04 2985.45
2968.85 2931.22 2885.29 2876.01 2871 2870.97 2870.12 2870.38 2870.41 2870.35
2871.95 2866 2865 2866.03 2864 2859.91 2859.89 2859.78 2857.01 2858.95
2859.2 2857.66 2858 2859 2857.28 2857.01 2864.67 2884.41 2886.29 2887
2887.95 2889.99 2891.98 2894 2894.79 2896 2898.34 2900 2903 2903.81
2905.15 2907 2908 2908.4 2911.13 2913 2914.98 2914 2916.65 2917.78
2916.01 2918.43 2920 2920.64 2922.54 2924 2924.51 2926.09 2930 2931.01
2932 2929.07 2931.36 2933.95 2937 2940 2939.57 2940.92 2940.28 2943
2945 2946.72 2948.64 2949 2949.98 2952.57 2952.65 2955.8 2955.16 2954.71
2957.08 2958.74 2958.94 2959 2960.02 2962.65 2963.13 2963 2964.01 2964.57
2966 2966 2967 2968 2966 2966.04 2967 2965.31 2967.04 2968.01
2967.81 2968.17 2970.27 2971 2969 2964.81 2962.16 2962.12 2964.93 2963.94
2965.13 2962.2 2965 2970.3 2970.99 2969.06 2969.02 2966.99 2967.78 2968.11
2964.98 2964.41 2963 2964.7 2962.03 2962.17 2958.5 2957 2954.83 2956.11
2957 2951.6 2950 2950.14 2949.95 2949.92 2947.08 2946 2945.04 2944.03
2944.07 2942.21 2940.2 2939 2937.51 2936 2934.99 2932.9 2930.39 2931.99
2928 2924.09 2922.55 2921.97 2921.09 2923.76 2928.19 2931.02 2932.07 2932.76
2935.78 2938.24 2942.44 2948 2948 2952.99 2956.32 2962.01 2965.61 2967.76
2971.62 2977.32 2982.1 2984.5 2989.15 2991.48 2997.25 2999.27 3001.41 3004
3007.46 3009.86 3012.87 3014 3014.7 3016.08 3017.11 3019.96 3021.26 3022.42
3023.19 3025.11 3023.2 3025.64 3026 3025.82 3024.98 3024.96 3025.3 3027.16
3025.79 3022.06 3019.1 3017.11 3018.26 3018 3018.18 3019.86 3018.09 3021.99
3040.02 3047.65 3053.93 3055.22 3052.95 3050.16 3049.79 3045.9 3038.87 3034.06
3024.01 3016.06 3014.02 3011.04 3011 3013 3015.58 3018.08 3022.94 3023.51
3026.11 3033.85 3036.07 3035.63 3033.59 3008.81 2995.92 2995.07 3003.18 3018.23
3023.56 3030.02 3033.03 3041.16 3046.92 3049.1 3055.89 3057 3062.89 3066.41
3068.18 3067.96 3067.21 3068.52 3069.1 3071.08 3073 3071.18 3063.69 3067.07
3068.14 3070.88 3073 3070.97 3064.14 3066.53 3068.36 3069.97 3072.96 3072.37
3076.05 3086.64 3134.76 3156.38 3161.05 3168.52 3174.09 3178 3181.01 3171.74
3151.71 3183.67 3200.19 3211.9 3209.99 3205.91 3194.78 3181.28 3152.59 3121.62
3127.04

2970.89 3004.32 3020.34 3026.66 3042.88 3045.07 3026.33 3001.13 2982.54 2964.25
2933.56 2899.44 2876.43 2872 2871.06 2871.41 2871 2871.98 2871 2871
2870 2867 2867.98 2868.57 2862.49 2861 2859 2859.85 2857.65 2860
2858.99 2857.59 2857.99 2858.95 2858.24 2856.85 2866.66 2886.99 2886.93 2887.05
2891.79 2891 2892.34 2894.57 2896.2 2897 2899.98 2902 2902.92 2904.79
2907 2908.99 2909.01 2911.01 2913.85 2915 2915.29 2915.46 2919.71 2918.81
2918.01 2919.94 2922.58 2922.64 2925.93 2925.16 2927.44 2927.27 2930.99 2933.01
2932.81 2932 2936.72 2937 2937 2941.96 2944.93 2943.02 2945 2944.25
2945.98 2950 2950.11 2951.9 2953.58 2956 2955.69 2956.51 2957.96 2960.21
2959.16 2960 2960.89 2961.55 2962.44 2964.01 2965 2965.66 2965.34 2965.62
2966.96 2967 2967.99 2968.05 2969.52 2969 2969.74 2969 2971.35 2970.38
2969.65 2970.8 2971 2972.45 2971.99 2968.76 2965.14 2967.01 2967.19 2967
2967.77 2966.08 2966.43 2971.8 2971.76 2971.97 2972 2972.61 2973 2969
2967.88 2966.67 2967.57 2966.67 2963.93 2964 2959.96 2957.32 2960 2956.02
2956.99 2957 2955.19 2954.87 2953.19 2953.45 2952.53 2948.82 2948.13 2946.31
2947.31 2944.11 2941.38 2939 2937.78 2937.33 2934.12 2936.14 2933.69 2932.26
2930 2928 2927.11 2923.32 2924 2924.79 2929.17 2933.97 2933.01 2935
2937.11 2939.96 2945.35 2951.19 2952.71 2954.53 2959.69 2964 2966.53 2970.66
2976 2979.36 2983.43 2989.82 2991.15 2996.29 2998.62 3003.23 3006 3009.21
3013.46 3014.74 3018.07 3018.11 3021.33 3023.56 3021.02 3023.99 3024.53 3028.42
3028.65 3029.97 3028.16 3028.4 3029.57 3031 3032 3028.3 3027.84 3030
3028.39 3027.93 3024.5 3023.15 3025.16 3022.59 3023.68 3025.13 3026.08 3045.1
3056.38 3057.01 3058.79 3062.29 3058.52 3054.13 3052.54 3048.15 3042.21 3035.06
3024.36 3021.4 3020.27 3017.26 3014.86 3016.97 3019.53 3023.22 3027.04 3032
3036.22 3040.96 3054.62 3060.8 3058.89 3035.21 3010.18 3001.27 3003 3012.02
3027.79 3033.82 3040.1 3043.79 3050.75 3054.09 3059.55 3062.78 3070.72 3069.67
3074.68 3076.18 3076.16 3075.28 3077.74 3079.89 3079.21 3073.05 3067.76 3071.22
3073.15 3075.09 3077.34 3075.78 3073.06 3070.84 3073.26 3074.09 3076.04 3076.46
3080.39 3087.61 3137.88 3159.19 3166.26 3173.5 3178 3183.39 3185.98 3186.02
3164 3191.2 3209.21 3212.96 3209.39 3195.88 3185.9 3168.14 3140.53 3134.2
3149.15

2977.27 3001.43 3018.16 3046.23 3057.8 3045.71 3001.33 2983.51 2970.54 2944.9
2908.17 2887.13 2873.27 2871.99 2872 2873 2873 2872.08 2871 2871
2869.92 2869.9 2869.99 2866.05 2866 2861.3 2856.16 2862 2860.44 2858.08
2859 2858 2859 2858.18 2858.16 2857.26 2874.55 2886.08 2888 2890.13
2892 2893.98 2895.44 2897.02 2898 2898.67 2900.56 2902.81 2903.68 2906.65
2907.64 2910.98 2912.26 2914.81 2915.92 2915.5 2916.98 2920.47 2921.99 2920.46
2922 2922.03 2923 2924.86 2927 2928 2930 2928.21 2933 2933.12
2934.98 2936.06 2936.9 2938.98 2939.02 2940.6 2943.99 2943.96 2946.02 2947.53
2951.48 2951.02 2952.13 2953.95 2955 2957.52 2958.03 2959.04 2961 2962.3
2961.65 2961.59 2962.99 2964.06 2965 2967.01 2967.13 2968.18 2968.18 2968.96
2968.43 2968.08 2971.23 2970.93 2971.6 2972.97 2971.99 2973 2973 2974
2973 2973 2974 2974 2973 2969.25 2969.01 2967.64 2970.29 2974
2970 2969 2969.17 2974 2974.95 2974.06 2973.81 2977.94 2975.36 2972.85
2971.2 2971.19 2970 2968.17 2964.07 2964.29 2964.37 2959.3 2961 2960
2961 2960.73 2960.64 2957.43 2954.99 2953.94 2953.34 2952.11 2952 2950
2949.77 2946.57 2945.5 2942 2941.72 2941 2936.01 2938.14 2936.83 2932.85
2929.9 2930.79 2931.95 2928.42 2929.31 2930.86 2931.6 2934.52 2937 2941.21
2943.89 2943 2944.59 2951.15 2955 2957.68 2961.3 2966 2970.11 2974.08
2977 2981.19 2986.16 2992 2995.16 2997.09 3002.54 3004.99 3010 3012.17
3016.94 3018.89 3020.91 3021.9 3026.38 3027.89 3029.39 3029.24 3030.68 3032.36
3034.25 3035.91 3034.09 3033.18 3035.58 3034.31 3035.9 3034.18 3032.98 3035
3034.35 3032.93 3029 3030.01 3033.01 3030.51 3031.83 3033.33 3040.53 3059.77
3066.55 3068.38 3066.25 3068.02 3061.96 3060.16 3054.5 3049.73 3042 3034.13
3031.18 3029.11 3026.31 3025.55 3024.63 3024.05 3026.15 3028 3032.76 3039
3044.05 3055.06 3069.93 3075.46 3081.88 3077.49 3032.57 3016.33 3009.88 3008.52
3025.91 3039.16 3045.56 3050.18 3054.04 3059.67 3064.27 3068.33 3070.36 3075.61
3079.95 3083.01 3084.01 3081.5 3083 3083 3085.05 3080.12 3073.73 3075.7
3078.15 3081.03 3081.46 3081.6 3078.72 3075 3075.94 3077.98 3080.72 3083.02
3086.03 3087.84 3134.35 3168.26 3178.02 3182.49 3190.21 3193.1 3196.6 3195.86
3171.32 3189.86 3204.35 3202.37 3196.57 3188.67 3179.19 3171.28 3145.93 3147.97
3154.04

2999.43 3015.08 3040.94 3045.86 3045.42 3017.07 2982.94 2965.07 2950.08 2910.99
2886.31 2873.23 2873.11 2869.78 2871.79 2873 2873 2872.18 2871 2869
2870.95 2871.31 2870 2867.98 2865.97 2862 2858.87 2861.98 2860 2859.62
2859.52 2858 2859 2858.76 2857.65 2859.93 2879.7 2887.7 2888 2890.71
2893.56 2894.35 2896.99 2897 2899.12 2900.49 2903.45 2904.04 2906.96 2908.45
2910.14 2911.33 2915 2916.73 2917.89 2919.02 2919.23 2923.47 2922.16 2923.83
2924.02 2926.03 2925.45 2926 2928.08 2929.14 2931.05 2931 2933.74 2935.15
2938.55 2939 2939.59 2940 2943.2 2944 2943.76 2946.88 2952.92 2952.39
2953.66 2954.3 2954.12 2958 2958 2959.59 2960.99 2961 2962.01 2965
2965.23 2963.11 2964.16 2966.02 2965.92 2968 2970 2971 2970.96 2972.6
2971.97 2972.98 2973.59 2976 2974.4 2975.29 2976.73 2974 2974.03 2976.07
2975.91 2976.13 2975.98 2975.62 2976.07 2970.81 2971 2970.3 2971.25 2974
2970.76 2970 2972.24 2977.36 2976.12 2976.14 2975.27 2977 2976.27 2974.09
2973.6 2975 2970.72 2968 2967.86 2965.99 2965 2965 2963.86 2963
2963 2961.07 2961.1 2959.57 2958.1 2956.99 2957 2957 2953.65 2952
2950 2948.67 2947.98 2945 2944.03 2939.8 2940 2939.98 2939.5 2937.28
2934.04 2931.12 2932.21 2931.37 2932.25 2933.95 2932.93 2936.97 2939.07 2944
2944.88 2948.05 2948.68 2953.21 2955.22 2961.1 2962.03 2967.02 2973 2976.85
2979.97 2983.01 2988.03 2993.71 2996 3003.39 3005.32 3009.25 3011.15 3016.01
3019 3020.08 3023.34 3029 3031 3032.27 3034.11 3034.99 3036.02 3038.47
3037.75 3039.13 3038.06 3037.38 3038.08 3039.79 3039.94 3040.13 3041.4 3042.98
3039.37 3037.25 3035.32 3035.98 3035.45 3036.45 3039.24 3039.35 3051.81 3068.64
3072.13 3074 3074.14 3072.21 3065.74 3062.92 3056.8 3050.5 3041.21 3041.6
3037.1 3037.21 3033.91 3032.84 3033.85 3034.88 3033.06 3032.19 3040.65 3046.62
3055.3 3064.97 3075.68 3092.38 3104.84 3105.62 3043.4 3025.79 3017.27 3013.19
3018.38 3039.89 3047.25 3053.22 3059.96 3061.54 3067.76 3073.03 3076.97 3078.07
3083.76 3087.13 3089.26 3086.32 3086.08 3088.78 3090.11 3089.54 3080.69 3080.88
3082.78 3086.34 3087.55 3087.71 3087.93 3079.44 3079.86 3084.37 3086.09 3088.24
3088.39 3091.53 3143.01 3181.58 3190.45 3195.12 3201.85 3207.97 3208.96 3203.18
3178.86 3176.14 3186.75 3188.51 3186.09 3189.89 3188.1 3175.06 3151.61 3165.63
3176.77

3012.9 3040.44 3043.5 3045.82 3012.76 2990.28 2968.15 2947.28 2918.75 2891.3
2879.23 2874.88 2874.98 2874 2872 2872.95 2871.88 2872 2871.25 2868.8
2867.6 2868 2869.99 2865.67 2863.55 2863.52 2861.75 2860.99 2860 2859.41
2859.97 2858 2858 2860 2859.06 2866.57 2889.47 2890.09 2889.27 2893.82
2895.32 2895.38 2897.35 2901 2901 2904 2904.24 2907.95 2908.56 2910.9
2912 2914 2915.08 2916.9 2920.78 2920.15 2920 2924 2923.97 2925
2926.61 2927 2927.55 2927.01 2930.88 2932.27 2932.29 2936.26 2937 2938.94
2938.5 2940.37 2942.67 2942.76 2945.38 2945.99 2946 2945.51 2949.31 2951.12
2956 2954.97 2956.03 2959.98 2960.3 2962.49 2961.68 2962.9 2965 2966.39
2966.05 2967.95 2968.94 2971.27 2970.72 2971.92 2971.79 2972.48 2972.74 2975.21
2977.29 2977 2975.94 2976 2975.46 2976.64 2977 2977.17 2978.82 2979.49
2978.61 2979.9 2980.22 2979.02 2977.52 2973.7 2972.75 2974 2972 2970.99
2971.94 2972.63 2978.34 2981 2980.75 2978.96 2977.97 2977.49 2977.56 2979
2976.04 2974.97 2971.23 2970 2968.97 2968.17 2965.38 2964.92 2968 2966.65
2964 2962.58 2962.61 2961 2960.99 2959.3 2959.49 2958.99 2956.16 2955.36
2955.42 2954.67 2951.27 2949.4 2949.37 2943.72 2941.04 2940 2938.64 2938
2938.26 2935.12 2935.24 2935.34 2934.16 2934.78 2935.99 2936.35 2939.93 2942.21
2946.14 2949.22 2952 2956.84 2959.7 2962.85 2967.19 2970.48 2975.62 2981.02
2984.41 2985.95 2990.18 2995.42 2999.42 3004.68 3009.4 3012.4 3016.37 3018.84
3023.1 3024.93 3030.17 3032 3032.19 3035.49 3040 3038.85 3040.35 3042.04
3041.65 3042.15 3044.13 3042.37 3043.49 3044.75 3045.85 3044 3045 3046.93
3044.15 3041.58 3041.71 3040.15 3044 3042.38 3045.61 3044.98 3064.06 3077.78
3078.53 3078.34 3077.11 3077.19 3070.83 3063.67 3059.79 3052.06 3049.87 3047.56
3047.79 3046.25 3044.51 3040.12 3041.78 3046.87 3044.43 3044.99 3051.77 3059.98
3065.6 3078.78 3093.55 3114.89 3119.74 3110.04 3063.27 3045.34 3027.95 3020.38
3017.57 3019.81 3043.36 3056 3061.19 3065 3068.7 3073.75 3077.04 3081.64
3085.98 3093 3094.88 3094.46 3091.77 3093.61 3097.65 3097.41 3094.48 3086.24
3089.99 3090.56 3093.16 3093.2 3095.04 3093.05 3088.96 3088 3089.15 3090.17
3093.49 3095.08 3122.85 3185.11 3194.73 3202.62 3210.71 3212.79 3207.97 3200.15
3180.1 3174.64 3184.76 3190.72 3192.48 3193.8 3196.21 3179.4 3166.3 3182
3185.42

3019.35 3038.91 3039.32 3020.1 2996.59 2974.7 2949.91 2926.02 2901.76 2888.01
2875.15 2874.07 2875.29 2877.99 2874.58 2873.97 2873 2871.13 2871.9 2870
2868.65 2870.98 2870 2865.73 2866.92 2865.89 2860.22 2860 2858.52 2859.78
2861 2858.13 2860 2861 2862.36 2881.07 2890.13 2890.98 2892.6 2894
2896.01 2898.17 2898 2901 2901.15 2905.07 2907 2909 2910 2911.02
2912.98 2915.01 2918 2918.07 2921.46 2923.92 2925.01 2924.02 2926.06 2926.12
2927.61 2928.62 2930 2930.23 2931.14 2932.72 2932.71 2936.09 2937.8 2939.97
2941.02 2942 2944 2944 2947 2950.96 2950.93 2951 2952.96 2955
2957.04 2957.69 2958.68 2961 2962 2964 2966 2964.83 2968 2967.96
2970.92 2970.39 2972 2973 2973 2973 2974 2975 2976 2975.93
2979 2979 2977.04 2978.03 2979 2979 2979 2980.11 2979.31 2982.36
2983 2981 2981.62 2982 2981.01 2976.71 2973.5 2976 2974.99 2976.99
2974.02 2975.32 2980.45 2984.76 2984.49 2981.62 2979.03 2980.11 2981.99 2979
2977 2975.37 2975 2971.8 2970.99 2971.99 2969 2966.99 2968.07 2968.15
2966.6 2966.47 2963.7 2962.91 2962 2961.5 2962.07 2960.8 2957.56 2958
2957 2955.59 2954 2951.59 2949.08 2944.46 2944 2947 2945.66 2941.03
2940 2939.55 2938 2937.7 2938.07 2938.1 2938.11 2942 2945.59 2947.41
2949.55 2951.66 2954.56 2957 2961.93 2966.4 2970.06 2972.98 2978.31 2981.93
2983.91 2988.16 2992.94 2999 3001.36 3008.06 3011.01 3013.14 3017.27 3022.33
3026.14 3030.1 3035.59 3036.05 3037.69 3041.43 3042.7 3047.04 3044.31 3045.5
3047 3049.36 3051 3046.82 3048.65 3049.84 3048.98 3050 3051.42 3048.99
3048.43 3045.92 3046.54 3046.84 3049.48 3050.89 3052.24 3052.13 3064.93 3084.3
3086.44 3084 3079.13 3077.79 3068.64 3067 3060.24 3054.29 3056.78 3057.33
3056.24 3053.12 3054.15 3053.17 3056.69 3056.15 3057.5 3057.61 3068.3 3084.89
3083.33 3086.22 3098.49 3124.52 3135.53 3120.99 3081.45 3052.83 3033.01 3027.49
3026.46 3023.76 3025.19 3052.16 3061.73 3067.22 3073.01 3078.14 3083.65 3086.77
3091.35 3094.97 3100.4 3102.4 3099.66 3101.7 3104.13 3103.06 3101.4 3093.64
3092.13 3098.34 3099.47 3099.97 3102.16 3104.32 3097.01 3094.67 3096.97 3097.97
3099.3 3099.62 3115.24 3173.23 3198.58 3207.9 3211.65 3211.86 3200.01 3191.38
3182.58 3184.14 3195 3195.74 3199.63 3201.1 3201.82 3188.6 3175.29 3189.16
3194.29

3011.52 3020.79 3006.87 2998.25 2982.6 2966.79 2930.36 2903.61 2885.99 2879.97
2875.59 2874.95 2876.09 2877.69 2871.89 2871.42 2873.89 2873.81 2871.17 2870.42
2869.9 2869 2868.87 2865.29 2865.99 2868.73 2866.91 2860.32 2858.67 2859.94
2860.99 2860.84 2860.59 2860.51 2866.02 2889.84 2894 2892.81 2894 2896.1
2897.95 2899.17 2899.02 2902.63 2905.59 2904.23 2907 2909.24 2911.01 2913
2915.01 2918.43 2918.99 2920.94 2922.4 2923.47 2927.55 2928.05 2928 2929.08
2929.99 2931 2932.86 2932.3 2932.79 2933.79 2936 2937.97 2939.01 2941.94
2945.25 2944.49 2946.47 2947.88 2948.12 2949.58 2949.84 2950.69 2953.54 2955.75
2958.56 2959.5 2961.69 2962.99 2964.99 2965.87 2968 2969.44 2972.95 2973.32
2971.79 2972.7 2972.15 2974 2973.82 2975 2977 2977.16 2978 2978.94
2979.44 2980.14 2981.24 2982.39 2979.8 2981 2981.88 2983 2984.01 2986.06
2984.11 2982.49 2982.99 2985 2983.99 2978.81 2977 2977 2978.99 2976.25
2979 2976.71 2983.55 2987 2986.6 2981.11 2983.02 2984.04 2982.47 2979
2977 2977.99 2975.15 2974.58 2973.3 2973.16 2974 2970 2970.01 2972.94
2971 2969.07 2969.28 2969.53 2965.05 2967.05 2965.24 2965 2961.69 2959.29
2958.3 2956 2955.48 2952.99 2951.25 2948.93 2947 2946.88 2944.74 2945
2941.65 2943.13 2942.14 2943.01 2942.55 2943.84 2943.96 2943.24 2945.2 2948
2952.04 2954 2955.01 2961.66 2964 2967.17 2969.01 2975.08 2979.25 2986
2988 2994 2996.02 3000.13 3004.09 3008.76 3012.02 3018.62 3023.91 3025.83
3031.46 3032.94 3037.5 3040.71 3043.37 3045.33 3049.18 3052.88 3052.13 3053.43
3054.92 3053.13 3053 3053.13 3053.13 3055.29 3055.49 3055.29 3055.6 3055.18
3053.17 3053.34 3051.94 3054.98 3055.21 3056.48 3058.09 3057.82 3069.11 3086.32
3090 3087.11 3083 3077.62 3072.81 3068.68 3058.98 3062.25 3064.48 3065.79
3064.69 3062.18 3063.33 3064.76 3068.57 3073.12 3075.26 3076.19 3095.57 3113.77
3114.29 3101.89 3107.06 3134.83 3138.81 3131.26 3083.66 3058.15 3034.88 3045.6
3042.8 3038.22 3035.66 3031.21 3048.73 3070.07 3074.15 3081.16 3086.37 3089.58
3096 3100.13 3102.92 3109.52 3110.66 3112.76 3110.38 3111.44 3111.08 3110.84
3107.21 3103.33 3103.06 3103.09 3106.69 3109 3111.54 3111.24 3101.7 3101.12
3104.89 3105.69 3107.3 3138.94 3179.93 3207.96 3211.11 3203.49 3189.44 3186
3184.97 3190.14 3196.04 3203.4 3201.85 3208.66 3208.12 3189.09 3181.44 3195.7
3202.72

3011.61 3002.91 2990.2 2982.77 2959.31 2942.92 2915.22 2885.8 2880.2 2876.57
2876.37 2878.74 2876 2873.41 2876.21 2873.57 2872.74 2872.99 2871.56 2871
2872 2869.41 2869.81 2866 2865 2866.16 2861.74 2860.34 2861 2859.19
2860.67 2861.04 2862 2860 2878.44 2890.02 2893.99 2893.98 2897.53 2898
2898.08 2900 2902.38 2903.93 2905.88 2907 2909.4 2909.6 2913.58 2912.38
2914.37 2918 2918.94 2923 2923 2925.14 2929 2929.03 2929.67 2931
2932.96 2935.05 2934.91 2934.63 2936.59 2937.15 2938.98 2941 2943 2943.62
2946.53 2947 2948.86 2950.34 2950.99 2951.98 2953.18 2954.73 2957.94 2960.06
2961.43 2962.22 2966.95 2964 2965.12 2967.23 2969.67 2969.88 2972.85 2972.96
2973.52 2973.54 2976.9 2978.16 2978 2978.64 2979.81 2980.96 2980.21 2979.49
2981.32 2982.08 2985.01 2985 2984.45 2984.52 2984 2985.16 2986.25 2987.53
2987.19 2987.13 2984.16 2987 2986.87 2979.88 2978 2979.26 2980.42 2980.66
2979.99 2980.78 2986.27 2988.09 2987.68 2986.98 2986 2985 2984.29 2982.68
2980.82 2979.11 2979.92 2976.83 2976 2976 2974.44 2975.66 2972.72 2971.31
2970.9 2970.49 2969.99 2969.85 2967.26 2968.88 2968.53 2964.95 2964.78 2963
2959 2958.68 2958.78 2955.2 2952.54 2952.5 2952.02 2949.14 2947.34 2944.04
2945.78 2945 2946.9 2946.05 2948.68 2948.25 2948.14 2947.24 2948.14 2950.75
2955 2957.03 2959.46 2962.1 2965.92 2969.06 2973.62 2977.94 2980 2985.72
2988.27 2994.61 2997 3003.01 3006 3011.86 3015.57 3021.48 3026.47 3030.69
3034 3037.67 3041.23 3043.43 3047.67 3051.48 3053.06 3057.07 3059.01 3058.23
3058.74 3059.79 3057.08 3057.2 3059.63 3060.53 3058.15 3061.9 3060.54 3060.05
3058.18 3060.68 3064.82 3065.5 3064.29 3065.05 3065.66 3065.51 3072.34 3088.09
3092.51 3088.87 3086 3081.84 3074.04 3070 3065.02 3071.26 3073.32 3077.5
3078.45 3075.27 3080.17 3079.45 3083.62 3089.79 3092.6 3102 3117.73 3138.88
3139.08 3125.86 3113 3134.91 3136.85 3110.59 3080.34 3059.24 3049.01 3058.31
3059.08 3050.09 3047.81 3044.89 3041.66 3052.66 3069.33 3079 3087.96 3092.43
3097.79 3103.75 3106 3111.36 3114.83 3119.03 3121.4 3121.65 3118.91 3121.68
3122.89 3121.28 3115.46 3111.82 3111.13 3113.84 3114.27 3114.85 3112.41 3108.23
3110.02 3111.62 3111.78 3114 3123.36 3173.2 3185.59 3189.02 3190.24 3188.83
3191.75 3197.8 3201.69 3208.33 3210.47 3213.93 3213.14 3192.15 3194.64 3209.86
3215.11

2999.36 2989.12 2976.86 2959.73 2937.3 2919.13 2889.08 2879.45 2880.78 2879.6
2877 2878.62 2876.99 2875.08 2874.51 2877.95 2874.05 2873.12 2871.86 2872.12
2870.56 2868 2867.75 2867.96 2866.99 2865.75 2863 2862 2861 2860.06
2859.01 2862 2862 2862.1 2890.31 2894.88 2895.56 2896.3 2899 2899
2900 2902.85 2904.11 2904.63 2907 2907 2909 2911.43 2915.06 2915.74
2915.95 2918.03 2921.02 2924 2923.12 2927 2927.99 2928.84 2931.1 2933.02
2933.55 2935.96 2938.07 2936.1 2937.35 2937.99 2939.05 2941.42 2944.79 2944.48
2947.31 2947.54 2952 2952.04 2952.54 2953.4 2955 2956.76 2959 2961
2962.95 2963.99 2966.15 2968 2968.91 2968.45 2973 2972.01 2977.58 2978
2977 2976.98 2978.54 2980 2981.02 2982.38 2982.69 2982.15 2982 2983.06
2985.25 2986 2987 2988 2987.54 2986 2986.09 2988.99 2988.97 2989.99
2989.73 2989 2988.26 2989.24 2988.93 2983.78 2982.08 2981.97 2983 2982.17
2982.85 2984.89 2987.85 2990.07 2989.88 2988.61 2988.01 2988 2986.46 2987.99
2984.89 2980.03 2980.84 2978.16 2981 2977 2975.48 2976.97 2976.53 2975
2974.64 2973 2972.61 2971.84 2970.71 2973 2970.56 2967.8 2966 2965.07
2962 2960.09 2959.41 2960.12 2956.48 2954.54 2953.99 2953.93 2953.33 2951.6
2951.24 2952.45 2951.01 2953.03 2953.89 2953 2951.02 2953 2952.48 2954.06
2958.11 2960 2963.45 2965.67 2969.93 2974 2974.98 2979.83 2983.33 2987.41
2991.58 2995.79 2999 3006.87 3010 3015.21 3017.79 3025.16 3028 3033.21
3038.11 3041.28 3044.12 3049.01 3053.05 3055.61 3057.09 3060.01 3063.19 3063.5
3063.48 3063.81 3065.15 3064 3063 3062.76 3064.09 3067.29 3068.57 3066
3070.66 3071.65 3075.59 3071.52 3069.27 3072.48 3073.6 3073.8 3073.83 3088.79
3094 3090.92 3084.87 3083.32 3077.06 3075.38 3075.97 3085.94 3089.65 3092.95
3093.59 3092.25 3087.89 3098.9 3104.53 3106.47 3121.68 3131.8 3154.92 3163.98
3164.93 3147.39 3129.22 3128.31 3127.79 3098.77 3083.12 3061.76 3056.57 3070.06
3070.33 3066.07 3060.92 3060.24 3055.39 3051.02 3050.92 3063.96 3078.75 3094.72
3102.24 3105.01 3111.48 3116.7 3120.16 3124.29 3129 3128.76 3127.87 3129.01
3127.97 3130.34 3127.21 3124.7 3125.48 3120.3 3121.95 3124.68 3128 3117.92
3114.94 3117.02 3118.83 3118.17 3120.71 3135.68 3174.66 3184.94 3196.87 3198.56
3199.72 3205.56 3211.27 3213.21 3215.36 3221.81 3220.6 3195.8 3203.17 3219.15
3225.24

2991.97 2979.71 2960.97 2943.5 2919.54 2888.15 2878.31 2879.85 2873.88 2873.62
2876.38 2877 2876.02 2875.35 2875.61 2876.68 2875 2873.57 2875.05 2873.14
2871.83 2869.99 2867.35 2866.64 2865.95 2864.36 2862.89 2862 2862.43 2861.99
2860.32 2862.96 2861.99 2864.06 2892.84 2895 2897 2898.97 2899.15 2900.4
2902.88 2903 2903.12 2908.49 2907 2909 2910.96 2912.95 2916.67 2918
2918.88 2921 2923.58 2923.71 2926.57 2927 2932 2932.29 2934.53 2933.94
2938 2937.41 2940.63 2942.62 2940.93 2940.19 2943 2945.4 2945.98 2946.17
2949.98 2952 2953 2955.05 2957 2957 2958 2958 2959.58 2962.67
2965.98 2967 2968.86 2969.01 2970 2970.76 2973.1 2972.92 2975.99 2977.96
2977 2979.13 2979.93 2980.02 2983 2984.09 2983.48 2985 2986.35 2986.56
2987 2988 2988.2 2989.44 2990.52 2989.56 2990.13 2990 2990 2990.61
2992 2992.87 2990.59 2991 2991 2986.27 2982.99 2984.02 2985.05 2984.24
2986 2988.6 2993.95 2994 2993 2992.95 2990.02 2989.71 2988.78 2987.96
2984.79 2981.22 2981.94 2981 2982.78 2981.15 2979.95 2978.7 2978.5 2978.27
2978.98 2977.35 2974.52 2975.04 2974.12 2971.99 2972.07 2970 2969.01 2967.99
2966.24 2962.9 2961.55 2960.99 2957.51 2958 2957 2954.78 2955 2954.48
2954.85 2955.99 2959.92 2959.96 2957.66 2957.91 2957.88 2957.01 2955.04 2958.8
2962.86 2964.11 2967.44 2972.04 2974 2978.15 2978.34 2983.26 2985.03 2990
2992.06 2998.23 3000.21 3007.09 3011.21 3015.15 3020.09 3025.13 3028.14 3034.02
3039.36 3043.96 3048.87 3051.02 3058.04 3061.35 3066.46 3065.98 3068.01 3069.31
3071.66 3070.12 3070.08 3067.69 3067.08 3067.72 3068.89 3072.02 3071.98 3070.12
3076.08 3078.06 3080.93 3078.04 3074.8 3077.72 3080.08 3079 3077.18 3087.45
3095 3091.98 3088.23 3084.11 3079.72 3078.27 3089.01 3097.79 3106.69 3114.19
3116.58 3112.64 3110.17 3120.82 3125.48 3133.27 3155.11 3175.39 3194.94 3199.67
3196.79 3177.24 3153.07 3139.7 3118.51 3094.29 3081.03 3061.05 3064.52 3082.24
3081.82 3078.68 3074.71 3073.07 3069.25 3063.68 3060.95 3055.71 3063 3090.05
3103.13 3110.08 3114.26 3119.08 3124.01 3128.96 3132.21 3134.02 3135.08 3136.09
3136.14 3140.37 3138.43 3134.08 3135.04 3133.17 3128.51 3130.48 3131 3129.11
3122.34 3121.83 3123.86 3123.31 3124.2 3129.44 3157.55 3190.15 3212.48 3215.12
3217.64 3219.83 3222.05 3225.07 3225.47 3229 3224.75 3208.11 3210.53 3230.58
3235.98

2972.46 2960.25 2938.98 2923.72 2896.22 2880.71 2878.49 2882.79 2881.67 2878
2878.43 2876.91 2877 2878 2876.99 2877.6 2876.24 2875.01 2875.07 2876.27
2871.17 2872.8 2868.77 2865.34 2864.94 2866.64 2861.93 2861.02 2863 2862.49
2861 2863.1 2863.18 2868.74 2894.72 2896.48 2895.98 2898.01 2900 2902.64
2905.98 2905.93 2905.8 2908.96 2909 2912.99 2914 2914.43 2917.89 2919.47
2920 2921.29 2925.14 2927 2928.82 2929.16 2932.01 2934.33 2936 2937
2936.99 2939 2940.23 2942.74 2943.6 2945 2943.41 2946 2949.73 2948.93
2950.76 2953.43 2955 2955.72 2958.91 2958.08 2958.26 2960.73 2962.88 2964.1
2966.19 2968 2970.93 2972.27 2973 2974.9 2976 2976.15 2978 2979
2980.6 2980.72 2982.94 2985.18 2985.02 2985.41 2986.91 2988 2988 2989.51
2989.11 2990.77 2991.17 2991.97 2992.94 2992 2993.84 2994.11 2993.34 2995
2993.61 2995.89 2994.69 2994.13 2993.91 2988.15 2986.16 2985.75 2986.94 2986.45
2987 2989.16 2992.24 2993.57 2993.68 2993.91 2992 2991 2990.67 2990.91
2988.98 2987.02 2987.85 2986.67 2985 2981.54 2981.02 2982.97 2981.04 2981
2980.19 2978.94 2977 2976.95 2975.9 2976.1 2974.52 2974.86 2971.65 2969.21
2968 2965.83 2963.7 2963 2961.02 2962.48 2959.61 2958.05 2958.44 2959.04
2963.05 2963.87 2963.01 2964.34 2965.59 2964.9 2964 2961.27 2961.05 2964.26
2966.01 2968.46 2975.08 2977 2979.94 2982.05 2984.41 2987.47 2989.8 2990.15
2995.03 2997.69 3004.05 3006.93 3013 3018.37 3023.01 3028.29 3032.49 3034.69
3045.01 3048.5 3054.95 3055.93 3060.86 3065.55 3070.77 3072.06 3072.29 3076.91
3077.64 3077.46 3076.91 3072.88 3071.55 3073.01 3075.79 3078.66 3076.16 3077.13
3081.35 3086.54 3084.37 3082.12 3083.14 3083.44 3086.66 3085.87 3085.54 3092.25
3095.51 3094 3091.04 3088.78 3086.56 3088.25 3096.99 3109.42 3128.22 3136.21
3133.41 3132.84 3132.86 3146.53 3155.17 3164.1 3174.92 3208.12 3230.21 3235.49
3222.46 3193.64 3165.1 3140.65 3111.7 3103.13 3084.82 3073.62 3073.5 3090.57
3094.53 3093.47 3092.64 3089.9 3086.82 3080.31 3078.52 3074.73 3064.27 3066.27
3087.64 3109.9 3116.02 3122 3125.74 3131.6 3137.14 3140.79 3140.36 3143.77
3145.59 3147.03 3145.24 3140.94 3143.99 3145.28 3142.87 3137.35 3139.15 3138.74
3135.93 3126.14 3130.03 3130.97 3131.4 3129.74 3142.46 3180.41 3213.12 3235.81
3244.08 3245.13 3242.35 3241.7 3238.21 3239.94 3236.14 3217.46 3216.58 3234.75
3240.22

2959.39 2942.08 2925.37 2900.77 2880.74 2881.33 2880.94 2879.13 2882 2878.74
2879.99 2876.07 2877.54 2879 2876.16 2877.92 2873.14 2873 2877.98 2875.38
2875.53 2873.99 2869.32 2870.98 2866.55 2866.82 2863.13 2863 2862.08 2863
2863 2864.8 2863.94 2870.19 2895.71 2898.87 2899.01 2901.37 2901.08 2904.31
2907 2906 2909 2912.45 2913.84 2914.82 2916 2916.02 2920.79 2921
2923.22 2925 2925.03 2928.92 2930 2930.21 2933.36 2935.97 2936.11 2938.01
2942 2941 2941.95 2944.46 2944.65 2945.99 2947.21 2947.3 2949.85 2951.52
2953.33 2955 2956.81 2958 2959.5 2963.69 2961.19 2962 2963 2966.16
2968 2970.74 2972.2 2972.6 2975.04 2978 2977.1 2978.13 2980.2 2982.03
2981 2982.69 2986 2987 2986.31 2988.72 2990 2989.29 2991 2991
2991.99 2992.45 2995 2996.9 2994.71 2995.62 2995.25 2996 2995.99 2997.54
2997 2997 2998.99 2997.98 2996.05 2993.23 2987.88 2988 2988.02 2989.52
2987.89 2994.81 2997.37 2995.01 2994 2995.94 2996 2992.39 2993.95 2990.89
2990 2989.73 2988 2986.28 2988.93 2987.64 2986.33 2984.93 2983.81 2984.97
2983.54 2980.04 2982 2979.54 2980 2980.03 2978 2976.61 2972.67 2972.99
2968.54 2967.68 2966.88 2963.94 2964 2964.05 2964.88 2963.54 2965.35 2966.51
2969.67 2969.9 2969.16 2970.44 2970.51 2971.89 2971.55 2967.24 2966.49 2967.78
2969.88 2975.23 2978.04 2982.28 2984.95 2987.17 2990.21 2991.4 2994.09 2995
2999 3001.8 3007.63 3014.48 3017 3021.18 3026.78 3030.82 3035.22 3042.27
3046.6 3052.47 3061.84 3062.16 3065.59 3070.55 3076.08 3079.91 3081.33 3083.01
3080.37 3084 3081.76 3079.87 3076.49 3078.75 3081.07 3083.02 3082.12 3084.34
3089.54 3095.75 3095.48 3083.81 3086.33 3090.47 3091.73 3092.09 3091.02 3095.01
3097.64 3097.66 3096.93 3097.18 3096.37 3100.85 3107.62 3117.67 3136.51 3146.16
3151.69 3153.04 3171.96 3183.35 3191.98 3208.1 3209.94 3232.87 3250.03 3246.04
3221.37 3193.7 3163.37 3136.98 3116.69 3108.69 3094.63 3079.59 3088.2 3101.59
3108 3113.03 3117.66 3138.69 3134.52 3102.04 3093.54 3089.94 3082.46 3075.93
3072.13 3090.31 3114.42 3124.36 3127.01 3134 3138.62 3144.28 3146.59 3149
3152.03 3155.34 3154.46 3152.2 3153.06 3154.09 3150.43 3151.69 3152 3148.02
3146.95 3138.49 3132.97 3135.96 3136.04 3135.53 3140.31 3160.9 3199.07 3238.31
3266.74 3266.76 3265.32 3263.33 3256.42 3253.87 3249.25 3230.21 3226.04 3244.03
3253.11

2950.35 2921.33 2902.22 2883.86 2880.05 2880.36 2880.68 2880.99 2880.99 2876.94
2875.67 2877.56 2877.97 2877.8 2881.8 2875.42 2874 2873.99 2876.97 2873.82
2870.21 2871.37 2869.82 2869.46 2865.66 2862.95 2864 2861.97 2861.73 2863
2863 2864 2865 2883.04 2896.8 2898.11 2900 2903 2903.85 2905.08
2907 2908.05 2910.35 2913.33 2915.89 2916.17 2918.09 2918.96 2922 2921.65
2922.88 2925 2926.53 2929.05 2929.9 2933.11 2935 2936.64 2939.29 2941.45
2942.13 2941.97 2945 2945.75 2946.41 2947 2949.38 2951.31 2951.36 2953.7
2954.46 2954.98 2958 2959.89 2962.13 2963.64 2962.13 2965.1 2967 2967.25
2970.42 2971.96 2973.98 2973.01 2977 2978.73 2979 2981 2981.66 2985.52
2987 2986.96 2989.36 2990.51 2991.94 2992.43 2992.8 2992.08 2992.03 2992.05
2994 2996.88 2997.14 2996.69 2996.95 2999 2997 2999.92 2998.9 3000.06
2999.09 2999.95 3001.98 2997.56 2996.93 2993.14 2991.08 2990.99 2990.06 2991.08
2991 2997.57 2999.3 2999 2999 2998.52 2998.1 2995.94 2994.63 2992
2993.91 2993.3 2989.79 2988.02 2990.86 2989.98 2988.07 2990 2988.1 2985
2984.98 2986.12 2984.09 2981.1 2981.96 2981.04 2980.54 2979.31 2976.14 2974.01
2974 2972.09 2969.13 2968.17 2967.44 2969 2969 2969 2968.71 2973.86
2975.09 2974.88 2975.44 2980.43 2980.55 2978.75 2976.1 2974.91 2971 2971.62
2977.66 2979.14 2984.01 2987.54 2992.86 2996.14 2999.63 2999.21 3000.81 3001.03
3002.08 3007.95 3013.7 3017.77 3021.48 3026.65 3030.6 3036.93 3041.05 3045
3049 3056.16 3062.89 3066.17 3070.93 3072.55 3078.6 3083.06 3087.09 3086.06
3086.74 3086.92 3087 3083.26 3083.17 3084.29 3086.01 3087.31 3087.92 3092.99
3096.99 3100 3097.08 3089.16 3096.06 3095.51 3099.07 3098.95 3099.13 3100.26
3102.1 3103.67 3104.11 3104.61 3106.58 3111.22 3116.57 3130.81 3146.32 3159.64
3168.53 3179.53 3207.55 3228.87 3238.52 3254.52 3261.15 3261.27 3255.46 3244.05
3213.46 3179.61 3154.93 3137.57 3126.75 3118.14 3097.33 3084.96 3102.2 3122.41
3130.52 3137.82 3165.86 3182.11 3168.66 3127.26 3110.85 3099.06 3095.5 3092.51
3080.24 3079.16 3095.66 3122.03 3130.81 3135 3140 3144.98 3151.09 3153.92
3158.91 3161.4 3161.55 3161.15 3161.92 3160.03 3160.04 3160.93 3161.06 3160.38
3155.82 3153.92 3143.7 3142.15 3142.3 3141.04 3144.98 3157.95 3186.89 3237.9
3276.51 3282.76 3278.11 3277.48 3269.64 3271.54 3262.55 3241.83 3234.31 3253.74
3260.07

2933.51 2909.55 2890.56 2883 2880.97 2880.95 2881.99 2881 2880 2879.28
2882 2880.67 2878.22 2876.95 2878.42 2875.21 2877.69 2875.88 2874 2871.84
2871.88 2871 2872 2868.07 2864.93 2865.36 2865.83 2863.43 2861.98 2863
2864.85 2864.92 2867.02 2892.61 2897 2901.24 2903.58 2902 2904.29 2906
2908.68 2911 2912.96 2915.58 2915.94 2918 2919 2920.96 2923.6 2922.98
2923.83 2925.86 2930.31 2932.01 2933 2935.42 2938 2936.94 2941.21 2942.86
2943.99 2944.38 2945 2948 2948.21 2949.15 2949.49 2952.13 2953.59 2958
2957 2955.54 2958.08 2959.75 2965 2966.89 2966.62 2967 2968.48 2973
2972.95 2974.89 2972.91 2974.49 2977.01 2979 2980.99 2982.35 2985 2986.13
2988 2989 2989.91 2991.05 2993.06 2994 2993.96 2995 2995.31 2996.49
2998.63 2997.12 3000 2999 2998.59 2999.01 3000.74 3001.15 3001 3001.98
3002.74 3003 3003 2999.61 2998.6 2996.58 2993 2993.2 2991 2993.75
2995.81 3003.2 3003.19 3002.46 3001.89 3001.73 3001.23 2998.99 2994.92 2994.85
2993.12 2996 2994.97 2993.64 2990 2990.15 2991.44 2992.73 2993.1 2988.98
2988.33 2987 2985.68 2987 2985 2984.17 2983.93 2980.36 2979.93 2977.53
2974.99 2974 2973.96 2974 2973 2972.72 2975.11 2975.86 2975.96 2977.91
2978.72 2983.52 2983.69 2986.39 2985.49 2984.26 2980.97 2977.32 2976.82 2977.46
2981 2985.22 2988.73 2992.97 2998.96 3001.38 3004.82 3007.57 3008.9 3009.63
3007.56 3012.03 3017.54 3022.06 3029.11 3033.26 3037.59 3042.08 3046.74 3047.03
3051 3057.63 3064.03 3069 3074.91 3081.1 3085.7 3089.98 3092.27 3092.16
3092.67 3094.23 3094.79 3091.52 3088.59 3086.81 3092.15 3092.01 3096.73 3099.8
3103.72 3105.05 3099.64 3096.01 3099.26 3102.27 3102.17 3104.61 3107.5 3107.99
3108.65 3109.71 3112.42 3118.63 3122.14 3128.25 3140.26 3155.29 3171.42 3174.7
3175.97 3188.12 3211.87 3236.7 3260.1 3279.65 3290.38 3281.67 3253.66 3227.54
3199.49 3176.58 3159.16 3147.24 3129.12 3119.84 3098.17 3100.73 3120.32 3146.98
3161.67 3182.74 3201.34 3199.17 3167.46 3142.93 3125.45 3117.23 3106.95 3099.73
3094.7 3091.24 3084.28 3105.62 3130.88 3139.6 3143.16 3147.01 3152.76 3155
3163.14 3165.73 3168.62 3171.82 3173.76 3172.48 3167.89 3168.08 3170.45 3170.8
3170.34 3162.11 3158.66 3150.74 3148.24 3145.76 3151.01 3157.22 3189.58 3234.16
3280.23 3290.01 3291 3288.17 3281.43 3282.69 3272.95 3253.24 3245.47 3268.49
3270.96

2921.21 2901.11 2884.54 2883 2881.09 2882.48 2881 2881.15 2881.56 2880
2881.91 2881 2882 2881.99 2876 2874.91 2876.87 2875.98 2873.98 2872.47
2873.17 2871.43 2871.94 2869.96 2866.06 2867.97 2866.99 2864.99 2864.13 2864.79
2865 2866 2870.66 2897.07 2900 2901.73 2902.98 2904 2906.06 2908
2909.99 2912 2914.03 2917 2916.08 2917.59 2921 2920 2924 2924.52
2926.98 2929 2930.77 2932.71 2932.3 2937.9 2938.01 2942.8 2941.1 2943
2945.07 2947.36 2949 2948.97 2952.84 2952.83 2954 2954.9 2957.84 2957.1
2959.03 2959.84 2961.02 2962.12 2965 2966.84 2968.45 2970.75 2970.15 2973.39
2973.37 2977.08 2979 2979.87 2978.46 2979.54 2982 2983.24 2988 2988
2988.09 2991 2991.87 2993.21 2995.04 2996.54 2996.7 2996.68 2998.03 2999
2999.59 3000.07 3002.14 3001 3001.05 3000 3002.37 3003.12 3004 3003.99
3004.22 3005 3005.99 3001.84 3001.84 2998.46 2995.82 2996 2993.05 2994.76
2997.04 3007.21 3006.18 3006.01 3005.66 3001.99 3003.99 2999.17 2999 2997.99
2996.95 2996 2996 2995.02 2994 2994 2992.41 2994.6 2993.52 2991.64
2993 2992.5 2987.42 2988 2987 2988 2983.92 2983 2979.99 2980.28
2978.96 2975.91 2974.82 2971.88 2974.28 2974.48 2979.13 2982.95 2983.32 2983.78
2987.77 2988.99 2989.22 2991.44 2991.66 2992.06 2989.9 2984.11 2982.99 2981.75
2983.26 2991.99 2995 2999.67 3004.93 3011.13 3012.34 3015.32 3014.79 3015.97
3014.19 3013.31 3022.38 3028.76 3034.01 3039.21 3041.57 3049.58 3054.48 3057.28
3061.95 3068.37 3072.79 3073.29 3081.99 3089.28 3093.66 3095.05 3096.4 3098.12
3100.74 3099.83 3100.07 3095.74 3093 3091.84 3095.13 3095.21 3102.39 3104.86
3105.99 3108.52 3102.9 3101.03 3104.29 3107.65 3109.78 3112.74 3112.01 3113.05
3112.75 3121.11 3124.26 3128.3 3134.54 3151.34 3168.85 3186.82 3202.93 3199.49
3189.14 3198.88 3210.38 3229.12 3252.68 3275.26 3286.33 3272.73 3239.98 3211.66
3190.45 3179.37 3166.85 3152.88 3136.89 3117.4 3101.46 3113.89 3136.07 3161.91
3210.8 3228.77 3231.44 3195.94 3179.14 3159.03 3144.45 3131.82 3115.19 3110.18
3107.01 3105.17 3103.18 3092.51 3112.16 3137.52 3147.66 3152.97 3155.1 3160.33
3169.96 3172.5 3176.93 3177 3180.22 3182.2 3182.01 3176.77 3178.86 3178.23
3178.74 3172.66 3168.45 3165.75 3157.38 3151.32 3153 3158.9 3183.24 3227.68
3274.11 3296.96 3297.03 3297.46 3291.12 3292.71 3286.37 3265.66 3253.93 3276.56
3282.99

2897.35 2890.62 2885 2884 2883.98 2883.97 2882.43 2881.14 2879.99 2883.29
2883.24 2877.63 2878.99 2877.79 2876 2876.41 2876.31 2875.96 2874.88 2873.99
2872.34 2871.7 2869.84 2867.93 2867 2867.23 2867 2865.17 2865.99 2864.52
2865 2865.99 2876.77 2897.49 2900.69 2904.92 2905 2904.71 2908.97 2908.91
2910 2912.82 2915.98 2915.8 2917 2918.94 2923.06 2923.05 2924.92 2926.19
2927.96 2930.98 2932.52 2934 2935 2937.01 2941.31 2943.98 2946 2946.95
2947.05 2950.29 2949 2949.09 2954.18 2955 2954.99 2956.99 2957.27 2959.1
2960 2963 2964.53 2966.04 2966.54 2969.36 2969.07 2973 2974.97 2976.79
2976.47 2977.98 2979.88 2982 2982.04 2984 2984.64 2985 2986.19 2989.69
2990.69 2993.69 2995.14 2996 2997.29 2997.99 2999 3001.05 3001.99 3001.56
3002.38 3001.99 3003 3003.38 3004 3002.62 3004.22 3005 3007.99 3008.39
3006.1 3005.15 3008.01 3007.89 3003.07 3002 2996.8 2994.78 2997.06 2998
2999.49 3008 3009.97 3007.95 3007 3005.13 3003.99 3001.33 3001.45 3001.11
2999 2997.53 2998.07 2997.15 2997.66 2997.01 2996.43 2996.05 2994.12 2994.04
2992.03 2994 2991.09 2989.92 2991 2988.83 2988.6 2986.09 2983.01 2981.82
2980.15 2978 2976.26 2975 2977.19 2980.75 2984.11 2986 2989.29 2991.17
2994.78 2997.76 2998.04 2999.41 2997.65 2998.16 2998.09 2991.95 2987.34 2986.7
2990.79 2995.93 3000.98 3006.67 3012.99 3017.07 3021.1 3025.55 3026.75 3023.93
3021.26 3022.43 3024.85 3030.04 3035.9 3042.79 3049.15 3055.77 3060.25 3067.73
3073.08 3080.97 3086.99 3092.82 3091.13 3100.19 3109.52 3111.12 3105.08 3103.45
3104 3104.81 3107 3104.54 3097.13 3097.11 3099.59 3103.15 3110.91 3108.55
3110.06 3110.73 3104.73 3107.15 3111.02 3113.41 3116.72 3116.97 3119.06 3117.63
3118.89 3133.2 3139.37 3149.64 3160.94 3175.74 3200.19 3226.9 3229.25 3213.77
3202.81 3209.78 3222.64 3234.35 3247.34 3264.21 3260.45 3253.08 3227.93 3212.49
3201.37 3187.13 3176.61 3163.23 3139.63 3125.93 3115.08 3133.1 3157.84 3173.97
3214.46 3243.31 3239.85 3215.23 3198.87 3183.68 3156.03 3139.97 3131.92 3118.64
3119.93 3121.81 3118.49 3109.28 3097.8 3131.8 3158 3171.34 3169.34 3175.08
3180.31 3184.23 3180.68 3186.51 3187.06 3187.29 3190.51 3189.41 3187.79 3186.23
3188.18 3188.94 3187.4 3176.1 3172.45 3158.53 3156.85 3162.61 3182.76 3220.75
3267.46 3299.06 3304.24 3303.68 3300.3 3302 3293.25 3273.56 3259.59 3286.78
3294.09

2889.48 2889 2884.96 2886 2884.04 2882.87 2883.37 2882.36 2882.17 2882.26
2882.58 2876.89 2877.92 2874.28 2876 2876.6 2874.19 2877.99 2874 2872.31
2870.99 2872 2870.99 2867.09 2866.48 2865 2865 2866 2864.85 2864
2865 2865.47 2890.23 2900 2900.9 2904.81 2906.04 2907.32 2909.49 2911.48
2910.34 2914.28 2917 2918 2919 2919.91 2922.98 2924.02 2925.6 2929
2930 2932 2934.02 2937.31 2936.44 2940.6 2941.98 2944.33 2946 2950.01
2951 2950.99 2949.99 2952 2956.86 2956.29 2954.45 2957.58 2959.73 2961
2965.26 2966.46 2966.55 2968.19 2970 2971 2972.5 2972.37 2977.97 2978.01
2979.4 2979.48 2983 2984.91 2984.2 2984.7 2988.38 2987.82 2988.91 2990.16
2993.89 2995 2997.4 2998.79 2999.76 3001.32 3003.71 3002.88 3001.35 3004.12
3004.27 3005 3005.05 3007 3007.42 3006.92 3007.71 3008.17 3009.27 3009.99
3010.6 3009.96 3009.65 3011.22 3005.87 3004.57 2998.96 2999.19 2998 3000.67
3000.9 3009 3008.53 3007.74 3007.33 3006.82 3006 3004.24 3004.91 3004
3002.2 3002.34 3001.43 3000.63 2999.11 2999.98 2998.42 2997.61 2998.8 2997.99
2995.58 2996 2991.96 2991.87 2993.23 2991 2989.9 2988 2986.48 2983.49
2981.22 2977.9 2977.17 2978.2 2980.27 2983.76 2986.95 2992.24 2994.18 2998.01
3002.73 3005.13 3003.79 3006.34 3006.55 3003.72 3002.86 2998.83 2996.57 2997.69
2996.62 3001.7 3006.43 3010.42 3018.28 3026.51 3030.83 3032.25 3034.66 3034.13
3030.65 3028.47 3033.93 3040.82 3049.24 3050.78 3057.16 3065.66 3069.17 3074.51
3087.4 3093.1 3104.4 3109.31 3111.62 3112.52 3128.38 3132.57 3130.47 3111.64
3112.46 3110.42 3111 3108.64 3101.92 3101.18 3106 3106.58 3111.88 3109.99
3110.88 3111.88 3106.9 3112.03 3117.96 3118.06 3123.29 3124.06 3125.17 3127.01
3128.83 3140.34 3154.18 3174.63 3194.95 3209.89 3230.64 3251.41 3257.16 3232.61
3220.24 3225.36 3232.96 3242.71 3253.09 3263.81 3263.86 3247.14 3232.52 3221.83
3207.83 3193.3 3182.99 3167.61 3153.2 3137.38 3128.94 3141.32 3172.83 3192.43
3224.89 3243.27 3253.6 3243.89 3223.35 3210.21 3173.36 3157.2 3142.92 3138.77
3151.21 3146.02 3133.16 3125.18 3116.18 3108.84 3159.46 3184.62 3189.94 3189.74
3199.34 3205.35 3200.84 3198.18 3195.16 3195.2 3194.37 3195.59 3198.64 3199.08
3197.39 3197.99 3196.83 3190.72 3180.36 3166.08 3162 3165.39 3186.47 3219.72
3273.58 3312.06 3312.99 3308.9 3306.97 3306.53 3295.43 3282.96 3267.67 3291.6
3300.94

2888.66 2888.9 2886 2885.84 2887.34 2886.96 2885.3 2887.87 2882.84 2880.95
2878.49 2878 2879 2876.72 2878.95 2874.62 2874 2876.49 2876 2870.28
2871.68 2872 2870.75 2869.05 2868 2866.93 2868.86 2865.12 2865.04 2864.96
2865.58 2867 2894.39 2898.37 2903.92 2907.82 2907.14 2909.98 2911.06 2914
2913.99 2914.97 2915.34 2916.6 2921.08 2923.11 2923 2925.01 2928 2929.05
2930.58 2933 2936.45 2939.45 2941 2942.98 2942.09 2946.17 2947 2949.46
2951 2952.02 2955.02 2955.07 2957.73 2956.99 2961.03 2961.69 2962.11 2963.07
2966.04 2967 2969 2968.99 2971 2972 2972.5 2975.11 2976.14 2979
2980.98 2981.5 2984 2986.01 2989 2988.96 2991 2991.96 2990.56 2992.47
2994.22 2997 2998.01 3001.17 3003.02 3003.68 3004 3004 3005 3005
3006.91 3006.98 3008.7 3008.3 3010.05 3010.06 3010.68 3012.55 3013 3011.31
3013.8 3014.77 3012.87 3012.49 3008.69 3008.56 3001.3 3002.3 3001.05 3003
3004 3009 3010 3010.92 3009.94 3011.02 3008.17 3006.7 3006.07 3005.85
3003.15 3005 3001.99 3002.81 3001.33 3000 3000 2999.41 3000 3001
2997.69 2995.92 2993.56 2995.88 2995.95 2993.39 2991.56 2990 2988.58 2986
2982.98 2981.7 2980.87 2978.93 2984.92 2987.06 2992.61 2999.99 3003.23 3007.54
3011.77 3012.99 3012.23 3014.05 3012.74 3012.57 3012.09 3005.9 3007.46 3004.75
3007.05 3006.17 3012.23 3019.85 3024.05 3032.51 3039.31 3042.56 3046.55 3041.72
3039.7 3041.91 3048.72 3052.81 3061.15 3064.7 3074.04 3082.81 3089.58 3086.51
3095.34 3113.78 3124.67 3134.15 3136.02 3132.96 3137.42 3147.33 3147.27 3127.92
3115.49 3116.85 3117.34 3117.56 3105.88 3105.05 3109.06 3112.05 3116 3115.09
3114.97 3113.42 3109.75 3112.86 3119.25 3123.89 3130 3129.21 3131.03 3134.33
3141.54 3159.81 3177.26 3193.42 3224.67 3244.8 3260.66 3281.78 3272.59 3257.87
3238.8 3241.96 3246.88 3254.07 3272.22 3280.43 3281.32 3263.85 3251.87 3235.99
3229.31 3220.86 3205.92 3189.16 3158.99 3149.56 3147.32 3162.35 3172.91 3195.56
3228.81 3255.75 3287.42 3273.3 3253.26 3224.56 3196.59 3172.06 3153.43 3161.66
3179.25 3183.88 3169.69 3144.08 3129.1 3119.26 3137.3 3177.93 3194.35 3200.65
3209.67 3222.48 3226.77 3225.61 3214.47 3210.1 3204.36 3205.03 3208.28 3210.4
3206.7 3203.01 3207.1 3206.99 3196.11 3177.61 3166.12 3168.86 3186.19 3221.76
3271.17 3313.65 3316.93 3314.4 3313 3310.15 3301.34 3290.98 3277.02 3298
3309.65

2889 2886.49 2886 2886.92 2885.73 2885.47 2885.17 2887.85 2882.14 2879
2880.59 2882 2880.01 2878.16 2877.6 2876.9 2876 2874 2875.71 2874.47
2872.63 2868.41 2867.39 2868.99 2868 2868 2868.15 2866.99 2866 2865
2864.64 2870.43 2898.35 2905 2905.6 2908.71 2908.97 2909.89 2912.96 2915.67
2914.18 2918.01 2920.99 2920.53 2923 2924.48 2926 2927.85 2929.08 2930.9
2934 2932.46 2936.95 2939.15 2941 2942.34 2946.07 2946.4 2948.15 2952
2953 2954.07 2956.07 2956.69 2960.7 2960.98 2961.01 2961.78 2964.11 2965
2967.7 2968.06 2972.36 2972.34 2976.16 2975.35 2977.37 2978.09 2977 2981.06
2981.42 2984.55 2986.09 2987.15 2989.99 2990.61 2991 2993.06 2994 2995
2995.35 2998.02 2999.01 3002.02 3004.67 3006.01 3007 3006 3005.9 3009
3008.72 3009 3010.11 3010 3011.97 3014.96 3013.11 3014 3015 3016.01
3015.89 3014.23 3013.98 3013.46 3010.56 3010.75 3005.09 3004.95 3006 3004.89
3004.97 3008.81 3013.02 3012.91 3011.7 3013.13 3011.02 3010.35 3007.1 3008.99
3007.35 3006.33 3004.23 3005.29 3007.12 3005 3000.74 3002 3002 3002.15
3002.99 2999.05 2998 2998.12 2997 2996 2994.47 2995 2990.84 2988.93
2985.06 2985.9 2984.11 2983.22 2987.03 2995.42 2995.55 3003.46 3009.97 3016.06
3016.83 3023.93 3022.99 3020.46 3022.55 3021.97 3025.2 3022.38 3024.36 3024.61
3024.59 3022.67 3025.91 3033.34 3041.47 3045.14 3045.49 3050.99 3055.4 3064.9
3068.88 3071.78 3070.57 3075.79 3080.41 3086.88 3100.17 3113.25 3116.24 3116.69
3107.35 3118.25 3138.19 3142.55 3147.31 3146.6 3143.13 3157.01 3155.41 3139.05
3123.32 3122.56 3120.98 3121.18 3113.34 3110.64 3112.85 3113 3118.46 3117.49
3117.01 3115 3111.94 3119.22 3125.07 3131.53 3136.66 3137.57 3140.17 3142.02
3155.55 3177.49 3197.73 3212.88 3229.44 3249.83 3279.96 3302.35 3302.57 3281.86
3260.3 3259.98 3260.14 3268.03 3284.98 3302.57 3297.57 3286.93 3276.84 3266.05
3256.26 3242.68 3213.52 3188.66 3165.65 3163.3 3155 3181.52 3181.98 3207.17
3231.59 3265.45 3308.43 3300.06 3269.28 3229.54 3203.56 3177.17 3172.48 3182.5
3204.87 3217.83 3196.27 3164.58 3142.69 3132.09 3121.79 3158.49 3195.13 3211.06
3217.15 3232.34 3246 3244.65 3241.51 3229.36 3216.47 3211.34 3216.7 3218.22
3218.32 3219.1 3219.42 3214.13 3213.21 3190.47 3171.3 3172.21 3179.56 3216.92
3266.06 3313.28 3317.66 3322.99 3317.3 3312.37 3311.13 3292.93 3280.66 3304.41
3312.27

2887 2887 2887 2886.79 2885 2883.39 2885.29 2885.98 2885.95 2883.6
2885 2881.56 2878.14 2877.81 2880.61 2880.79 2878.2 2876.39 2872 2875
2874.21 2869.46 2868.99 2868 2868.95 2867.2 2869 2866.75 2866 2866.49
2864.99 2877.49 2901.01 2904.79 2907 2908.54 2910.99 2912 2914.47 2916.85
2917.99 2919.44 2921 2922 2923.28 2926.91 2927.97 2931 2932 2933.66
2935.94 2936 2939.05 2939.65 2940 2943.11 2948 2947.99 2949.02 2952.53
2955.11 2956 2957.67 2960 2960.43 2961 2960.96 2963.49 2966 2967.96
2969.28 2973 2973 2975.96 2976.84 2978.34 2981 2981 2981.88 2981.68
2985 2986.92 2987.02 2989.92 2991.98 2992.89 2993.97 2995.81 2996.59 2995.71
2998.54 3000.37 3000.9 3003.99 3005.21 3007 3008.78 3008.85 3010.3 3011.44
3011 3010.84 3013 3013.01 3014.42 3015.39 3017.06 3016.13 3017 3016.98
3018.98 3017 3016.22 3016.88 3014.47 3010.28 3008 3005.99 3006.41 3008.53
3006.94 3008.18 3014.97 3014.56 3014.34 3013.88 3015.27 3013.53 3011.4 3011.31
3012.7 3008.9 3009.51 3006.82 3008 3007 3007.42 3007.07 3007.68 3003.02
3003.36 3003.36 3000.31 3001 2998.94 2997.57 2995 2995.01 2995.38 2992.2
2989.43 2989.56 2995.41 2996.26 3001.29 3000.78 3005.72 3008.52 3016.3 3023.67
3025.76 3030.82 3030.79 3032.04 3032.12 3032.57 3041.33 3044.49 3045.67 3047
3051.64 3051.06 3053.25 3055.9 3061.1 3068.11 3073.11 3066.26 3070.4 3093.06
3097.96 3098.15 3098.08 3104.6 3113.78 3119.38 3128.5 3139.56 3146.65 3144.48
3140.72 3118.87 3138.45 3155.12 3157.54 3158.42 3150.23 3162 3161 3150.5
3125.07 3128.6 3127.15 3125.07 3114.62 3114.7 3117.97 3119.43 3123 3120.07
3119.26 3119 3118 3120.65 3126.93 3132.55 3138.8 3142.71 3148.28 3149.14
3163.84 3183.67 3203.67 3230.22 3255.71 3280.63 3298.17 3324.29 3331.07 3300.67
3285.99 3285.07 3276.82 3284.78 3301.08 3330.05 3331.68 3324.83 3301.55 3290.12
3261.29 3240.46 3211.67 3191.51 3185.65 3174.37 3167.66 3195.46 3204.07 3212.37
3240.88 3279.95 3311.06 3306.89 3281.35 3246.66 3210.4 3185.12 3209.66 3213.13
3234.93 3235.82 3200.27 3179.45 3156.01 3139.82 3131.51 3134.78 3187.12 3214.13
3218.04 3232.17 3247.88 3256.79 3260.92 3250.3 3234.16 3220.19 3222 3224.2
3225.46 3229.06 3230.87 3228.24 3224.92 3200.68 3180.45 3177.09 3181.06 3199.83
3257.31 3293.85 3319.62 3322.82 3322.3 3320.44 3314.68 3298.38 3293.82 3301.78
3312.03

2888 2886.88 2885.98 2888 2885.96 2884.93 2885.68 2880.87 2886 2883.27
2883.43 2880.67 2877 2876.58 2881.27 2881.41 2876 2875.99 2876.69 2871.63
2871.98 2870 2868.84 2866.78 2868 2867.45 2869 2866.16 2865.91 2867
2866.75 2880.86 2901.61 2905 2907 2908.5 2912.29 2914 2915.39 2919
2921 2921.03 2920.98 2922.14 2926 2926.86 2929.02 2931.98 2933.53 2933.25
2937.95 2939.99 2942 2941.01 2942.6 2947 2948.69 2949.28 2951.88 2955
2956 2959 2958.01 2961 2961 2963.99 2963.67 2966.08 2966.06 2968.26
2971.02 2974.94 2975 2976.93 2977.13 2979.06 2979.97 2982.93 2985 2985.73
2985.39 2985.06 2989.61 2991.16 2991.17 2993.95 2995.07 2999.93 2998.4 2999.63
3001.07 3002.38 3003.07 3006.17 3006.33 3008 3011 3011.2 3012 3015
3015 3014.13 3014.88 3014.98 3017.98 3019.56 3019.72 3020.88 3018.72 3021.43
3021 3019.07 3019.01 3019 3015.7 3014.32 3009 3008.01 3008.9 3009.04
3010.73 3008.52 3015.03 3016 3016.09 3018 3016.98 3016.5 3015.61 3015
3014.98 3013.99 3012.48 3012.69 3012 3006.09 3008.76 3009.91 3008.99 3006.41
3006 3004.17 3004.69 3003.9 3001.5 3002.03 2998.78 2997.93 2999.31 2998.31
2996.19 2997.66 3006.92 3006.49 3013.46 3015.96 3018.8 3020.31 3023.51 3028.91
3035.67 3038.12 3042.16 3042.03 3043.6 3054.91 3068.22 3075.27 3086.68 3082.67
3078.36 3096.52 3093.57 3093.99 3096.32 3110.18 3116.54 3110.98 3084.74 3102.99
3126.74 3129.32 3130.15 3134.73 3144.32 3145.02 3156.14 3167.18 3172.7 3171.32
3169.58 3149.38 3128.93 3157.26 3167.91 3162.01 3158.49 3163 3162 3149.77
3132 3128.78 3129 3126.74 3120.06 3119.02 3120.96 3124.4 3126.39 3125.9
3125.26 3121.86 3122.67 3124 3127.34 3134.27 3144.99 3149.87 3156.67 3159.76
3175.68 3192.65 3206.04 3227.04 3260.88 3293.4 3328.79 3341.94 3354.91 3342.18
3314.37 3318.09 3303.61 3316.12 3329.7 3355.84 3368.05 3353.37 3320.34 3290.55
3255.73 3234.8 3221.08 3206.1 3196.95 3187.35 3180.58 3211.96 3234.06 3239.11
3255.55 3296.35 3321.71 3315.59 3280.49 3249.18 3215.01 3210.52 3237.71 3260.28
3271.21 3254.89 3232.15 3195.62 3172 3152 3141.04 3127.39 3166.99 3204.02
3220.4 3232.37 3245.56 3261.66 3263 3260.39 3251.51 3236.23 3230.57 3230.72
3230.54 3235.69 3238.07 3241.01 3237.5 3213.15 3187.89 3186.96 3185.83 3191.63
3218.03 3266.65 3318.03 3331.04 3329.34 3327.77 3319.16 3301.39 3310.68 3316.89
3322.77

2886.99 2887 2889 2888.37 2885.38 2884.99 2882.26 2882 2886 2883.86
2878.17 2881.99 2877.82 2876.94 2879.99 2876.27 2875.57 2873.71 2873.54 2872
2871.41 2870.42 2871.99 2868.17 2869 2867.99 2868.2 2866.06 2866.34 2867.39
2867.28 2892.96 2902.39 2905 2908.55 2910 2914.85 2915 2915 2918
2920.14 2923.12 2924 2923.77 2926.81 2930.02 2931.99 2933.03 2935.97 2937
2939 2940.2 2942 2942.33 2944.12 2946.32 2950.4 2950.97 2952.17 2955.18
2958 2959 2962 2965 2964.71 2963.21 2966.01 2969 2969.7 2969.15
2972.99 2972.97 2975 2976.55 2979.01 2980.03 2981.28 2985.8 2989 2988.94
2989.73 2992 2990.33 2993.95 2994.32 2996.63 2999.15 2999.46 3000.17 3001.04
3005.99 3005.01 3006.89 3008.98 3008.24 3009.01 3013 3013.96 3014.93 3017.4
3017.66 3018 3016.65 3016.62 3019.05 3020 3020.74 3020.99 3021.13 3022.47
3022 3020.37 3021 3019.44 3018.93 3017.38 3013 3011.02 3011 3010.91
3012.74 3011 3018.07 3020 3019 3021.78 3020.15 3018.05 3017.07 3018
3016.26 3014.3 3016 3013.78 3012.46 3013.99 3009.64 3012 3011 3010
3009.03 3008.78 3008.77 3010.01 3008.79 3008.34 3004.61 3005.88 3009.96 3009.07
3011.5 3010.48 3017.85 3020.84 3025.07 3032.35 3036.24 3038.14 3042.48 3047.8
3048.86 3046.95 3050.17 3050.62 3055.11 3086.18 3117.76 3116.84 3123.83 3121.95
3098.28 3127.37 3137.85 3139.21 3137.26 3146.92 3159.03 3154.52 3117.32 3098.47
3135.89 3154.59 3156.56 3163.54 3168.29 3169.04 3178.22 3184.51 3191.39 3193.16
3186.18 3173.42 3151.32 3150.81 3170.99 3169.67 3160.17 3159.1 3159.25 3146.09
3133.07 3131 3134 3132.88 3126.51 3123.97 3127 3127 3129.05 3130.14
3130.21 3130.04 3127.8 3129.04 3130.27 3139.16 3148.14 3161.72 3166.69 3172.19
3177.24 3195.11 3214.88 3229.76 3256.86 3287.92 3327.97 3362.13 3380.68 3380.47
3363.51 3354.03 3335.33 3345.91 3369.47 3380.12 3377.39 3354.92 3315.08 3277.25
3255.22 3237.31 3226.56 3215.36 3203.65 3183.78 3201.09 3237.72 3273.44 3279.25
3265.35 3299.7 3324.1 3324.49 3294.17 3263.54 3225.55 3238.66 3262.03 3281.47
3288.74 3279.56 3256.03 3211.4 3181.32 3159.49 3151.23 3137.22 3136.81 3167.78
3201.61 3224.72 3242.97 3263 3268.29 3270.11 3263.12 3253.94 3243.18 3242.13
3240.06 3239.42 3242.84 3246.05 3246.92 3228.24 3200.32 3193.06 3190.06 3193.83
3214.2 3265.22 3327.19 3333.32 3333.08 3332.25 3323.58 3308.27 3319.18 3326.34
3331.82

2888 2887.6 2888.86 2886.5 2887 2885.64 2881.14 2882.86 2885.73 2883.66
2880.93 2879.91 2879 2876.77 2876.83 2875.89 2876 2874 2872.84 2871
2873.97 2871.34 2870 2869.28 2869 2870.22 2870.32 2866.99 2867 2867.92
2870.83 2901.07 2906 2906 2909 2910.88 2914.98 2916.99 2915.92 2919.67
2922.59 2925 2925.36 2928.29 2930.37 2930.86 2932 2935.43 2937.95 2938.22
2940 2941 2942.3 2945.91 2947 2948.81 2950.16 2948.96 2956.65 2957.01
2958 2961.01 2963 2965 2966.85 2968.12 2968 2970 2970.61 2972.81
2973.28 2973.94 2976 2977 2982.15 2982 2982.51 2986.9 2988.87 2989.22
2993.4 2994.49 2993.45 2994.15 2997.22 2999 2999.96 3001.82 3004 3005
3007.42 3008.95 3008.84 3010.01 3010.02 3011.55 3012.96 3016.46 3017.31 3018.01
3019 3020.84 3019.94 3019.4 3020.47 3022.6 3024 3024 3024.99 3023.94
3025.68 3025.51 3025.16 3022.24 3019.47 3018.85 3014.88 3013 3013.02 3015
3014.77 3012.15 3020 3020.32 3022.71 3023.35 3022.35 3023.3 3022.03 3021.7
3019 3017.3 3017.4 3018.92 3014.52 3014.24 3013.43 3014.6 3014.9 3012.97
3013.22 3013.49 3015.45 3016.82 3014.83 3013.44 3013.56 3018.32 3021.21 3022.23
3028.59 3030.02 3033.43 3040.86 3042.39 3051.65 3057.83 3064.23 3069.31 3083.58
3085.58 3079.49 3059.64 3060.42 3061.77 3091.5 3122.59 3148.17 3149.61 3150.22
3135.86 3131.58 3156.99 3169.42 3173.41 3187.41 3193.15 3182.74 3138.01 3094.88
3133.88 3169.54 3177.5 3184.29 3191.96 3192.94 3195.9 3204.77 3205.83 3203.47
3200.81 3191.79 3164.72 3141.38 3168.37 3169.12 3163.3 3158.89 3157.95 3141.3
3134.61 3134.58 3135.02 3136.25 3130 3129.69 3128.92 3135.65 3136.4 3135.12
3137 3135.87 3134.79 3138.02 3141.4 3150.87 3168.83 3182.1 3188.14 3190.54
3182.87 3197.81 3215.15 3231.15 3250.56 3274.47 3310.86 3360.27 3396.33 3401.3
3406.62 3391.29 3357.22 3372.06 3390.78 3394.6 3374.87 3326.04 3292.03 3267.91
3254.78 3246.38 3232.35 3220.45 3205.62 3193.24 3213 3243.96 3287.47 3299.42
3296.86 3312.69 3331.83 3333 3295.74 3260.04 3224.02 3243.44 3273.21 3288.46
3276.19 3264.56 3239.36 3209.06 3186.66 3164.45 3152.85 3144.79 3142.83 3147
3166.66 3194.55 3232.02 3253.81 3270.97 3278 3277.99 3273.7 3259.64 3254.21
3254.25 3252.05 3249.91 3250 3250.91 3239.17 3213.29 3205.39 3199.42 3197.57
3213.64 3271.63 3329.84 3339.03 3338.07 3337.8 3325.42 3322.87 3330.25 3336.02
3343.11

2890 2887.03 2887.67 2882.89 2883.63 2887.57 2883.93 2882.29 2881.01 2882.42
2882.95 2880.97 2879.94 2879 2875.91 2876.42 2875 2874.51 2873.76 2875.33
2872 2871.88 2870.92 2872 2869.05 2870 2869.97 2868 2869 2868
2886.47 2904 2907.27 2908 2910 2910.11 2915.5 2915.8 2917.06 2922.1
2922.49 2923.61 2927.1 2929.37 2932 2931.18 2933.84 2936.2 2937.51 2940.12
2941.88 2945.21 2945.87 2946.59 2948 2951.15 2952.92 2953.95 2958 2957.75
2960.01 2962.2 2966.03 2966 2968.46 2970.99 2972 2973.04 2971.46 2974
2974.31 2976.33 2979.22 2982 2986 2986.28 2987.15 2988.69 2989.14 2992.8
2993.66 2995.64 2997 2998.08 2997.99 2999.06 3003.92 3004.91 3005.55 3006.01
3009.07 3012 3012 3012.39 3012.58 3013 3014.31 3018 3019.48 3021.11
3021.35 3023.83 3025.06 3022.3 3024.44 3025 3026.01 3028.06 3026.33 3025.94
3028.59 3027.99 3027.99 3025.99 3022.81 3023.64 3015.92 3016.99 3015.99 3016.9
3019 3016.49 3020.75 3025.56 3025.06 3025.07 3026 3024.22 3022.67 3021.99
3021.91 3021.38 3022 3020 3019 3019.23 3017.9 3016.44 3016.68 3017.12
3019.09 3020.85 3022 3023.15 3021.13 3021.31 3023.29 3029.93 3033.06 3036.45
3044.74 3049.9 3059.11 3060.78 3065.47 3069.06 3084.64 3096.44 3103.37 3122.23
3130.66 3102.65 3069.19 3076.42 3073.32 3086.3 3117.07 3154.65 3167.66 3170.44
3165.06 3146.77 3164.8 3184.48 3187.31 3192 3202.84 3188.66 3144.9 3105.53
3124.83 3170.13 3177.36 3186.16 3196.2 3201.15 3208.98 3211.19 3213.79 3211
3207.33 3198.73 3179.29 3145.79 3160.46 3164.27 3162.11 3157.52 3155.15 3139.95
3138.74 3141.81 3139.94 3138.27 3133.03 3132.36 3132.94 3137 3138.95 3142.03
3143.95 3143.07 3143.77 3147.69 3152.3 3172.82 3189.79 3199.72 3205.78 3207.49
3196.33 3194.42 3214.29 3233.57 3254.23 3277.27 3310.72 3354.97 3402.6 3416.36
3414.76 3408.03 3383.9 3387.24 3403.42 3407.32 3383.28 3332.33 3295.33 3284.49
3266.03 3251.29 3236.54 3227.88 3214.12 3205.58 3213.82 3248.99 3288.45 3318.1
3329.1 3334.63 3348.05 3336.89 3301.53 3269.69 3249.92 3274.78 3296.27 3301.88
3283.94 3256.44 3252.87 3225.73 3195.15 3174.05 3161.89 3142.31 3162.34 3174.4
3172.48 3164.69 3186.97 3228.7 3265.6 3277.53 3281.98 3279.17 3277.04 3269.39
3268.37 3268.33 3261.03 3257.49 3256.98 3250.52 3226.82 3211.02 3210.17 3202.1
3211.94 3257.49 3314.79 3340.04 3346.43 3341.65 3331.05 3324.95 3338.47 3343.88
3349.74

2892.04 2886.9 2885.02 2889.48 2888.15 2888.39 2886.96 2883.01 2882.2 2880.59
2881.25 2881.2 2879.04 2878.69 2878 2876 2874.69 2873.95 2875.22 2874.61
2868.89 2871.9 2871.04 2872 2870 2869.33 2868.79 2870 2870 2873.13
2893.05 2905.06 2908 2911.36 2911.69 2913 2915 2918 2920.62 2923.28
2923.39 2925.02 2929 2929.14 2930.91 2933 2935 2936.96 2939.08 2940.79
2941.99 2946.82 2946 2949 2949.62 2952.53 2956 2954.25 2956.8 2960.88
2963.37 2963.58 2966.46 2966.91 2969.9 2972.17 2974.42 2976 2976.11 2977
2978.32 2980.95 2981.43 2982.1 2985 2987 2987.56 2990.63 2991.98 2994
2995 2998.56 2999.1 3001 3001.27 3003.46 3005 3005.38 3007.95 3008.04
3011.86 3011.78 3013 3015 3015.03 3015.08 3017 3019.96 3021 3021.39
3022.64 3024.12 3026 3025.13 3027.31 3027.38 3026.84 3029 3028.96 3029
3031 3030.13 3028.46 3026.32 3026.06 3024 3019.82 3017.01 3018.53 3022.24
3022.82 3018.63 3023.53 3028 3030.11 3028.87 3029.02 3030.18 3028.99 3026.1
3025.16 3023.38 3024.06 3021.45 3022.13 3021 3019.52 3020.6 3019.35 3023.52
3024.59 3028.59 3029.89 3033.14 3031.06 3029.69 3036.32 3041.92 3050.34 3057.88
3064.84 3084.32 3095.9 3090.59 3096.61 3098.85 3120.07 3138.15 3141.32 3151.5
3145.18 3099.32 3076.11 3082.97 3079.18 3081.72 3120.87 3153.16 3157.79 3173.51
3170.07 3153.74 3164.26 3183.69 3188.96 3190.22 3192.71 3186 3145.98 3114.59
3125.25 3148.91 3166.75 3185.08 3195.95 3199.71 3208.81 3212.97 3213.25 3210.83
3209.65 3196.4 3177.28 3148.64 3155.51 3163.19 3159.64 3156.09 3154.05 3145.67
3141.74 3144.03 3145.02 3145.01 3139.05 3138.82 3138.98 3143.27 3145.6 3148.04
3149.76 3152.39 3153.25 3157.55 3172.49 3196.43 3215.67 3217.97 3217.95 3216.14
3207.46 3199.34 3214.56 3237.38 3256.36 3277.36 3301.03 3352.25 3395.86 3420.98
3427.58 3423.03 3406.75 3400.73 3415.44 3416.11 3391.83 3345.88 3313.92 3290.9
3277.11 3256.49 3244.76 3233.9 3223.17 3208.81 3223.46 3255.66 3293.97 3326.55
3354.94 3367.46 3365.22 3342.57 3305.64 3274.59 3281.24 3307.93 3321.96 3319.67
3288.52 3270.27 3243.25 3216.55 3213.05 3205.6 3170.36 3147.45 3182.87 3209.14
3208.35 3203.69 3178.47 3211.11 3246.08 3257.09 3279.31 3278.34 3279.01 3280.2
3283.9 3283.09 3277.33 3266.32 3266 3263.39 3244.39 3220.82 3220.21 3208.78
3212.49 3235.81 3288.02 3338.04 3350.21 3346.9 3339.78 3334 3343.9 3349.97
3357.06

2895 2888.69 2891 2887.83 2888.42 2887.8 2886.9 2885 2884 2881.96
2881.19 2881.18 2877 2875.96 2877.97 2875.92 2873.18 2873.78 2876 2871.96
2870.76 2871.87 2871.97 2869.31 2869.52 2870 2869.9 2869.8 2868.97 2879.27
2902.88 2906.31 2911.99 2911.3 2911.47 2914.89 2915.96 2918.31 2922.47 2924.61
2924.83 2929 2930.3 2931.99 2933 2935.57 2938 2938.01 2940.01 2943.9
2944.48 2947.01 2949.22 2950.97 2950.67 2953.99 2955.98 2958.47 2958.02 2961
2962.99 2964.98 2966.11 2970.91 2973.15 2973.99 2976.08 2978.04 2978.08 2980
2982.17 2983.45 2983.53 2985.91 2986.99 2987.35 2991 2994 2993.33 2997.86
2998.39 2999.46 3001.34 3002.93 3005.21 3004.32 3007 3007 3009.16 3010.26
3013.06 3014.08 3016.99 3017.99 3018.96 3019.95 3018.76 3021.64 3022.2 3023.59
3025.61 3027.88 3027.09 3028 3028 3028.68 3030.34 3031.91 3031.99 3030.55
3032.07 3032.64 3029.98 3030 3029.51 3027.85 3020.92 3020.28 3022 3020.68
3021.83 3021.9 3024.1 3030.92 3032.77 3031.22 3031 3031.69 3029.17 3028.74
3027.09 3028.3 3026.01 3026.1 3025.8 3024 3023.4 3026.6 3025.89 3031.11
3032.81 3037.49 3039.78 3040.86 3039.21 3041.26 3050.18 3061.78 3071.17 3087.9
3096.18 3131.03 3142.48 3130.61 3137 3139.72 3156.54 3184.31 3185.83 3171.49
3139.34 3092.94 3083.53 3091.41 3089.23 3091.86 3101.27 3121.77 3147.51 3154.7
3158.99 3152.47 3154.98 3172.18 3179.31 3173.2 3169.3 3148.72 3139.08 3123.8
3128.83 3147.47 3154.39 3161.94 3181.29 3190.08 3205.42 3204.31 3196.33 3200.68
3187.78 3185.48 3170.82 3153.56 3152.09 3151.75 3160.8 3162.53 3158.21 3154.04
3146.02 3149.88 3149.97 3149.24 3144.52 3144.54 3142.88 3151.2 3150.43 3152.35
3158.56 3163.32 3166.2 3173.07 3196.94 3228.07 3239.08 3236.74 3234.76 3230.45
3220.33 3203.84 3213.01 3238.88 3253.98 3272.79 3295.59 3323.87 3381.66 3417.09
3431.74 3433.13 3427.61 3420.52 3430.78 3428.13 3406.34 3357.37 3319.35 3297.63
3276.62 3261.11 3252.87 3241.41 3224.79 3223.32 3246.56 3262.03 3280.32 3316.61
3352.21 3372.79 3368.81 3344.13 3323.8 3291.95 3298.65 3328.21 3341.92 3335.07
3307.51 3283.46 3257.92 3238.38 3248.32 3227.94 3170.8 3161.05 3202.12 3222.7
3236.17 3234.32 3212.41 3189.42 3222.45 3241.88 3257.84 3274.66 3280.05 3289.71
3291.57 3296.75 3294.52 3281.89 3270 3267.05 3263.51 3238.08 3228.16 3231.09
3215.54 3227.31 3283.35 3336.62 3352.92 3348.7 3339.78 3343.21 3351.08 3359.13
3367.07

2894.82 2887.67 2888.85 2885.79 2890.08 2888.9 2886.75 2884 2882.99 2881
2880 2881 2877.58 2877.24 2876 2876.94 2873.96 2877.89 2877.98 2872.2
2871.7 2871.13 2870.53 2872.03 2871.05 2870.91 2870.99 2873 2869 2887.75
2906.92 2906.15 2912 2911.68 2913 2914.68 2918.72 2921.64 2922.82 2925
2925.59 2929.53 2932.49 2933.4 2934.79 2936.24 2938.11 2940.59 2942 2944.9
2945.94 2949 2950.96 2950.22 2953 2956.02 2958 2961.55 2963 2962.78
2966.02 2969.32 2968.04 2972.79 2973.96 2975.63 2977 2979 2981.1 2982.94
2984.02 2985.95 2985.92 2989 2990.03 2990 2992.99 2993.54 2995.14 2998
3001 3000 3001.93 3004.94 3008.89 3007.05 3009 3009 3011.88 3015.32
3013.55 3014.43 3018.97 3020.14 3021.52 3021.18 3022.77 3022.89 3024.01 3026.24
3027.97 3028.13 3028.14 3029.02 3030.52 3031 3032.23 3034 3033.76 3034
3032.97 3035.81 3034 3032.99 3030.86 3029.92 3024.08 3022.73 3024 3023.69
3022.98 3022.7 3025.87 3034.82 3036.04 3035.82 3033.94 3032.99 3032.86 3031.95
3029 3029 3028 3028.1 3029 3028.62 3028.51 3030.57 3034.71 3038.07
3042.26 3045.4 3048.75 3047.89 3051.24 3055.67 3068.06 3082.63 3095.19 3117.08
3135.56 3158.57 3171.67 3169.39 3168.14 3173.08 3185.48 3201.16 3198.84 3170.33
3124.34 3094.79 3091.47 3096.77 3096.58 3100.59 3104.12 3107.13 3121.57 3132.04
3132.45 3139.62 3147.34 3147.99 3156.53 3155.35 3156.87 3140.97 3142.77 3136.27
3131.61 3157.94 3167.36 3170.79 3177.64 3181.91 3186.06 3187.2 3187.98 3186
3180.61 3178.75 3171.42 3160.42 3155.36 3155.06 3164.02 3165.92 3165.11 3157.2
3150.34 3152.81 3153.15 3151.07 3149.06 3148.73 3148.51 3154 3158.43 3158.11
3168.57 3173.04 3182.27 3193.69 3221.16 3252.5 3263.32 3255.22 3246.94 3237.37
3226.62 3220.71 3223.53 3230.18 3253.42 3266.34 3281.84 3310.74 3360.71 3407.44
3431.93 3443.19 3442.67 3443.29 3449.21 3435.16 3402.41 3383.01 3331.46 3305
3284.79 3272.17 3263.88 3248.89 3234.06 3233.3 3267.15 3293.22 3301.79 3309.74
3340.12 3375.23 3383.54 3368.69 3338.39 3306.6 3317.04 3355.19 3365.48 3351.11
3330.4 3303.18 3261.2 3275.07 3275.8 3232.04 3170.31 3181.51 3209.9 3224.04
3243.91 3252.59 3239.2 3214.22 3186.8 3214.2 3239.51 3265.74 3279.37 3292.63
3302.24 3307.61 3304.31 3288.61 3280.72 3276.84 3277.41 3253.55 3241.95 3240.91
3252.61 3235.64 3254.98 3300.09 3339.04 3348.51 3348.98 3346.31 3353.66 3364.95
3372.93

2897.35 2892.88 2888 2887.93 2886.24 2888.93 2885.27 2881.13 2880.03 2880.98
2878.62 2879 2880.91 2878.42 2878.96 2876.31 2873.88 2871.45 2875.53 2872.72
2872 2872.14 2872.56 2873 2872 2870.81 2870 2870.07 2879.57 2901.67
2907.66 2908.85 2911 2912.95 2914.84 2917 2918.5 2920.3 2922.06 2925.47
2928 2929 2933.01 2935.96 2937 2937.27 2939.95 2940.97 2943 2945
2945.78 2948.99 2953.4 2954.42 2954 2957 2961 2963 2964.54 2966.12
2966.17 2969.99 2972 2974.89 2974 2977.15 2977 2978.48 2982 2984
2985.31 2987.55 2987.76 2990.12 2992 2992.92 2993.52 2995 2997 2998.02
3000.99 3001.06 3005.93 3006 3008.3 3009 3008.96 3013 3013.61 3017.81
3016.94 3018.08 3020.39 3023 3023.43 3022.36 3025 3024.15 3025 3028.26
3029 3031.12 3033 3031.38 3031.54 3034 3034.86 3034.83 3035.03 3036
3034.27 3039 3038.99 3037.71 3035.64 3032.8 3027.44 3025 3026 3023.79
3026 3022.94 3029.86 3038.99 3039 3036.44 3036 3035.04 3034.73 3037
3035.8 3033.84 3032.43 3032.1 3032 3029.77 3040.27 3039.73 3039.47 3045.49
3051.2 3054.6 3057.74 3057.98 3063.06 3074.29 3092.64 3108.1 3126.43 3133.96
3173.42 3196.95 3192.71 3179.32 3180.92 3185.77 3191.15 3200.58 3185.2 3155.63
3107.09 3102.74 3107.1 3112.97 3109.43 3111.82 3113.09 3114.18 3116.75 3122.07
3126.93 3130.88 3134.43 3140.53 3143.36 3147.1 3150.02 3154.38 3156.65 3145.52
3138.93 3159.22 3169.62 3181.01 3190.13 3194 3190.38 3190.73 3191.09 3188.13
3183.42 3181.91 3171.94 3165.18 3167.39 3165.16 3166.57 3167.88 3168.05 3163.96
3157.97 3157 3158.97 3158.23 3154.04 3152.82 3154.95 3166.73 3164.83 3168.83
3176.54 3186.69 3195.93 3209.66 3242.68 3276.34 3284.12 3267.34 3259.27 3254.83
3245.08 3239.54 3244.94 3237.4 3248.25 3262.83 3276.42 3305.96 3349.78 3402.51
3419.29 3435.72 3445.67 3457.51 3459.78 3455.4 3437.72 3401.64 3345.85 3318.71
3295.06 3284.48 3272.52 3259.81 3249.87 3246.07 3269.83 3303.77 3330.79 3336.96
3356.55 3384.35 3391.48 3368.94 3342.57 3331.35 3340.75 3376.44 3383.76 3356.96
3329.76 3300.09 3266.09 3306.64 3296.15 3229.7 3169.21 3188.09 3214.77 3223.74
3249.41 3263.62 3263.58 3237.57 3206.68 3191.11 3233.67 3268.43 3281.47 3298.59
3311.96 3314.98 3313.4 3300.52 3288.68 3288.1 3286.47 3273.23 3250.83 3257.38
3277.57 3280.16 3243.35 3245.54 3288.98 3334.19 3353.94 3350.57 3358.01 3365.73
3376.71

2897.94 2892.28 2891.48 2888.36 2886.14 2887.5 2883.99 2884 2880.97 2880
2878.46 2877.92 2879.99 2877.32 2877.03 2872.92 2874.95 2874 2872.66 2873.99
2872.63 2873 2873 2870.35 2873 2871.59 2870 2874.09 2896.65 2906.61
2908.24 2910.91 2913.36 2914.42 2916.32 2918.12 2918.92 2922.31 2924 2925.69
2928.01 2929.82 2931.91 2934 2936.15 2939.06 2940 2942.92 2944.05 2947.46
2949.55 2951.15 2954.94 2955.76 2957.51 2959 2960.99 2963 2963.69 2968.01
2969.32 2971.29 2973.46 2973.77 2974.87 2979.83 2979.37 2983.9 2982.68 2986
2985.04 2989.43 2990.02 2993.69 2993.14 2993.98 2995.68 2996.79 2998.87 2999.02
3004.35 3003.65 3006.86 3008.83 3010.98 3010.65 3012.61 3014.79 3015.16 3016.11
3019.49 3019.69 3020.25 3024 3025.35 3026.11 3026.69 3028.02 3029.99 3029.99
3031.62 3031.81 3034.63 3034.28 3032.96 3035.81 3037.19 3036.51 3038 3037.17
3038 3038.95 3041.39 3042.4 3038 3037.19 3030.81 3027.27 3027.38 3029
3028.91 3026.15 3029.49 3040.52 3040.72 3041 3039.24 3039.36 3040.53 3037.94
3036.56 3036.14 3035.5 3036.91 3035.87 3041.27 3044.29 3041.36 3041.46 3047.31
3055.63 3064.82 3064.82 3070.61 3087.41 3103.46 3121.37 3140.64 3159.26 3165.3
3193.96 3202.66 3195.91 3180.62 3169.18 3169.86 3171.9 3164.43 3154.97 3123.24
3112.64 3113.88 3121.56 3124.69 3120.66 3121.69 3123.16 3127.31 3130.44 3130.41
3132.39 3138.6 3143.05 3148.54 3151.05 3157.37 3161.7 3164.89 3163.53 3161.38
3155.29 3164.23 3169.44 3184.25 3193.33 3194.22 3197.84 3197.21 3197.9 3192.65
3186.12 3184.93 3174.57 3173.11 3175.36 3176.73 3172.72 3174.82 3173.18 3169.93
3166.82 3161.94 3163.26 3163.77 3159.19 3156.69 3158.98 3166.21 3171.87 3178.72
3183.83 3194.54 3212.06 3225.73 3257.71 3290.79 3294 3278.79 3277.23 3277.47
3267.38 3260.39 3261.75 3254.68 3241.47 3256.49 3275.77 3294.79 3325.56 3362.35
3402.84 3424.8 3444.28 3457.78 3465.99 3463.74 3434.65 3401.22 3369.38 3337.23
3308.57 3292.53 3279.41 3272.92 3260.28 3264.73 3283.39 3315.08 3345.27 3369.64
3386.08 3399.92 3399.25 3377.56 3370.94 3359.53 3361.64 3397.45 3397.36 3366.95
3338.54 3309.24 3294.87 3320.64 3310.49 3227.94 3173.08 3184.31 3219.56 3228.33
3253.8 3266.97 3267.37 3260.82 3236.37 3204.23 3208.88 3257.93 3281.35 3298.2
3311.02 3317.98 3317.73 3310.84 3295.16 3296.36 3299.57 3299.7 3265.44 3272.35
3290.43 3289.04 3278.49 3266 3248.7 3299.55 3348 3356.47 3367.66 3372.93
3378.07

2898.61 2892 2891.29 2887.42 2884.35 2882.27 2884.85 2883.83 2881.72 2880
2882 2877.91 2878.73 2878.55 2877.6 2875.05 2873.89 2872 2874 2874
2873.93 2872.28 2873 2872.18 2872.99 2869.28 2868.92 2883.8 2905.6 2910
2910.25 2913.06 2915.04 2916 2917.67 2921.78 2922.13 2923.05 2926.43 2926
2928.14 2932 2934 2934.05 2937 2939.08 2941.5 2943.72 2946.75 2949.48
2951.08 2953.24 2955.17 2957.03 2958.1 2959.94 2962.3 2963.99 2967.1 2970
2970 2972.18 2976.56 2977.66 2978.7 2980 2981 2984.93 2986.8 2986
2988.36 2990 2993 2995 2996 2995 2998 2999 3002 3004
3005 3005.08 3007.25 3009 3010 3014.94 3015 3015.01 3019 3021.36
3020.94 3022 3022.99 3024 3027.02 3028.04 3028.89 3031.14 3029.99 3031.28
3032 3035 3037.43 3040 3037.6 3037.99 3039 3040 3038 3041.79
3041.95 3041 3044.17 3043.52 3041.92 3039.91 3031.6 3029 3030.01 3031.05
3029.1 3028 3030.99 3041.88 3042.69 3044.05 3043.19 3041.97 3042 3042
3041.92 3041 3040.6 3046.03 3050.65 3047.19 3047.05 3047 3042.25 3047.12
3058.19 3071.68 3081.17 3080.02 3109.9 3126.56 3151.89 3165.87 3175 3179.47
3196.83 3196.41 3174.74 3162 3156.18 3156.54 3149.13 3137.36 3127.99 3118.47
3119.57 3124.78 3132.42 3134.35 3133.6 3132.79 3141.14 3139.28 3140.5 3139.84
3141.74 3151.34 3163.58 3167.19 3171.72 3177.24 3177.75 3184.46 3186.32 3171.72
3162.04 3184.09 3181.67 3186.13 3197.86 3199.53 3205.53 3203.05 3201.87 3199.07
3192.06 3185.1 3179.94 3179.9 3175.58 3183 3182.08 3184.88 3177.24 3176.48
3175.62 3168.91 3169.96 3167.94 3164.58 3163.34 3165.47 3177.91 3179.28 3181.36
3191.51 3203.83 3221.84 3243.01 3270.14 3297.89 3302.9 3293.75 3298.83 3296.68
3293.9 3287.3 3275.67 3268.4 3255.82 3251.3 3265.64 3286.9 3305.57 3356.52
3398.86 3410.74 3432.3 3453.66 3463.19 3465 3456.79 3427.28 3389.04 3350.27
3321.23 3310.3 3298.62 3286.08 3276.15 3281.89 3295.63 3318.38 3346.95 3375.74
3407.78 3427.15 3422.31 3405.13 3402.06 3372.12 3387.41 3410.95 3406.4 3379.79
3345.06 3311.5 3309.03 3317.15 3293.96 3213.94 3181.19 3191.04 3212.69 3234.82
3256.36 3275.24 3277.56 3276.46 3269.3 3246.1 3201.93 3246.4 3278.76 3298.79
3308.4 3317.36 3324.61 3318.45 3308.55 3307.14 3314.13 3311.07 3283.09 3292.57
3305.5 3301.92 3297.95 3294.65 3256.69 3270.03 3327.55 3361.47 3374.65 3376.85
3385.05

2897.53 2893.2 2889.62 2884.94 2885 2883.96 2884.31 2883 2882.27 2882.98
2882 2879.9 2878 2875.36 2875.96 2876 2874.86 2874.26 2873.27 2873
2873 2871 2871.55 2873 2872.5 2875.68 2872 2894.3 2906.44 2909.55
2911 2914.14 2916.9 2917 2921.92 2922.97 2925.15 2925 2927 2931
2929.38 2931.16 2934 2938.96 2939.61 2940.22 2944.16 2945.96 2946.41 2950.9
2952 2954.18 2956.25 2958 2962 2964 2965.72 2964.99 2967.1 2970
2971.01 2973.64 2978 2978 2980.01 2982 2981.97 2985.8 2988 2989
2990.98 2992.18 2995 2996.19 2997 2997.26 3000.94 3003.94 3005.52 3005.02
3006.41 3007 3009.11 3010.02 3012.04 3015.02 3016.96 3016.58 3020.1 3023
3023.04 3024.68 3025 3025.59 3029.02 3031.29 3031.9 3032 3032 3032.2
3036.18 3036 3038 3040 3040.96 3041.08 3040.72 3042.11 3043.18 3043
3044.66 3044.84 3045 3047.9 3045.65 3039.02 3034.85 3033.01 3032 3032.92
3033.88 3030.17 3037.3 3048.49 3051.83 3051.9 3050.23 3048.51 3046.56 3045.92
3044.66 3049.81 3054.64 3055 3052 3050.99 3052.03 3048.06 3046.59 3048.75
3064.21 3090.8 3096.81 3094.7 3115.79 3142.09 3156.55 3168.96 3170.9 3173.48
3178.14 3169.38 3162.49 3159.15 3152.28 3148 3146.72 3141.15 3129.79 3133.41
3130.93 3132.97 3144.21 3155.29 3151.75 3144.5 3147.05 3154.43 3166.39 3163.04
3153.99 3161.06 3186.05 3192.47 3197.2 3209.13 3203.92 3203.43 3205.39 3198.52
3175.13 3190.08 3192.95 3191.71 3206.15 3204.41 3208 3206.62 3206.06 3201.19
3196.62 3186.63 3186.8 3187.84 3187.2 3187.4 3188.36 3192.11 3185.52 3184.48
3186.36 3178.32 3172.16 3173.3 3168.29 3167.03 3167.12 3178.85 3184.99 3194.36
3200.77 3215.69 3244.83 3266.26 3284.17 3301.96 3313.67 3310.66 3315.89 3321.62
3312.13 3301.58 3296.17 3283.72 3274.27 3268.11 3264.27 3280.94 3298.18 3339.46
3366.46 3398.16 3427.93 3448.74 3464.97 3474.52 3464.76 3437.98 3397.39 3374.3
3344.01 3322.26 3312.9 3299.14 3295.66 3301.42 3310.62 3342.72 3352.5 3372.58
3410.2 3440.35 3449.45 3437.54 3422.79 3405.9 3410.17 3409.97 3400.69 3377.64
3345.87 3321.42 3300.99 3296.9 3259.69 3200.6 3194.41 3199.62 3216.04 3244.08
3263.41 3282.04 3286.46 3289.35 3288.01 3265 3219.9 3236.45 3271.14 3293.02
3307.53 3327.39 3328.91 3327.47 3317.61 3313.68 3318.08 3317.51 3291.21 3304.19
3312.88 3311.71 3302.22 3308.9 3297.89 3250.05 3285.52 3349.24 3377 3387.66
3391.15

2896 2893 2887.87 2886 2885.96 2884 2883.64 2881.88 2882.98 2882.33
2881.22 2878.84 2878.9 2877.41 2877.44 2877 2874.47 2875 2874 2873
2872.93 2878.79 2874.42 2873.2 2872.4 2876.78 2876.76 2904.71 2907.98 2911
2910.89 2914.87 2918.01 2919 2922.56 2923 2926 2927 2928.45 2930.95
2932.78 2934.98 2936 2938.34 2941.19 2948.72 2945.64 2950.1 2950.72 2951
2951.83 2953.94 2957.24 2960.5 2962 2963 2967.72 2967.02 2968.99 2970.01
2973.07 2974.34 2977 2978.71 2981.04 2983.98 2985.36 2986.41 2989 2990.93
2994 2993.61 2996.6 2998 2999 3000.3 3001.47 3006.66 3006.02 3007.02
3009.04 3011.56 3011.7 3014.61 3016.19 3015.97 3019.48 3021 3021.96 3023.83
3027 3028 3028.35 3032 3032.28 3033.76 3032.75 3034 3033.01 3036.06
3037.95 3038.81 3040 3041.38 3041.55 3044 3041.83 3046.66 3047.79 3044.99
3044.87 3045.87 3047.52 3049 3044.65 3043.41 3036.38 3034.1 3035.44 3035
3034.91 3035.94 3046.06 3057.47 3058 3056.59 3055.07 3057.25 3053.66 3054.71
3058.14 3060 3059 3056.93 3055 3054.27 3052.98 3050 3046.88 3053.91
3078.85 3099.25 3106.24 3107.39 3097.14 3124.22 3144.94 3155.36 3152.94 3150.65
3149.44 3160.19 3159.25 3157 3159.15 3161.48 3157.99 3145.95 3137.12 3136.96
3144.72 3144.11 3152.71 3170.76 3172.1 3165.06 3155.53 3173.63 3191.75 3183.71
3167.71 3164.41 3189.82 3209.28 3213.68 3219.08 3217.6 3221.96 3220.25 3218.13
3197.39 3181.13 3196.09 3198.11 3207 3210.96 3210.3 3215 3213.71 3205.23
3202.74 3192.73 3194.42 3195.98 3194.91 3197.43 3196.66 3197.92 3198.11 3196.47
3195.52 3187.33 3181.58 3179.03 3176.66 3172.09 3173 3183.84 3195.74 3208.78
3217.21 3233.65 3264.17 3299.61 3311.11 3315.26 3330.2 3334.75 3347 3353.66
3331.1 3312.65 3308.66 3299.88 3287.85 3281.81 3282.49 3275.31 3292.79 3313.45
3352.4 3387.32 3409.19 3440.64 3463.71 3477.62 3469.05 3447.81 3423.15 3393.62
3361.63 3338.18 3328.62 3312.68 3306.34 3315.55 3326.93 3349.68 3370.54 3400.15
3420.23 3450.63 3470.8 3461.68 3440.15 3429.48 3414.92 3389.75 3368 3362.79
3334.47 3299.86 3259.81 3228.29 3209.01 3202.77 3220.96 3220.7 3219.11 3247.69
3275.61 3285.82 3293.15 3296.56 3294.9 3284.1 3238.15 3232.84 3273.42 3291.69
3308.17 3326.6 3334.92 3337.01 3329.95 3321.48 3330.71 3319.85 3294.65 3315.65
3319.99 3317.74 3309.35 3307.46 3312.7 3285.1 3272.48 3330.55 3369.51 3390.02
3398.04

2897.23 2888.74 2886 2885 2883.8 2884 2884 2882.35 2883 2882.95
2880.44 2880.89 2879.46 2879 2877.41 2876 2875 2874 2874 2874.06
2874.4 2878.88 2879.78 2874 2873.44 2875 2892.53 2907.09 2909.18 2911.95
2912 2915 2917 2919 2923.38 2924.29 2926.87 2928 2930.18 2932
2934.09 2937 2935.97 2938.55 2943.56 2946.16 2945.41 2950.38 2952.19 2953.63
2953.14 2958 2958.03 2962.46 2962.99 2965.42 2969.99 2970.45 2972.17 2974
2974.38 2976 2980 2980.83 2982.23 2984 2986 2989 2991.71 2991
2994.98 2997 2998 3001.12 3002 3004 3005.03 3007.01 3008.42 3009.17
3012 3013.06 3015 3015 3016.82 3017 3020.02 3023.03 3025.04 3026
3028 3029.1 3030.13 3030.81 3033.42 3035.47 3035.1 3037.15 3038.92 3037.93
3041.08 3040.95 3042.83 3044 3044 3044.97 3046.81 3045.21 3047 3047.54
3049.25 3053.79 3052.99 3052.01 3051.48 3044.35 3038.67 3036 3037 3036.65
3034.93 3034.98 3055.13 3060.99 3058.1 3057.83 3057.2 3059 3059.62 3059.99
3061 3060 3060 3058.1 3057.41 3054.83 3055 3050.52 3051.77 3061.86
3093.87 3107.49 3109.24 3111.11 3108.4 3117.81 3116.84 3125.66 3130.95 3135.09
3136.47 3147.54 3150.29 3155.66 3163.42 3165.98 3156.37 3150.81 3150.02 3149.93
3152.46 3156.22 3167.32 3180.41 3180.6 3174.41 3166.37 3177.13 3195.14 3196.23
3184.54 3173.73 3189.14 3212.94 3214 3226.03 3225.3 3230.53 3233.4 3231.71
3213.8 3198.55 3197.1 3204.02 3209.76 3212.54 3219.52 3218.52 3213.2 3209
3204.3 3202.35 3204.94 3205.44 3205.17 3204.04 3204.79 3203.81 3203.05 3206.92
3203.24 3194 3190.8 3187.31 3182.23 3177.09 3178.77 3192.12 3209.29 3223.13
3243.61 3248.79 3286.39 3322.6 3333.11 3334.69 3346.41 3364.28 3382.58 3390.01
3369.97 3338.54 3335.71 3318.55 3307.77 3301.2 3297.86 3295.15 3287.63 3299.72
3327.52 3362.57 3403.41 3432.58 3449.12 3467.72 3475.8 3471.56 3435.83 3409.77
3376.65 3352.61 3341.98 3328.14 3318.75 3330.57 3343.09 3358.37 3383.53 3413.83
3445.24 3465.61 3473.88 3468.71 3448.79 3438.88 3413.84 3359.87 3309.12 3302.2
3273.13 3227.68 3214.26 3215.8 3219.87 3223.01 3243.35 3243.52 3220.61 3253.1
3278.51 3295.05 3300.46 3301.8 3308.76 3303.48 3258.71 3237.97 3274.53 3297.85
3310.02 3324.86 3338.62 3342.91 3337.32 3327.76 3337.5 3334.13 3306.8 3316.7
3317.56 3309.09 3313.58 3312.41 3314.91 3304.82 3268.31 3316.79 3354.52 3386.54
3402.29

2894.83 2887.71 2886.52 2886 2884.99 2882.57 2883 2882 2882.04 2882
2879.79 2879.67 2879.99 2879.77 2877.98 2875.98 2875 2873 2876 2876
2874.61 2876.87 2878.88 2873.71 2875 2876.5 2905.41 2908 2910 2913.8
2915.41 2916.52 2918.14 2921.03 2921.96 2924 2926 2928 2932 2931.99
2935.77 2937 2939 2939.85 2943.1 2947.44 2948 2950.6 2953.01 2957.71
2957 2958 2961.59 2962.28 2963.87 2966 2969 2972.38 2972.01 2973.99
2974.12 2977.1 2979.02 2982.98 2984.13 2985.93 2986.42 2989.75 2993.96 2995.62
2995.45 2997.01 3000.7 3004 3004.89 3004.01 3007 3007.1 3009.01 3012
3014 3015.17 3017 3019.91 3018.04 3021 3023 3025.11 3026.95 3027.3
3030.99 3031.01 3033.85 3034.28 3035.71 3037.82 3039 3040.04 3040.24 3040.24
3042 3042.84 3045.15 3045.23 3046.57 3048.07 3048.09 3047.94 3048.17 3055.13
3055.59 3054 3055 3056.04 3057.56 3056.18 3043.64 3037.92 3039 3038.99
3040.51 3037.56 3061.69 3060.51 3063 3060.9 3061.09 3058.68 3061.95 3063.1
3061.16 3060.98 3061.93 3062 3058.63 3056.99 3055.04 3053.05 3053.69 3067.16
3093.16 3111.36 3116.57 3120.97 3118.1 3121.96 3126.19 3128.44 3131.62 3138.19
3140.61 3149.54 3155.45 3160.76 3163.11 3162.73 3159 3159.94 3159.36 3161.36
3162.31 3169 3180.17 3187.39 3189.8 3185.14 3177.4 3185.3 3196.02 3202
3196.84 3187.16 3182.7 3204.91 3218.15 3228.64 3232.54 3236.24 3241.82 3240.3
3227.7 3213.82 3209.59 3208.31 3214.78 3214.41 3222 3220.55 3214 3207.34
3206.47 3208.61 3209.83 3213.21 3212.21 3216.03 3213.5 3213.9 3216.88 3215.96
3211.93 3202.74 3201.8 3193.69 3188.13 3182.09 3181.44 3202.97 3214.02 3234.27
3255.26 3270.99 3287.65 3320.36 3335.42 3351.57 3381.82 3409.86 3424.61 3431.24
3407.95 3378.93 3366.1 3345.64 3330.16 3317.78 3311.88 3310.37 3305.69 3301.8
3317.34 3350.79 3380.41 3408.19 3437.59 3464.95 3473.49 3471.17 3459.51 3438.61
3405.4 3374.61 3358.73 3343.77 3341.04 3347.01 3361.99 3372.24 3396.4 3431.09
3462.51 3467.24 3459.29 3456.14 3435.31 3427.81 3387.16 3327.64 3278.3 3241.37
3231.33 3232 3236.05 3233.38 3222.5 3250.01 3260.28 3256.13 3229.02 3250.51
3281.94 3296.95 3304.56 3309.5 3312.83 3305.49 3273.8 3240.08 3279.66 3305.24
3320.75 3331.09 3339.67 3345.19 3342.78 3339.78 3345.78 3339.88 3317.55 3319.19
3321.07 3309.56 3310 3312.4 3313.68 3304.91 3272.03 3311 3367.4 3399.16
3408.47

2888.64 2886 2885.88 2885 2885 2884 2882.89 2882.87 2879.04 2881.96
2880 2880.89 2880.98 2879 2877.1 2875.75 2875.27 2874.39 2877.98 2875.89
2876.95 2877.9 2874.92 2872.3 2876.06 2896.73 2908.84 2912 2913.35 2915.14
2916 2916.62 2918.12 2922.36 2923.24 2925.66 2925.94 2928.69 2931.98 2933.43
2936.58 2938 2940.31 2942.2 2945.67 2946.98 2948 2948.26 2954 2958
2958.18 2959.03 2962.24 2963 2966 2969.04 2969.3 2972.95 2974.04 2975.91
2976.95 2979.62 2981.42 2985.05 2986 2987.91 2989.81 2992.49 2994 2996.48
2998.24 2997.72 3003.19 3005.76 3006 3006 3008.17 3010 3012 3013.12
3017.05 3018.23 3018.06 3020.81 3021.88 3022.29 3025.86 3026.07 3028.98 3030
3032.54 3033.84 3035.96 3036.09 3038.39 3039.92 3041.74 3042 3044 3043.41
3042.52 3045.81 3047 3047.29 3047.2 3051.22 3050.61 3052.01 3054.17 3053.01
3057 3059 3058.13 3059.96 3060 3058.04 3047.21 3040.98 3040.99 3039.63
3041 3044 3061.96 3062.85 3066.17 3069.8 3064.85 3063.07 3064.89 3064
3062 3062 3062.46 3062 3059.84 3058 3057 3058.85 3060.72 3071.46
3092.49 3113.68 3123.55 3126.39 3126.34 3126 3133.58 3135.21 3141.39 3150.98
3148.69 3155.64 3166.8 3166 3164.49 3165.85 3168.81 3166.09 3167.25 3173.06
3174.6 3178.75 3190.77 3197.02 3194.52 3193.59 3188.46 3195.28 3203.75 3206.74
3206.64 3198.51 3200.58 3201.48 3217.17 3223.91 3233 3244.81 3247.58 3243.35
3233.51 3225.91 3217.68 3217.06 3218.25 3225.32 3223.54 3221.63 3219.98 3216
3214.36 3217.8 3218.96 3222.69 3224.23 3222.47 3222.29 3222.69 3220.22 3218.18
3219.33 3211.89 3209.46 3204.69 3193.7 3187.7 3191.45 3205.27 3218.46 3237.51
3259.49 3280.57 3295.38 3312.51 3332.96 3359.83 3391.02 3425.8 3454.32 3461.56
3454.42 3426.91 3385.47 3375.48 3370.78 3336.61 3330.22 3332.4 3329.09 3316.68
3312.23 3320.06 3351.01 3398.75 3433.97 3454.1 3460.49 3461.95 3466.38 3450.63
3428.4 3400.97 3367.77 3362.25 3355.91 3362.75 3375.56 3397.18 3412.58 3457.48
3470.95 3467.24 3434.86 3419.95 3402.11 3384.62 3348.07 3307.45 3258.21 3240.51
3250.45 3249.71 3247.65 3248.94 3246.01 3270.31 3275.75 3254.81 3252.28 3249.7
3264.78 3290.85 3307.98 3314.97 3320 3320.25 3288.1 3243.16 3273.51 3307.22
3326.1 3335.62 3344.17 3351.2 3351.82 3345.99 3357.51 3353.7 3330.92 3335.91
3331.38 3320.65 3314.01 3318.96 3317.88 3301.07 3279 3316.62 3367.62 3403.66
3415.09

2887.09 2886.68 2887.81 2886.58 2889.25 2882.57 2883.25 2879.21 2879 2879.55
2880 2879.23 2877.07 2877 2876.05 2878 2877.33 2876 2877.79 2876.96
2876.1 2879.93 2874.12 2875 2883.47 2907.92 2910 2912.59 2914.04 2916.58
2917.83 2920 2920.63 2923.99 2926 2927.38 2928.06 2930 2932.01 2933.09
2936 2938 2943.21 2945 2946 2946.06 2948.21 2952.31 2954 2955.3
2956.94 2962 2964 2966.01 2968.72 2970 2971 2973 2975.2 2979.89
2981.1 2981 2983.35 2985.47 2986.91 2991.87 2993 2993.96 2994.3 2996.14
2999.25 3000.99 3003.09 3006 3006.96 3008 3009.45 3011.84 3013.55 3015.2
3017.74 3019.07 3021 3026.01 3026.03 3024.05 3025.91 3028 3029 3031.37
3034.41 3036.94 3036.34 3038.12 3041.03 3042 3042 3045 3045.99 3045.95
3047.51 3047.11 3046.15 3049.02 3049.99 3053.07 3052.59 3055 3055.32 3056.78
3059.93 3059 3059.07 3059.12 3060.58 3059.49 3051.37 3043.6 3044 3044
3042.89 3046.51 3068.2 3067.61 3068.03 3071.82 3069 3064.71 3064.86 3065.07
3065.26 3062.38 3063.99 3062.68 3062.09 3059.18 3061.45 3062.91 3066.17 3088.6
3106.62 3119.1 3127.04 3132.22 3136 3135.7 3139.17 3144.7 3148.9 3150.89
3158.63 3164.07 3169.71 3171.12 3176.38 3179 3178.51 3178.79 3177.99 3183.03
3185.11 3185.92 3196 3203.88 3205.49 3205.78 3198.57 3204.29 3207.02 3212.57
3213.3 3213.51 3212.97 3214.01 3212.57 3220.42 3231.02 3245.75 3247.38 3246
3239.8 3235.41 3227.36 3227.54 3226.21 3232.46 3234.82 3230.72 3227.25 3223
3225.44 3229.34 3227.19 3231.93 3236.34 3235.99 3234.04 3238.38 3238.78 3229.2
3224.36 3218.92 3224.06 3218.91 3200.33 3193.05 3197.02 3213.25 3229.35 3244.53
3262.67 3280.35 3299.03 3318.51 3340.26 3368.71 3393.44 3438.36 3469.57 3489.32
3475.35 3430.85 3408.32 3412.93 3399.09 3360.85 3358.54 3361.38 3351.05 3337.63
3327.77 3320.24 3339.02 3382.23 3416.45 3437.16 3443.56 3456.65 3462.25 3457.05
3446.57 3421.02 3392.59 3383.65 3374.39 3373.76 3390.76 3408.61 3431.02 3472.3
3478.02 3445.28 3419.11 3385.9 3371.66 3362.43 3337.77 3289.24 3247.01 3252.72
3260.46 3261.06 3264.16 3270.19 3267.3 3280.56 3281.14 3264.02 3280.18 3278.52
3270 3280.38 3302.22 3319.8 3324.2 3329 3314.08 3265.9 3270.54 3305.39
3328.95 3346.77 3351.74 3356.97 3361 3357.44 3364.52 3364.16 3343.36 3343.92
3339.76 3325.93 3320.38 3317.26 3318.37 3281.52 3297.95 3327.26 3372.86 3407.03
3416.54

2886 2886 2885.42 2885.42 2889.46 2880.74 2882 2882 2878.99 2879.99
2879.99 2880 2878 2878.01 2877.32 2877.46 2877 2875 2875.28 2877
2876.19 2879.97 2876.68 2884.88 2904 2906.88 2910.37 2912.19 2915 2917.51
2919.38 2920 2922.25 2925 2924.95 2929.11 2930.99 2933 2935.09 2935.7
2938.79 2939.03 2943.29 2944.62 2944.93 2948.52 2951.71 2954.21 2955 2956.81
2959 2961 2963.4 2965.21 2969.36 2970.96 2973 2972.18 2977.6 2980
2982 2984.3 2984.49 2985.85 2987.13 2990 2993.97 2995 2996.94 2999.98
3000.02 3003.01 3005.96 3007.89 3009.58 3010 3013.03 3015.36 3015.49 3019
3019.41 3020.96 3024.53 3028.39 3029.98 3027.52 3027.07 3029.24 3031.99 3034
3036.49 3035.39 3038 3041.19 3043 3043.47 3047.66 3047.1 3049.17 3049.36
3049.08 3049 3049.49 3051.37 3052.69 3054.95 3055.1 3057.45 3059 3060.62
3063.58 3065 3063.94 3063 3062.99 3059.21 3052.92 3046.73 3044 3043.78
3046 3054.69 3068.2 3069 3070.89 3071.95 3069 3066.51 3073.61 3069.22
3069.52 3067.28 3064.43 3063.24 3064.12 3064 3067.37 3070.66 3069.22 3097.51
3116.43 3121.46 3132.08 3136.84 3143 3143.38 3144.57 3153.92 3156.19 3159.03
3166.44 3171.43 3178.05 3181.88 3183.52 3188.08 3188.44 3186.34 3188.97 3191.44
3191.16 3201.14 3202.04 3210.66 3212.46 3213.79 3209.85 3217.17 3217.65 3224.91
3225.91 3224.02 3224 3230.55 3231.71 3236.86 3233.28 3241.45 3247.58 3246.96
3246.9 3242.05 3238.61 3237.25 3237.86 3239.98 3244 3238.87 3238.8 3231.63
3234.46 3240.95 3241.25 3250.07 3247.73 3246.5 3241.56 3246.91 3249.86 3241.31
3234.44 3232.55 3235.05 3226.02 3206.27 3197.78 3202.83 3218.32 3233.29 3253.19
3273.75 3294.85 3312.53 3326.86 3346.93 3370.2 3400.73 3443.29 3482.11 3496
3484.38 3448.36 3446.09 3445.4 3414.42 3377.6 3384.52 3384.67 3374.84 3361.46
3348.31 3336.1 3337.58 3368.92 3394.4 3407.68 3416.82 3431.35 3450.33 3454.06
3458.92 3445.96 3418.86 3400.11 3392.9 3390.74 3405.72 3421.98 3454.1 3486.97
3480.91 3449.01 3417.6 3389.14 3344.22 3341.28 3304.09 3256.57 3259.99 3262.5
3271.5 3276.55 3285.02 3289.88 3282.85 3292.58 3287.03 3274.59 3296.61 3304.38
3293.37 3274.51 3292.27 3319.1 3325.85 3331.71 3322.02 3300.05 3254.65 3289.17
3325.96 3346.57 3357.92 3362.65 3366.54 3365.64 3367.17 3367.34 3351.97 3346.55
3345.49 3331.98 3328.46 3316.07 3294.5 3312.9 3335.79 3331.94 3349.75 3387.07
3411.98

2885.73 2886 2884.4 2884.45 2883.96 2883.95 2883.58 2881.62 2880.73 2881
2880 2879.28 2878 2878.77 2879 2876.96 2878.41 2877.2 2876.99 2875.2
2880.79 2876.64 2877.83 2904.02 2907.41 2909.66 2912.3 2914.03 2913.43 2918.52
2920.63 2920.07 2925.07 2926 2926.99 2930.03 2932 2933.07 2936.45 2937.62
2940.99 2942.66 2944.46 2946.49 2947.88 2948.95 2953 2954.53 2957 2961
2961 2964 2963.96 2967.66 2971.18 2972 2974 2974.49 2978.99 2982.13
2982.9 2985.27 2988.41 2989 2990 2990.96 2994.6 2995.99 2999 3000.82
3001.71 3004 3008.6 3009.78 3011 3011.3 3014.33 3016.55 3019.28 3018.55
3021.22 3023.54 3025.22 3026.86 3030 3030.5 3032 3033.78 3033.92 3035
3037.84 3040 3040.51 3042 3042.85 3044.57 3047.89 3048.87 3049.57 3051
3052 3051.8 3051.85 3053.97 3054.72 3057.57 3057.79 3059.95 3062 3064.44
3064.3 3069.66 3064.85 3064 3066 3063.62 3054.7 3047.26 3047.37 3048.07
3045.87 3063.4 3072.39 3074.33 3072.32 3072.1 3072.34 3073.16 3074.99 3073.82
3071.08 3067 3067 3066.78 3067 3068.21 3074.04 3074.66 3085.76 3107.77
3129.31 3131.36 3135.67 3142.99 3147.99 3153.42 3157.58 3164.33 3167 3169.52
3174.49 3180.43 3185.8 3190.16 3189.12 3195.25 3198 3198.43 3196.73 3200.49
3206.97 3209.05 3211.15 3219.38 3220.13 3222.68 3220.01 3223.43 3228.87 3230.67
3232.87 3237.18 3234.94 3242.14 3246.75 3252.11 3248.8 3243 3250.47 3251.87
3254.94 3251.05 3252.27 3250.04 3247.03 3245.42 3255 3251.3 3249.78 3243.51
3245.93 3254.78 3255.76 3257.95 3257.5 3258.8 3254.57 3258.89 3256.43 3253.47
3245.16 3241.08 3240.38 3231.7 3211.95 3204 3206.26 3228.36 3243.47 3260.1
3280.42 3303.74 3320.57 3333.55 3351.7 3372.19 3405.95 3448.21 3493.49 3513.64
3505.9 3477.57 3479.62 3462.46 3415.42 3418.42 3407.75 3402.44 3398.35 3377.35
3364.75 3344.12 3360.65 3359.42 3366.65 3378.27 3393.5 3417.08 3439.48 3452.86
3458.85 3460.27 3451.9 3429.21 3414.92 3410.3 3424.22 3439.35 3473.29 3486.83
3472.61 3436.85 3403.3 3383.1 3326.89 3295.18 3262.72 3270.46 3280.28 3274.12
3290.89 3297.82 3305.69 3306.91 3300.53 3305.57 3294.99 3285.43 3306.83 3315.68
3315.73 3307.03 3293.02 3301.27 3312.95 3327.73 3327.96 3325.28 3282.15 3275.71
3310.1 3341.82 3358.35 3367.32 3372.21 3376.08 3374.99 3375.59 3366 3350.16
3356.65 3346.41 3336.97 3313.42 3296.06 3352.03 3382.51 3379.28 3364.83 3366.62
3396.13

2886.03 2885 2882.84 2884 2883 2883.42 2883.28 2881 2880 2880.96
2879 2878.94 2877.4 2879 2877.32 2878.93 2878.01 2878.04 2877 2877.92
2880.35 2879 2887.67 2905.02 2908.94 2910.2 2914.15 2918.02 2918.8 2919.91
2922.78 2923.14 2925.54 2926.98 2930.53 2930.99 2933 2936.75 2938.99 2939.01
2944.88 2945.15 2946 2947.02 2948.68 2953 2955 2956.38 2959.08 2959.86
2963.82 2963.65 2966.05 2968 2970.01 2971.13 2974.23 2977.04 2978.92 2983.72
2983.98 2986.01 2989.97 2990.96 2992.37 2993.95 2993.99 2997.46 3001.77 3002.04
3005.05 3007.28 3008.99 3011.22 3014.9 3015.02 3016.96 3017 3021 3022.06
3023.98 3023.93 3026.11 3027 3030 3032.62 3032.52 3034.01 3038.14 3038.02
3041.2 3041.37 3044.99 3044.14 3045.44 3047.83 3049 3051 3051.98 3054
3055.94 3058.89 3054.81 3060.09 3062 3058.96 3060.87 3063.99 3064.24 3066
3067.7 3069.89 3069.1 3066.79 3066.99 3065.19 3051.3 3048.55 3049 3050.99
3050.11 3074.03 3080.48 3079 3075.71 3079.36 3081.14 3075.97 3073.36 3072.34
3072.67 3070.27 3071.45 3071.95 3074.11 3077.05 3082.02 3084.56 3092.11 3113.04
3136.08 3141.47 3144.17 3153.6 3156.64 3164.38 3167.2 3173 3176.33 3178.28
3185.13 3191.53 3194 3198.26 3205 3203.28 3206.48 3208.03 3210.12 3207.81
3213.74 3222.12 3223.12 3227.58 3231.5 3230.84 3232.13 3234.75 3238.45 3242.16
3242.95 3247.36 3248.17 3248.03 3254.8 3257.98 3257 3253.22 3254.98 3260.14
3263 3262.54 3263.58 3261.75 3256.08 3255.35 3263.33 3266.34 3265.66 3263.87
3264.02 3267.92 3269.16 3273.34 3273.31 3272.27 3264.55 3270.77 3268.19 3261.08
3256.41 3254.05 3251.17 3240.14 3221.44 3208.4 3210.22 3234.63 3258.8 3275.88
3289.96 3303.74 3323.42 3345.38 3356.35 3373.58 3411.27 3453.71 3494.39 3514.97
3520.9 3518.38 3499.26 3459.97 3457.55 3468.52 3457.49 3439.42 3425.93 3396.56
3373.56 3360.87 3393.78 3401.6 3401.64 3395.52 3394.69 3394.92 3419.94 3436.25
3456.43 3460.46 3460.44 3448.78 3434.11 3433.41 3443.15 3459.97 3475.83 3469.84
3439.29 3425.36 3380.93 3335.24 3292.25 3274.23 3278.6 3284.84 3289.09 3286.7
3307.09 3316.51 3324.22 3321.45 3313.37 3318.18 3305.62 3299.9 3316.58 3323.75
3330.23 3330.52 3321.75 3306.59 3314.23 3317.06 3324.8 3332.51 3318.74 3290.52
3290.21 3321.97 3348.67 3366.9 3373.99 3382 3384.78 3385.69 3378.98 3363.42
3361.98 3362.18 3338.1 3317.49 3304.44 3352.3 3388.68 3389.29 3379.03 3380.38
3385.4

2886.94 2885.08 2883.01 2883.91 2882.78 2882.95 2881.09 2882 2881 2882
2880.42 2881.64 2879.3 2880 2880.96 2881.51 2878.41 2879 2878 2876.62
2878.81 2881.66 2901.83 2906 2907.54 2911.88 2915.64 2918.59 2918.05 2921.61
2924 2924.74 2928.12 2926.49 2929.73 2932.09 2933.3 2937 2938.61 2940
2943.64 2946 2946.98 2947.98 2953 2952.96 2955.95 2960.06 2961 2961
2963 2967 2967.99 2967.73 2970.18 2972.95 2975.02 2978.97 2981.46 2981.93
2986.68 2987.55 2990.95 2991.24 2994.06 2995.16 2995.46 3000.6 3002.99 3004
3006 3007.67 3010 3012.09 3013.14 3015.98 3018.66 3020.09 3021.63 3025
3023.96 3024.67 3027.85 3029.99 3031.56 3032.68 3035.95 3037 3039.98 3041.99
3042.05 3042.6 3047.9 3048 3048 3051.12 3051.53 3054.04 3055.02 3053.99
3059.55 3060.9 3059.13 3058.97 3062.96 3060.16 3065.42 3067.15 3069.26 3067.76
3068.95 3072.28 3074.04 3067.39 3066.52 3059.26 3054 3052 3054.95 3052.68
3058.05 3078.04 3080 3078.38 3077.65 3081.98 3082 3078 3075.59 3078
3073.15 3072.03 3076.31 3080.15 3081.92 3083.31 3087.44 3093.06 3097.06 3112.54
3142.46 3142.97 3154.13 3155.4 3163.34 3172.48 3174.15 3177.1 3187.06 3194.24
3193.51 3198.7 3206.99 3208.92 3210.38 3219.55 3218.59 3221.91 3219.12 3224.44
3226.67 3231.88 3231.16 3236.39 3243.55 3244.75 3245.01 3241.89 3248.45 3252.15
3257.98 3261 3259.77 3258.2 3263.76 3265.12 3263 3260.67 3261.39 3268.98
3274.11 3270.97 3273.65 3271.6 3270.59 3269.23 3273.76 3277.34 3281.11 3282.73
3284.49 3286.97 3288.61 3288.61 3291.68 3289.46 3273.31 3285.01 3284.76 3276.94
3274.38 3268.27 3267.06 3256 3225.82 3212.54 3213 3243.42 3271.7 3288.46
3299.81 3317 3336.82 3350.07 3362.2 3382.17 3409.99 3445.62 3482.45 3513.21
3544.33 3543.56 3511.94 3468.95 3494.34 3509.88 3500.64 3462.07 3429.77 3400.82
3374.83 3378.87 3430.42 3442.83 3437.22 3427.91 3420.91 3416.07 3418.19 3425.66
3446.55 3459.96 3466 3459.41 3452.62 3449.97 3459.25 3465.96 3474.05 3450.6
3400.97 3383.11 3350.63 3302.58 3284.45 3287.66 3287.82 3294.37 3300.25 3298.92
3317.41 3332.43 3337.83 3332.2 3330.33 3330.9 3318.42 3305.02 3328.83 3341.57
3344.95 3351.66 3348.38 3330.99 3319.14 3337.63 3340.38 3348.07 3349.25 3334.21
3318.68 3291.75 3317.2 3349 3368.43 3382 3390.92 3393.77 3388.49 3377.21
3374.77 3380.46 3349.92 3318.7 3307.12 3347.51 3378.43 3389.51 3388.62 3389.02
3396.93

2885.94 2886 2883.46 2883 2882.99 2883 2882.31 2881.88 2881.92 2881.97
2881.31 2882.65 2878.87 2879.93 2879.96 2881.94 2882.86 2877.9 2880.25 2880.04
2885.01 2902.55 2910.07 2909.42 2908.37 2913.1 2916.83 2917.39 2918 2921.37
2924.7 2926.17 2929 2928 2932.05 2934 2936.92 2937.1 2937.45 2942
2943.88 2946 2946.04 2949.94 2954.98 2955.01 2957.98 2959.83 2960.81 2963.18
2965 2967 2968.39 2972.69 2974 2973.45 2978.25 2978.43 2981.91 2984.18
2986.89 2988.29 2989.62 2993.67 2995.15 2998.96 2999 3001.1 3002 3004.51
3008.01 3009.74 3011.33 3014.38 3016.01 3018.56 3020.38 3021.66 3024.9 3026.94
3028.36 3029.42 3030.11 3032 3033.99 3035.26 3035.16 3038.8 3038.85 3044.97
3044 3045.98 3047.12 3052.88 3049.37 3052.83 3054.98 3056.91 3057.99 3058.99
3062.8 3062.84 3061.35 3059.59 3065.36 3066.77 3069.13 3073.02 3071.25 3072.68
3070.01 3073.07 3075.85 3074.71 3069.43 3061 3055 3054 3054 3053.76
3063.26 3077.95 3082.39 3082.66 3080.6 3082.85 3079.38 3078.47 3078.17 3077.89
3076.94 3079.8 3083.35 3085.33 3091.2 3094.12 3096.6 3103.65 3108.85 3122.07
3132.95 3140.54 3155.71 3165.71 3169.28 3176.01 3183.02 3195.65 3197 3198.86
3204.8 3210.58 3217.49 3221.01 3228.45 3228.6 3230.02 3231.68 3231.76 3230.07
3234.94 3240.9 3242.63 3246.91 3252.13 3257.54 3256.76 3251.64 3262.43 3266.43
3268.04 3270.32 3270.72 3269.92 3272.75 3272.87 3271.5 3271.55 3275.07 3278.05
3283.84 3284.93 3285.96 3283.53 3287.09 3283.16 3284.25 3294.9 3298.96 3303.41
3309.77 3314.13 3314.45 3311.26 3314.64 3315.02 3291.99 3296.73 3300.21 3297.95
3293 3282.71 3283.01 3263.96 3232.92 3217.99 3219.83 3249.2 3274.38 3287.45
3306.88 3321.99 3340.09 3357.55 3364.75 3387.72 3414 3454.94 3489.6 3518.47
3546.58 3553.89 3529.42 3504.96 3525.76 3523.5 3501.63 3461.7 3427.88 3402.46
3382.53 3407.9 3453.92 3469.11 3465.28 3454.93 3445.47 3443.84 3440.23 3437.41
3441.06 3455.09 3465.86 3466 3464.9 3459 3456.74 3458.67 3453.47 3427.62
3389.19 3343.45 3305.97 3299.83 3304.78 3302.93 3300.2 3309.06 3314 3314.69
3329.04 3346.86 3349.95 3345.83 3339.1 3341.45 3340.04 3331.63 3333.03 3354.82
3362 3369.95 3366.24 3355.36 3347.34 3356.51 3356.54 3350.21 3359.64 3362.92
3356.52 3330.99 3311.91 3320.09 3352.82 3378.92 3391.57 3397.93 3398.83 3388.16
3383.03 3392.33 3367.29 3334.16 3310.6 3339.25 3370.9 3394.45 3394.82 3391.39
3401.31

2885.02 2886 2884.79 2883 2883.99 2883 2882.61 2882 2882 2882.26
2882.77 2879.59 2881.47 2881.13 2880 2881.46 2882.98 2876.2 2880.33 2885.61
2898.74 2906.43 2909.35 2910.26 2911 2913.23 2917 2919.06 2918 2923
2926 2926.17 2930 2930.98 2933.54 2936.08 2937.92 2941.28 2941.34 2941
2943.55 2946.01 2948.62 2951.97 2954.24 2956 2960 2959.99 2962 2962
2964 2968 2969.61 2973.62 2976.69 2978.02 2979 2980.04 2983 2985
2986 2989.02 2991.97 2994.78 2996.55 2999.01 3001 3002.31 3004 3007
3008.56 3010.01 3012.08 3016.8 3016.42 3018.99 3023.03 3023.81 3025 3026.76
3030 3031 3032.76 3033.16 3037 3038.99 3039 3040.02 3043 3044
3045.3 3046.02 3048.01 3053.62 3055.98 3053.63 3057.22 3058 3059.26 3062.85
3067.81 3065.47 3062.22 3063.01 3068.59 3069 3071.75 3074 3074 3074.42
3073.95 3076 3074.89 3074.56 3068.54 3058.82 3056.13 3055.97 3055.36 3060.57
3075.21 3084.89 3081.66 3083.96 3084 3082 3082.95 3081 3078.43 3079
3080.03 3082.16 3088.01 3093.12 3096.99 3101.4 3106.38 3112.54 3114.86 3123.89
3148.61 3157.98 3163.2 3175.79 3179.7 3184.4 3196.7 3200.89 3206.06 3210.28
3215.51 3221.24 3229.64 3231.51 3236.8 3237.84 3236.67 3242.1 3242.37 3246.75
3243.7 3248.88 3255.06 3259.24 3262.96 3266.75 3266.19 3265.46 3269.99 3273.54
3280.4 3279.36 3281.65 3281.51 3281.24 3284.98 3285.6 3281.73 3287.01 3291.7
3293.56 3300.12 3299.56 3298.41 3297.31 3298.12 3295.65 3308.95 3321.72 3329.48
3336.79 3346.71 3343 3332.56 3326 3323.15 3302.01 3308.34 3325.17 3324.6
3317.39 3303.5 3302.72 3272.47 3237.87 3222.28 3224.85 3243.05 3259.29 3275.85
3305.13 3318.82 3338.85 3356.57 3372.85 3397.22 3419.62 3475.44 3511.15 3544.93
3566.54 3570.39 3556.8 3544.36 3549.12 3534.14 3495.47 3491.59 3460.62 3413.82
3391.56 3424.68 3466.89 3492.86 3495.27 3483.35 3472.33 3466.68 3458.59 3453.98
3447.95 3458.38 3463.21 3468.16 3471.76 3457.95 3435.96 3427.58 3416.29 3390.56
3361.83 3324 3308.94 3315.29 3314.02 3314.99 3310.64 3322.89 3332.6 3333.97
3336.87 3350.58 3358.15 3354.33 3355.23 3355.54 3362.16 3355.98 3342.96 3367.28
3379.2 3382.49 3383.64 3371.98 3364.05 3379.36 3374.79 3362.83 3374.08 3381.97
3375.49 3361.74 3346.48 3331.03 3327.43 3361.93 3387.28 3401.78 3405.24 3400.29
3390.11 3397 3384.05 3353.85 3322.78 3325.43 3367.9 3380.35 3385.34 3392.84
3401.15

2886 2887 2886.06 2885.78 2882.62 2882.01 2882.48 2881.88 2882.07 2883.38
2881.63 2882 2882.99 2881.97 2880.99 2878.94 2878.77 2879.93 2888.05 2900.65
2903.08 2905.91 2908.97 2911 2913.47 2915 2916.99 2922 2922.33 2923.85
2926.46 2930 2929.77 2930.87 2934.56 2937.9 2938 2942.87 2944.43 2943.41
2946.73 2947.91 2949.1 2952.29 2953 2956 2958.26 2961 2962.17 2966
2966.13 2968 2971.11 2973.05 2976.03 2978.84 2979.01 2984 2984 2986.48
2988.01 2990 2992.72 2995.75 2997.51 3000 3001 3004.3 3006.97 3008.88
3009.04 3013 3014 3017.27 3020.9 3022.26 3024 3025 3025.87 3029
3030 3033 3034.09 3034.97 3039 3041.86 3041.09 3042.12 3044.64 3044.99
3049.52 3051.08 3051.95 3054 3057.32 3060.03 3057.83 3059.17 3063.25 3063.96
3066.93 3064.41 3068.01 3069.82 3069.47 3071.48 3073.1 3074 3075.79 3076.25
3079 3075.13 3076.13 3074.35 3067.41 3060.19 3058 3057.01 3059.04 3063.55
3077.98 3085.96 3083.29 3083.95 3085.79 3085.13 3085.21 3083.4 3085.92 3081.79
3084.97 3086.36 3093.99 3098.84 3108.42 3110.12 3115.96 3123.14 3126.78 3134.59
3147.96 3161.85 3174.08 3179.96 3184.76 3199.16 3201.02 3210.89 3211.21 3219.45
3222.34 3230.27 3238.95 3243.12 3245.36 3252.51 3253.71 3253.79 3254.27 3251.86
3258.19 3258.85 3262.24 3270.69 3273.04 3275.26 3279.06 3279.12 3280.55 3286.54
3295.04 3296.08 3296.5 3296.71 3296.22 3302.19 3300.81 3296.86 3295.85 3299.12
3306.36 3310.57 3313.58 3310.49 3319.93 3316.41 3309.69 3320.25 3331.8 3339.63
3349.83 3354 3348.14 3334.49 3325.86 3321.06 3310.15 3308.61 3325.64 3325.6
3320.14 3309.23 3306.97 3275.67 3243.14 3229.74 3229.93 3238.06 3268.06 3285.67
3296.72 3317.7 3342.98 3362.44 3382.22 3405.9 3431.31 3480.76 3514.13 3548.24
3565.84 3572.93 3574.9 3575.59 3570.3 3549.91 3535.17 3513.06 3476.23 3423.56
3406.08 3431.75 3477.66 3504.84 3509.32 3505.63 3493.74 3489.19 3484.34 3468.14
3466.69 3470.06 3475.78 3480.57 3479.97 3462.25 3430.77 3399.59 3393.74 3386.71
3347.88 3322.21 3322.76 3330.95 3327.39 3326.98 3325.49 3333.01 3351.08 3347.66
3349.2 3359.22 3366.78 3366.56 3372.87 3376.85 3382.74 3379.17 3360.59 3379.38
3391.35 3395.57 3393.39 3379.29 3377.2 3388.26 3390.42 3383.05 3385.83 3388.15
3387.34 3382.95 3376.28 3364.1 3341.8 3338.05 3374.82 3400.64 3413.9 3414.76
3404.57 3404.77 3400.36 3371.63 3350.97 3327.23 3356.37 3381.13 3385.65 3397.97
3414.1

2884.1 2886.67 2887 2885.84 2882.46 2882 2883 2883.36 2883 2885
2884.94 2883 2882.48 2882.29 2883.68 2878.8 2883.1 2888.29 2897.1 2901.12
2906 2905.77 2910.01 2909.94 2913.99 2914 2916 2919 2923 2923
2928.28 2930.38 2931 2931.61 2934 2938 2939.93 2943.35 2945 2944.6
2947 2950.1 2952 2952.2 2953.1 2956 2957.05 2960.94 2965.35 2966.67
2968.67 2969.93 2970.78 2975.56 2977.54 2979.53 2983 2983.95 2985.47 2987.34
2991.04 2992.99 2995.94 2997.34 2998 3002.28 3003 3003.74 3007.04 3009.16
3012 3014.43 3015.4 3020.08 3023.79 3023 3024.33 3025 3028.83 3030
3033 3033.01 3035.51 3037.38 3039 3043.17 3043.59 3046.75 3045 3047
3050.99 3052.13 3053.99 3054.2 3054.92 3061.02 3061.63 3063.83 3064 3064.01
3065 3070.42 3071.86 3072.32 3075.21 3075.45 3077 3075.94 3078.16 3077.66
3080.63 3079.28 3079.02 3075.57 3070.43 3061.63 3059.89 3059.25 3060 3066.05
3085.09 3085.85 3088.32 3088 3085.54 3087.62 3088.98 3089.37 3088.47 3084.86
3090.59 3096.49 3101.47 3108.26 3112.34 3118.41 3124.46 3135.76 3137.49 3148.22
3161.88 3170.58 3179.62 3187 3196.31 3208.4 3214.58 3220.6 3223.15 3229.39
3230.77 3240.86 3249 3252.9 3258.44 3264.87 3267.61 3264.47 3269.26 3270.48
3268.19 3269.25 3275.19 3276.84 3284.88 3288.53 3294.09 3292.07 3294.49 3297.44
3302.48 3307.32 3308.09 3305.22 3313.6 3310.52 3314.28 3312.6 3310.46 3311.45
3322.3 3326.82 3326.91 3332.64 3334 3326.72 3320.86 3320.35 3330.34 3333.99
3340.02 3343.89 3338.83 3334.42 3329.82 3325.48 3319.56 3326.86 3340.63 3337.63
3319.04 3305.95 3288.4 3273 3247.65 3237.19 3234.5 3247.59 3292.6 3316.64
3324.85 3319.23 3336.07 3363.05 3379.96 3405.48 3431.51 3465.15 3491.79 3525.24
3558.82 3575.77 3584.99 3593.67 3594.8 3576.46 3560.61 3524.02 3477.02 3428.41
3424.86 3440.21 3480.6 3509.18 3523.91 3526.5 3521.95 3514.75 3500.02 3481.24
3485.28 3493.02 3490.51 3490.59 3488.6 3477.78 3444.67 3412.9 3387.73 3358.81
3338.15 3324.08 3334.83 3336.96 3341.56 3340.88 3343.05 3345.86 3359.73 3357.19
3366.65 3366.18 3382.27 3385.08 3391.46 3396.77 3400.47 3399.12 3385.79 3379.52
3403.82 3416.27 3411.8 3390.07 3394.87 3405 3403.69 3395.71 3395.63 3395.3
3397.31 3395.11 3391.72 3379.67 3362.36 3343.44 3369.31 3398.05 3416.25 3426.45
3422.25 3413.96 3411.04 3384.78 3372.46 3347.16 3343.21 3377.52 3389.57 3396.71
3415.54

2887.69 2887.42 2886.77 2884.45 2885.23 2882.64 2884 2884 2885 2883.74
2881 2883 2881 2878.19 2880.47 2881.44 2891.46 2896.98 2898.01 2901.59
2905.76 2908 2910.64 2915 2912.3 2915.08 2917.86 2919.16 2922.31 2923.51
2925.25 2930.13 2930.04 2933.19 2936.94 2937.27 2940 2942.99 2944.96 2945.07
2947.97 2950.96 2950.93 2955 2956.06 2958 2962 2961.69 2966 2966.99
2970 2970.18 2972.99 2975.63 2977.89 2980 2982.05 2986.7 2986.75 2989.88
2993 2994 2995.48 2997 2999 3004.04 3006.97 3004.96 3007.69 3008.76
3013 3016.01 3020 3021 3023.53 3024 3026.03 3028.8 3032 3033.1
3033.98 3036.98 3039.91 3039.51 3041 3043.96 3045 3048.89 3049 3048.14
3049.07 3053.11 3054.97 3056.9 3057.87 3061.67 3065.74 3063.91 3064.89 3065.96
3068.7 3071.85 3073 3074.38 3077.51 3076.79 3077.34 3082.13 3081.61 3078.67
3082 3080.34 3080.08 3075.96 3072.93 3063.52 3062.68 3063 3064.94 3071.76
3089.44 3089.96 3089.05 3089.02 3089.99 3090.41 3091 3090.28 3089.33 3089.87
3093.25 3099.81 3106.54 3113.3 3123.84 3129.39 3136.17 3145.79 3149.88 3155.82
3166.32 3181.91 3192.69 3198.62 3203.08 3215.36 3223.75 3228.09 3235.97 3240.76
3242.36 3247.46 3260.04 3262.04 3271.07 3277.62 3279.7 3281 3282.64 3280.22
3280.22 3279.82 3284.4 3291.36 3293.09 3297.5 3304.02 3305.72 3305.63 3310.28
3315.07 3318.86 3321.27 3323.31 3323.57 3330.64 3330.57 3329.67 3327.08 3330.89
3338.37 3342.73 3340.47 3345.8 3341.28 3335.82 3331.38 3328.67 3329.26 3335.19
3339.54 3350.58 3350.93 3347.64 3341.51 3338.8 3338.17 3344.53 3351.21 3346.5
3329.85 3336.91 3326.04 3285.11 3262.47 3244.15 3242.34 3253.31 3303.11 3323.02
3336.18 3345.92 3355.98 3354 3365.87 3391.63 3415.23 3446.07 3468.69 3496.95
3538.12 3568.36 3590.11 3602.14 3599.46 3589.53 3560.57 3512.13 3463.72 3427.86
3453.55 3475.49 3484.41 3510.37 3531.64 3545.11 3542.91 3533.6 3516.88 3498.15
3507.17 3511.08 3509.11 3509.01 3499.36 3476.82 3444.56 3412.57 3388.17 3364.87
3339.48 3329.94 3341.29 3350.75 3355.72 3353.14 3356.65 3361.09 3368.68 3374.58
3377.08 3379.99 3397 3404.71 3407.18 3420.33 3425.24 3424.97 3406.47 3390.67
3413.17 3426.64 3422.34 3404.97 3411.07 3418.48 3417.77 3407.76 3406.01 3406.34
3406.28 3406.57 3399.48 3393.35 3375.57 3353.93 3361.82 3395.55 3417.88 3431.83
3435.01 3419.58 3420.69 3398.96 3389.04 3362.05 3339.3 3369.35 3393.72 3405.59
3420.93

2889.19 2889.57 2887.92 2886.58 2886.99 2885 2885.08 2885 2885 2884.03
2884.59 2884.28 2884.98 2883.37 2884.62 2890.19 2897.45 2899.93 2900.18 2902.85
2907.57 2907.36 2907.4 2913 2913.36 2916.02 2922.19 2923 2924 2924
2927.04 2930.99 2931 2933.11 2938 2937.85 2941 2943.68 2944.8 2950
2948.63 2950.99 2953.29 2954.97 2957 2960.43 2962 2964.03 2967.32 2967.5
2970 2971.32 2973.2 2977.06 2978.7 2979.17 2983 2986 2989.02 2991.66
2994 2996.22 2996.29 2997.74 3000 3004.16 3005.71 3008.51 3011 3011.42
3014.38 3017 3020 3021.27 3024.95 3026 3027.06 3030.91 3033.11 3035
3036.34 3039.53 3040.15 3042.82 3043.21 3044.19 3045.02 3049 3050.11 3052
3052.55 3056.69 3056.91 3059 3060.4 3060.56 3065 3067.66 3068 3071
3071.71 3074.12 3075.28 3076.27 3079.1 3082 3080.92 3082 3080.58 3078.36
3081.47 3083.72 3083.97 3078.39 3073.02 3065 3065.12 3065.01 3070.65 3078.79
3091.2 3093 3089.54 3095 3093.51 3095.78 3093.01 3092.09 3095.65 3094.46
3101.23 3105.39 3112 3120.06 3128.7 3139.09 3143.59 3156.44 3163.33 3170.62
3174 3191.57 3202.12 3207.09 3218.6 3222.17 3234.25 3244.86 3247.08 3247.81
3249.7 3254.91 3269.1 3281.29 3284.55 3289.46 3289.28 3294.16 3293.07 3292.95
3294.96 3294.72 3294.79 3300.38 3307.91 3310.53 3317.68 3318.49 3318.35 3319.16
3326.88 3333.17 3336.31 3336.61 3337.81 3343.02 3349.92 3347.71 3346.78 3354.09
3356.53 3357.84 3357.52 3353.95 3352.5 3344.24 3341.23 3338.4 3343.67 3345.39
3352.43 3357.54 3366.59 3368.39 3361.09 3354.93 3352.38 3368.85 3365.1 3363.32
3364.51 3373.59 3357.18 3318.9 3276.8 3258.83 3248.57 3258.91 3304.54 3323.52
3338.29 3357.92 3378.35 3391.42 3402.4 3404.55 3414.56 3440.28 3460.08 3478.67
3516.08 3555.92 3587.92 3608.1 3608.79 3591.15 3554.29 3503.93 3460.65 3448.88
3486.6 3513.92 3523.14 3516.95 3542.69 3560.8 3564.3 3553 3531.06 3512.12
3523.79 3533.56 3532.37 3528.18 3506.92 3461.02 3434.36 3415.17 3386.62 3366.5
3343 3347.35 3351.76 3362.99 3370.36 3368.16 3375.76 3380.78 3384.14 3391.83
3393.21 3395.81 3415.24 3422.58 3426.41 3438.32 3448.26 3446.72 3434.1 3418.3
3424.66 3439.9 3434.99 3417.52 3431.06 3435.39 3432.08 3418.37 3420.92 3421.74
3417.17 3413.84 3406.58 3398.55 3377.15 3370.25 3360.77 3393.38 3417.33 3431.32
3439.1 3434.85 3434.09 3408.94 3395.02 3382.29 3361.25 3358.21 3396.1 3415.45
3440.14

2889.46 2889.64 2889.87 2889.78 2887.03 2888.33 2887.81 2887.19 2888 2889
2892.5 2890.36 2890.75 2891 2891.74 2897 2897.72 2902.26 2904.24 2908
2910 2910.76 2911.87 2908.98 2912 2917.02 2921.1 2922.64 2923.86 2926.01
2928.56 2931.87 2931 2934 2936.92 2940.51 2942 2941.4 2944.01 2950
2950 2951 2954.23 2955 2958 2962 2963.1 2965.97 2967.94 2969.59
2970.77 2974 2976.02 2978.9 2981 2982.09 2985.01 2986.75 2989.68 2991.01
2994.04 2997 2997.97 3001.01 3003.81 3004.99 3008.24 3009.28 3011.75 3015.2
3016.03 3018.26 3020.57 3023 3025 3025.99 3028.98 3032.91 3034.77 3037.69
3040 3040.7 3042.59 3042.99 3044.66 3047.41 3048.25 3049.4 3051.95 3053
3056.4 3059.16 3061.96 3059.99 3062.71 3062.29 3064.01 3069.78 3070.64 3070.45
3074.99 3076 3077.96 3079 3080.01 3082 3082.01 3082.82 3084.21 3083
3084.68 3085.8 3084.91 3079.31 3075.25 3067.3 3068 3068 3070.21 3079.3
3093.25 3095 3093.75 3094.09 3097.64 3097.99 3096.2 3097.79 3100.46 3103.84
3104.94 3114.91 3119.32 3127.19 3136.62 3145.68 3155.44 3161.91 3169.48 3178.79
3183.63 3194.63 3211.6 3221.39 3228.51 3235.02 3240.2 3252.74 3258.99 3260.02
3268.91 3271.33 3276.87 3282.04 3294.64 3301.85 3307.42 3308.91 3309.18 3309.51
3312.1 3307.72 3307.75 3314.77 3318.59 3321.97 3326.93 3336.08 3338.04 3333.67
3338.24 3348.63 3350.98 3356.08 3362.55 3366.25 3371.03 3371.13 3367.35 3361.58
3366.88 3368.29 3369.43 3365.71 3365.83 3358.16 3355.37 3354.09 3355.48 3360.78
3368.02 3386.5 3394.36 3393.77 3382.78 3359.02 3372.29 3387.31 3404.99 3407.86
3391.83 3375.2 3357.23 3320.14 3283.05 3263.87 3255.57 3258.97 3303.82 3329.1
3350.31 3371.88 3406.66 3427.07 3437.6 3443.67 3440.02 3459.73 3492.26 3523.87
3526.84 3541.22 3581.03 3616.79 3615.3 3590.15 3545.75 3510.1 3465.99 3470.49
3505.74 3539.49 3553.73 3554.6 3558.45 3581.49 3587.22 3575.31 3558.29 3530.92
3542.77 3556.17 3555.31 3539.16 3508.34 3466.76 3447.19 3431.2 3391.98 3358.3
3352.05 3366.96 3369.62 3369.57 3384.04 3385 3392.56 3396.2 3399.4 3413.02
3412.68 3416.67 3422.64 3436.44 3445.09 3462.43 3470.47 3471.02 3463.13 3448.84
3439.48 3455.63 3451.12 3438.16 3446.81 3449.39 3442.63 3432.94 3435.44 3432.18
3430.58 3422.59 3417.58 3408.13 3394.66 3389.24 3373.18 3386.44 3414.68 3433.87
3446.1 3441.98 3435.9 3414.16 3406.87 3398.75 3372.29 3355.62 3398.24 3421.6
3452.86

2894 2892.23 2893 2892.03 2890.32 2890.61 2890.91 2889.06 2894.34 2897.47
2893.8 2893 2891 2892.99 2895 2899.07 2901 2903 2906 2908
2908.97 2910.98 2912.08 2914.76 2917 2916.83 2921 2921 2923.82 2928
2929.77 2931.32 2932.15 2934.4 2938.54 2939.77 2941.04 2942 2944.51 2948.22
2950.85 2953.11 2956.98 2957.98 2959 2961.94 2964 2964.04 2969.89 2970.99
2973.56 2976.52 2978 2979.98 2984 2984.43 2987 2990.41 2990.42 2994
2996.3 3000 3001 3003 3006 3006.14 3009.1 3012.94 3013 3015.08
3017.01 3019 3020.77 3023 3025.06 3029 3029.32 3032.87 3036 3037.93
3041.96 3042.02 3043.41 3046 3048.17 3048 3048.31 3052.96 3054.1 3057.98
3057.96 3059.74 3060.99 3062 3063.34 3065.96 3070.59 3072.58 3075.15 3074.02
3077.35 3079 3079.16 3081.17 3083.17 3084.62 3085 3084.44 3084.78 3086.44
3087.53 3088 3083.1 3079.64 3074.76 3070 3070.09 3070.25 3072.81 3081.98
3096.71 3099.75 3095.29 3098.77 3100.6 3101 3104 3103.05 3104.13 3107.86
3112.49 3117.98 3127.21 3134.41 3144.99 3149.46 3162.08 3170.01 3183.36 3188.07
3194.66 3202.7 3220.82 3232.81 3235.33 3246.4 3251.63 3264.81 3274.91 3272.68
3276.5 3279.43 3290.37 3298.8 3304.88 3316.97 3321.16 3323.07 3321.29 3321.8
3320.81 3322.64 3320.47 3326.13 3330.36 3333.81 3342.02 3348.6 3352.8 3348.32
3352.86 3362.12 3368.12 3381.21 3386.68 3386.76 3391.56 3392.39 3381.05 3377.87
3374.92 3379.63 3382.51 3381.66 3379.2 3372.62 3367 3367.26 3369.54 3383.57
3401.98 3425.17 3432.15 3429.25 3391.98 3394.64 3401.65 3403.73 3431.33 3442.22
3425.98 3376.91 3334.57 3305.26 3286.21 3273.26 3260.07 3265.23 3301.73 3326.01
3357.31 3378.24 3408.36 3429.79 3439.86 3447.93 3447.76 3469.24 3500.95 3547.33
3572.06 3580.35 3593.68 3616.94 3620.01 3597.43 3550.87 3513.69 3476.67 3480.95
3517.99 3547.35 3575.06 3582.71 3593.77 3601.32 3603.26 3593.65 3575.27 3554.7
3564.29 3574.73 3568.92 3540.73 3499.47 3475.07 3453.6 3428.57 3388.15 3361.9
3377.75 3386.6 3392.49 3389.55 3392.8 3404.68 3412.66 3415.29 3424.71 3424.11
3421.91 3433.86 3442.3 3434.9 3459 3481.35 3493.07 3496.59 3488.78 3472.77
3459.55 3473.65 3468.93 3458.11 3464.1 3467.13 3456.77 3448.99 3450.48 3449.04
3443.83 3437.29 3426.09 3410.84 3410.6 3404.29 3388.73 3383.01 3409.87 3429.23
3449.59 3453.84 3447.84 3432.6 3415.32 3399.22 3383.93 3360.46 3393.46 3432.24
3464.4

2896 2896 2893 2893 2890.64 2891 2891 2890 2893.26 2896.75
2894.94 2894.69 2897.01 2897.81 2899.33 2901.08 2903.69 2907 2907 2908.72
2909.91 2912.88 2913 2915.97 2916.51 2920 2919.27 2921.41 2924.43 2928.01
2929.22 2933.2 2936 2937.05 2939.21 2942 2941.13 2945 2947.99 2951
2953.67 2956 2956 2958 2959.62 2963.06 2963 2966 2969.01 2970.99
2973.07 2976.99 2979.11 2979.2 2984 2986 2986.99 2990.7 2991.19 2994
2997 3001.02 3002.97 3004 3006.02 3007 3010.66 3011.52 3015.62 3017.95
3019 3019.46 3022.23 3025.8 3026.54 3029.1 3032 3034 3038.32 3039.94
3040.55 3044.98 3044.03 3047.89 3051.42 3051.03 3050 3053.67 3055.9 3057.98
3056 3061 3061.98 3067 3066.28 3070.99 3071.66 3072.89 3075.57 3077.4
3079.75 3081 3084.96 3084.15 3083.97 3087.95 3087.75 3088 3088.12 3087
3087.93 3088.1 3087.81 3080.81 3079.36 3073.77 3071 3071.01 3073.31 3085.54
3100.9 3099.3 3102.98 3104.05 3104.43 3104.45 3101.71 3107.32 3108.64 3111.9
3122.06 3126.46 3135.53 3137.99 3151.86 3154.45 3170.05 3179.68 3192.42 3199.2
3207.68 3215.55 3228.73 3242.73 3246.51 3254.6 3270.02 3276.06 3284.91 3289.65
3292.21 3295.62 3298.75 3310.16 3318.17 3328.3 3334.72 3338.03 3337.45 3336.48
3336.8 3338.1 3335.21 3340.06 3344.17 3346 3356.86 3362.1 3369.51 3370.55
3379.69 3386.49 3385.49 3400.28 3407.55 3409.71 3404.3 3403.38 3393.36 3388.69
3387.55 3392.64 3397.6 3394.76 3393.95 3387.41 3387.54 3389.69 3398.77 3407.9
3421.1 3449.98 3456.68 3441.21 3398.68 3434.01 3438.27 3432.94 3463.51 3462.8
3424.54 3373.76 3331.09 3306.25 3286.15 3274.2 3265.97 3266.04 3295.42 3322.73
3354.08 3376.76 3380.66 3392.5 3403.62 3430.08 3454.76 3479.87 3502.11 3550.04
3600.19 3614.38 3628.94 3639.52 3628.99 3596.8 3551.87 3522.87 3494.17 3493.96
3517.42 3552.78 3582.08 3605.76 3619.1 3623.69 3625.23 3617.64 3601.65 3588.2
3590.14 3595.76 3584.07 3540.06 3504.71 3476.52 3450.16 3410.65 3376.26 3381.25
3401.04 3407.94 3410.75 3408.49 3403.44 3420.25 3429.84 3441.93 3450.75 3449.95
3451.37 3449.19 3460.15 3454.37 3468.33 3493.86 3509.96 3514.5 3509.23 3488.97
3479.4 3492.6 3488.59 3480.41 3482.9 3482.46 3470.13 3463.89 3463.74 3464.16
3461.09 3451.76 3439.51 3420.3 3424.09 3414.52 3407.04 3384.67 3404.64 3431.39
3451.76 3459.02 3458.28 3444.94 3424.82 3399.43 3392.41 3371.94 3390.53 3429.02
3468.42

2897.35 2896.63 2896.8 2897 2894.72 2892.88 2892.99 2892.88 2891.89 2893.97
2898.94 2899.64 2896.07 2901.62 2904 2905.04 2905.21 2908.9 2910 2908.94
2911 2912.88 2912.38 2916.24 2916.75 2920 2921.8 2922.19 2924.37 2928.19
2929.92 2930.99 2936 2938.35 2939.68 2942.67 2943.82 2946.55 2948.65 2951.05
2954.56 2957 2958.22 2959.17 2960.63 2963.68 2966.98 2967.1 2971 2972
2974 2978 2979.25 2980.99 2984 2985.08 2989.99 2990 2991.95 2993.01
2998 3001.99 3003.68 3006.94 3008.06 3011.98 3012.02 3014.48 3016 3017.92
3018 3023 3023.45 3026.67 3027.92 3031.13 3034.01 3035.62 3037.09 3039.86
3043.32 3046.02 3048 3047.03 3054.57 3055 3052.92 3056.69 3058.41 3058.86
3061 3059.52 3065 3070 3068 3070.45 3073.58 3070.01 3074 3078.98
3080.59 3084 3085 3087.29 3088.39 3091.97 3089.82 3089.13 3092 3091.03
3091.63 3091.89 3090.94 3082.27 3080.98 3073.68 3073.44 3074.4 3080.09 3091.05
3101.74 3103.23 3106.23 3109.97 3108 3108.99 3108.11 3112.09 3115.23 3120.12
3127.01 3130.99 3140.43 3144.91 3159.45 3168.29 3176.02 3186.8 3197.23 3206.54
3217.03 3226 3235.7 3246.64 3259.84 3270.98 3280.46 3288.02 3292.92 3297.27
3300.67 3307.59 3305.89 3324.03 3328.78 3340.12 3344.95 3351.01 3351.46 3350.59
3352.59 3350.56 3346.84 3350.13 3356.89 3361.2 3366.37 3376.93 3390.04 3396.49
3405.1 3404.35 3404.8 3413.94 3422.3 3426.82 3421.45 3419.52 3411.58 3404.46
3396.36 3406.2 3411.76 3410.42 3405.84 3411.65 3420.6 3422 3443.05 3456.28
3465 3476.55 3468.99 3433.94 3433.18 3469.52 3470.28 3446.73 3466.2 3461.91
3406.86 3368 3325.34 3305.29 3290.86 3283.62 3275.91 3269.24 3283.09 3312.54
3328.38 3343.9 3378.48 3404.43 3425.25 3451.55 3471.84 3483.49 3504.72 3554.6
3597.59 3632.93 3646.88 3650.91 3637.04 3597.67 3565.07 3534.92 3503.04 3510.78
3530.72 3561.69 3591.12 3617.51 3636.48 3645.21 3645.42 3639.36 3621.82 3614.61
3614.23 3610.08 3581.11 3536.99 3504.57 3473.71 3441.96 3402.33 3385.85 3401.32
3413.61 3427.24 3430.48 3427 3420.75 3442.49 3457.28 3463.92 3477.83 3478.83
3479 3465.05 3471.31 3467.72 3473.77 3500.8 3527.38 3529.25 3523.35 3507.85
3507.12 3513.05 3510.07 3507.72 3506.7 3500.67 3481.06 3482.1 3482.77 3482.16
3475.77 3465.37 3445.13 3440.96 3436.49 3430.96 3418.06 3407.04 3400.01 3431.5
3454.19 3466.33 3467.92 3455.29 3433.55 3407.98 3396.68 3380.73 3383.13 3430.09
3473.93

2898.5 2898.44 2898.88 2897.98 2896.97 2893 2892.7 2893.99 2895.17 2897.97
2899.43 2899.89 2898.39 2901.9 2904.27 2907.33 2908.44 2908.99 2910.98 2909.41
2911.19 2915 2917.11 2918 2918.12 2919.3 2923 2924.95 2926.42 2927.31
2931.59 2933.52 2937 2939.18 2940.04 2944 2946.35 2946.99 2949 2952.37
2955.25 2957.89 2959.23 2962.17 2962.67 2966.96 2968.13 2969.01 2971 2971.97
2976 2978 2978.02 2982.07 2984 2987 2987.52 2991.05 2994 2996.86
2998.01 3001.43 3005 3009.21 3011.22 3011.35 3013.28 3016 3016 3021
3022 3024.04 3026.06 3029 3030 3032.95 3036.02 3037.93 3038.52 3043.65
3045 3046.94 3046.61 3052.5 3055 3053.82 3057.38 3058.21 3059.06 3056.6
3063.99 3061.3 3064.46 3069.83 3068.5 3069.65 3080.62 3079.75 3086.38 3078.33
3082.09 3085.05 3086.93 3088.77 3090.85 3094 3091.58 3093.95 3092.94 3093.08
3094 3093.27 3092.4 3085.36 3082.63 3075.97 3076.04 3076.44 3081.95 3095.68
3108.73 3109.98 3110 3110 3108.58 3113 3113.09 3118.01 3123.85 3122.01
3133.44 3137.66 3147.14 3154.38 3163.04 3175.11 3185.75 3192.45 3203.11 3215.19
3226.56 3229.57 3244.32 3257.59 3267.87 3279.84 3288.58 3296.87 3302.98 3308.58
3315.28 3324.11 3327.12 3331.93 3343.15 3354.01 3357.1 3366.91 3366.38 3368.67
3369.87 3365.42 3359.58 3365.74 3369.99 3377.19 3380.9 3393.18 3400.73 3413.25
3426.04 3434.35 3427.86 3425.1 3435.66 3445.05 3443.74 3441.28 3437.01 3425.24
3427.32 3437.82 3438.86 3428.34 3433.2 3456.3 3456.18 3457.29 3492.35 3508.31
3499.77 3478.16 3468 3426.78 3459.8 3487.51 3476.11 3446.47 3443.07 3408.95
3376.25 3349.61 3319.99 3308.37 3294.94 3289.69 3295.27 3278.63 3283.84 3311.88
3335.64 3361.3 3383.8 3416.81 3434.97 3447.41 3456.84 3471.15 3501.28 3535.87
3582.77 3623.58 3629.02 3634.76 3624.53 3600.05 3569.17 3537.43 3516.69 3521.85
3552.68 3573.19 3609.11 3637.49 3658.98 3670.08 3667.92 3658.04 3648.05 3637.19
3630.14 3613.81 3578.67 3534.05 3493.8 3459.94 3419.69 3391.57 3409.21 3426.95
3430.5 3447.53 3449.79 3448.09 3434.91 3454.99 3476.76 3492.07 3505.84 3504.24
3502.26 3491.9 3486.23 3481.1 3491.51 3512.17 3530.96 3542.33 3540.65 3536.26
3534.05 3535.54 3531.45 3532.79 3525.76 3515.35 3492.38 3500.46 3503.32 3501.96
3494.72 3475.32 3458.53 3457.2 3452.43 3444.01 3426.76 3426.94 3415.36 3427.75
3455.03 3474.01 3474.75 3465.86 3446.93 3420.27 3404.95 3393.55 3379.87 3423.99
3461.95

2899.99 2898.68 2898.8 2899.88 2895.55 2895 2895.02 2895.84 2898 2897
2899.21 2902.99 2902.73 2903 2905.02 2908.07 2910.91 2909.99 2910.92 2912.37
2914.94 2914 2920 2920.99 2919.04 2921.83 2925.99 2924.28 2927.68 2927.99
2933.08 2935.92 2937.05 2939.44 2943 2944 2947.15 2950 2950.2 2953.92
2958 2959.91 2960.13 2962.11 2964.53 2968.68 2970.15 2971 2972 2973.32
2976.9 2980 2981.5 2984.95 2983.34 2987.07 2988.45 2992 2994.25 2998.67
2998.3 3003.41 3005 3008.07 3011.2 3011.43 3014.03 3018 3020 3021
3023.02 3025.01 3028 3029 3033.01 3034 3036.06 3038 3041.54 3043.99
3046.14 3048 3048.78 3051.55 3055 3055.31 3057.09 3062.67 3061.88 3060.3
3062.56 3068.63 3068.71 3069.91 3071.27 3078.08 3079.26 3079.02 3088.67 3079.26
3084.62 3087.11 3087 3089.27 3092.69 3096.14 3098.13 3094.9 3096.06 3098.96
3096.92 3096.17 3094.89 3088.64 3088.89 3079.16 3078.38 3076.58 3083.16 3096.44
3108.48 3111.83 3112 3110.33 3112.29 3120.97 3121.55 3124.6 3128.04 3132.98
3137.33 3145.39 3150.75 3159.63 3165.96 3181.11 3192.53 3199.97 3214.61 3221.65
3231.66 3243.13 3252.69 3259.21 3279.33 3289.37 3298.99 3307.36 3314.41 3322.9
3327.73 3337.24 3338.61 3340.58 3355.41 3365.88 3374.29 3382.8 3385.53 3384.96
3382.05 3378.65 3377.43 3377.86 3385.7 3391.01 3408.81 3421.09 3424.17 3428.67
3443.58 3452.86 3449.91 3448.11 3455.42 3462.02 3462.27 3463.17 3460.37 3462.86
3471.51 3472.17 3450.49 3451.54 3443.63 3492.56 3501.13 3483.75 3513.83 3528.14
3510.43 3477.62 3450.69 3440.58 3468.44 3478.42 3457.61 3425.63 3399.87 3370.66
3347.47 3334.79 3319.81 3307.16 3304.48 3314.9 3307.75 3287.22 3287.95 3297.11
3329.17 3355.3 3373.94 3397.41 3409.45 3412.22 3446.45 3494.32 3530.11 3550.04
3560.9 3572.72 3577.93 3581.73 3606.45 3605.05 3576.06 3544.49 3538.63 3549.51
3573.1 3613.97 3636.9 3657.65 3686.11 3692.94 3691.28 3676.45 3657.6 3639.58
3628.45 3589.63 3548.69 3498.48 3472.07 3443.99 3422.41 3409.15 3426.95 3447.97
3447.38 3459.84 3469.63 3462.93 3451.95 3475.66 3496.74 3516.37 3527.83 3530.51
3528.16 3516.93 3504.19 3496.88 3505.27 3511.58 3530.58 3555.04 3557.68 3556.95
3557.29 3557.86 3554.34 3547.57 3544.7 3528.21 3510.28 3518.94 3518.25 3515.12
3500.42 3478.6 3474.92 3472.58 3465.96 3455.08 3444.38 3444.86 3437.72 3424.83
3455.4 3478.87 3482.04 3477.31 3456.59 3435.54 3414.09 3404.52 3380.2 3418.64
3448.34

2902.81 2900.72 2900.84 2900.9 2897.64 2897.47 2897 2897.82 2897.06 2899.31
2904.94 2904.73 2903.83 2904.02 2906 2908.81 2913 2911.95 2913 2913.22
2915.48 2918.92 2920.98 2919.98 2919.99 2926.26 2927.99 2927.28 2928.99 2931
2934 2935 2938 2940.35 2942 2944 2946.89 2951 2952.41 2955
2957.77 2959.85 2961.69 2963.24 2965 2969.38 2971 2973 2972.49 2975.23
2976 2979.04 2982.4 2983 2987.76 2991 2992 2993.46 2995 2997.89
3000.89 3004.13 3006.96 3008.62 3011.59 3011.08 3015.01 3018.72 3020 3022.56
3023 3025.38 3027.77 3030.3 3035 3036 3037 3040.58 3042.37 3045.02
3048 3049.5 3050.11 3052.15 3062.79 3060.76 3059.19 3057.99 3058.97 3066.99
3067.46 3068.99 3070.45 3070.91 3075.99 3081.99 3080.54 3081.44 3081.52 3082
3083.72 3089.88 3092 3091.1 3092.95 3097.88 3099.86 3101.99 3101.59 3100.09
3099 3098.2 3096.73 3092.14 3089.57 3082.61 3080 3078.62 3084.99 3105.14
3108.06 3112 3114.53 3115.99 3121.91 3123.21 3125.01 3128.92 3133.61 3137.99
3145.29 3154.02 3159.51 3167.66 3175.45 3185.43 3197.18 3212.98 3220.01 3231.14
3241.61 3254.13 3263.53 3273.33 3286.18 3300.09 3312 3317.5 3327.35 3335.56
3338.68 3350.05 3355.46 3357.3 3362.32 3372.11 3386.07 3396.74 3396.13 3400.29
3401.09 3396.63 3392.38 3395.69 3400.37 3410.62 3425.1 3444.31 3447.62 3448.02
3452.49 3469.47 3469.26 3473.98 3475.55 3483.26 3482.93 3487.97 3487.74 3497.97
3498.47 3490.3 3468.33 3488.61 3478.24 3495.23 3520.12 3518.83 3544.91 3556.89
3540.74 3505.86 3469.85 3457.01 3468.25 3454.66 3413.92 3385.2 3372.5 3358.58
3349.29 3330.72 3326.55 3332.42 3342.4 3336.77 3312.07 3295.29 3301.52 3307.85
3311.33 3326.15 3355.43 3360.66 3395.66 3425.46 3450 3494.27 3524.25 3533.94
3532.29 3524.81 3535.75 3575 3614.07 3623.5 3591.87 3560.49 3556.31 3568.62
3597.91 3624.62 3657.38 3681.34 3703.41 3709.13 3707.14 3687.1 3651.49 3622.39
3603.06 3583.37 3542.98 3496.11 3468.6 3435.7 3418.26 3428.29 3450.99 3466.95
3464.47 3478.39 3485.94 3480.49 3467.58 3483.17 3512.1 3536.82 3548.3 3551.86
3546.84 3538.82 3522.3 3513.93 3513.08 3525.39 3538.9 3568.09 3581.19 3579.65
3580.02 3579.81 3572.87 3569.46 3565.39 3542.47 3529.18 3533.42 3534.51 3522.7
3504.17 3496.88 3498.16 3489.98 3484.38 3468.8 3462.55 3458.09 3450.2 3436.97
3455.6 3481.2 3490.95 3487.43 3471.41 3443.52 3424.86 3414.68 3386.89 3416.12
3447.84

2904 2904.71 2903.5 2901.08 2901.76 2902 2898.08 2899.12 2900.13 2902
2905.05 2905 2905.47 2909.09 2908.08 2910.01 2911.95 2912.1 2913.15 2912.98
2916.69 2919.1 2919.05 2920.01 2922.18 2927 2928 2927.95 2930.03 2932
2933.36 2935.11 2938 2942.43 2943.61 2946 2947.51 2951 2955.01 2956
2958.17 2960.96 2964 2963.24 2966.73 2967.1 2972.24 2972.98 2976.13 2977.16
2979.98 2979.22 2984.12 2985.96 2987.9 2989.14 2992 2994.92 2998 3001.01
3003 3004.65 3006.99 3009.57 3011 3012.49 3016.01 3020 3021 3024
3025.16 3027.97 3030 3031.21 3034.08 3037.13 3038.38 3040.92 3042.06 3047
3047.71 3051.94 3054.45 3056.15 3059.77 3059.68 3060.98 3061 3062.23 3065.59
3069.99 3068.92 3070.94 3074.65 3078 3076.54 3080.22 3082.34 3083.9 3083
3087.15 3091.99 3095.94 3095.3 3099 3098.94 3100.17 3101.71 3102.43 3101.38
3102 3100.05 3101.03 3095.31 3090.76 3084.69 3081.85 3081.94 3085.22 3109.4
3113.01 3114.67 3117.94 3116.96 3124.79 3125.77 3132.54 3134.62 3142.5 3145.01
3150.44 3158.58 3162.45 3173.32 3185.47 3195.18 3203.24 3220.89 3229.15 3240.43
3251.12 3261.65 3271.14 3281.85 3293.94 3306.23 3317.35 3327.9 3338.18 3350.29
3353.88 3363.27 3370.1 3370.91 3373.14 3386.03 3398.75 3410.3 3414.82 3417.55
3418.98 3415.46 3409.37 3415.54 3418.97 3425.37 3444.77 3463.31 3476.6 3475.13
3472.27 3486.38 3497.64 3505.27 3508.27 3510.18 3510.79 3518.61 3524.02 3527.29
3526.73 3512.94 3490.98 3512.69 3506.1 3492.87 3525.6 3557.01 3587.99 3590.33
3567.09 3528.76 3493.4 3481.55 3448.74 3427.23 3399.81 3391.38 3370.1 3356.55
3349.96 3347.46 3370.05 3371.81 3361.15 3345.36 3314.41 3303.56 3310.53 3338.88
3345.97 3325.38 3329.58 3353.41 3401.91 3430.68 3457.4 3464.46 3478.45 3484.93
3484.72 3504.54 3562.89 3611.76 3633.87 3628.12 3609.53 3576.31 3579.65 3592.97
3615.9 3650.23 3675.66 3696.88 3716.47 3730.61 3728.25 3689.7 3647.64 3615.81
3575.72 3550.81 3512.17 3485.3 3444.56 3432.09 3436.75 3446.75 3468.46 3482.16
3485.48 3497.37 3502.84 3500.13 3486.72 3493.01 3513.01 3546.24 3562.83 3571.9
3569.68 3559.25 3543.08 3529.22 3528.72 3541.84 3554.72 3588.96 3604.06 3607.79
3608.13 3606.71 3601.78 3595.46 3587.33 3568.83 3549.6 3554.31 3550.84 3531.92
3516.95 3519.26 3520.05 3506.35 3493.59 3480.22 3478.87 3473.19 3466.35 3453.85
3461.06 3491.29 3503.42 3502.29 3477.77 3450.44 3429.78 3419.99 3397.79 3414.3
3448.11

2902.99 2906.88 2905.07 2901.28 2904.15 2902.06 2900.09 2901 2902 2901.86
2905.99 2904.42 2907.94 2909.89 2908.97 2910.18 2912.2 2913.12 2915.18 2916.74
2917 2921 2920.78 2924.01 2924.03 2929 2928 2931.99 2931.74 2932.42
2935.58 2936 2938.98 2941.99 2943.56 2945 2948 2951.23 2952.97 2954.45
2959.3 2961.92 2963.74 2965.96 2966.93 2970 2972.12 2974 2977 2978.87
2982 2983.99 2984.62 2987 2988.41 2991.07 2993.52 2997 2998.55 3001.86
3002.42 3005.34 3008.17 3009.7 3014 3014.97 3017.21 3021.5 3021.67 3024.25
3027.18 3029.04 3031.3 3032.07 3035.04 3038.02 3040.81 3041.06 3044 3046.69
3048.55 3053 3056.57 3057 3057 3060.46 3063 3063 3065.14 3067.45
3070 3070.93 3075 3074.17 3085.66 3081.44 3081 3081.86 3084.03 3087
3089 3095.52 3095.95 3097.73 3101 3100.55 3103 3102.61 3102.96 3103.1
3103.65 3102 3104.87 3098.51 3093 3089.74 3084.23 3085.07 3085.1 3101.8
3116.69 3119.39 3117.63 3120.89 3123.07 3127.08 3133.64 3140.8 3148.3 3152
3157 3164.66 3169.04 3183.1 3191.27 3202.42 3213.63 3224.7 3233.16 3250.26
3261.83 3273.01 3286.08 3288.72 3303.81 3311.32 3322.35 3339.29 3347.93 3354.27
3366.26 3377.65 3380.87 3388.51 3387.52 3396.26 3411.35 3426.19 3431.73 3437.39
3438.16 3439.71 3435.9 3439.61 3442.42 3438.32 3461.39 3492.84 3509.5 3507.8
3497.6 3503.6 3524.36 3536.77 3546.42 3541.05 3531.65 3547.66 3554.46 3555.39
3550.22 3525.86 3518.81 3549.06 3556.39 3527.47 3537.25 3568.67 3609.57 3606.68
3571.68 3539.51 3519.18 3487.81 3445.47 3418.66 3405.88 3386.2 3371.59 3372.74
3379.4 3393.33 3394.49 3388.85 3374.9 3343.89 3312.16 3313.68 3326.8 3366.21
3387.71 3372.94 3348.12 3342.11 3372.2 3405.58 3434.4 3433.08 3438.55 3448.45
3463.37 3511.57 3564.46 3615.02 3636.8 3638.9 3619.55 3591.08 3599.54 3621.85
3642.15 3665.86 3692.71 3718.26 3738.48 3744.63 3736.66 3716.63 3675.33 3632.36
3600.02 3562.32 3517.35 3462.76 3449.74 3449.55 3451.18 3462.32 3484.63 3493.21
3503.82 3514.58 3521.71 3521.34 3500.07 3507.82 3530.31 3557.83 3577.79 3592.98
3590.88 3577.37 3559.9 3547.25 3545.33 3550.81 3570.03 3599.09 3626.54 3634.53
3632.93 3634.68 3626.58 3619.66 3606.87 3584.53 3566.49 3569 3562.82 3548.64
3539.65 3544.48 3532.71 3523.13 3508.72 3497.43 3491.39 3485.66 3474.87 3471.63
3453.06 3487.3 3511.45 3513.24 3497.78 3468.09 3440.05 3432.32 3409.93 3406.38
3446.98

2905.96 2904.84 2907.87 2905.31 2905.36 2903.43 2903 2903.77 2903.36 2904.32
2907.15 2906.62 2907.9 2911.13 2912 2912 2914 2916 2916 2917.02
2917 2920.17 2921 2925 2924.63 2927.98 2928.75 2928.84 2932.54 2935
2934.99 2939.81 2938.38 2941.35 2943 2944.9 2948.19 2951 2953.07 2955
2959.65 2960.18 2962 2964.07 2967.95 2970.8 2973.61 2974.27 2977.28 2978.59
2980.84 2984.43 2986.29 2986.95 2991.33 2992 2992.33 2996 2998.37 3003
3003 3006.98 3008.95 3012 3014 3015.98 3017 3021.94 3023.89 3027.57
3029 3030.98 3031.93 3035.54 3036.82 3037 3041 3043 3045.01 3049.41
3050 3053 3054 3056.28 3058 3061.19 3064.14 3066 3066.61 3067.77
3069.39 3070.01 3078 3078.99 3083.32 3082.47 3081.18 3084.61 3086 3089.6
3091 3097.76 3096.85 3100.44 3101 3101.97 3103.16 3103 3105.58 3106
3105 3102.98 3107.37 3103.19 3096.94 3095.22 3089.23 3088.4 3086.7 3108.1
3118.66 3121 3121.31 3125.6 3126.23 3131.44 3140.62 3145.91 3147.36 3159.73
3165.38 3166.3 3169.98 3188.94 3194.8 3204.24 3216.67 3231.63 3241.04 3258.97
3268.58 3281.67 3293.91 3299.99 3317.68 3321.94 3333.35 3342.31 3358.23 3368.69
3383.67 3390.99 3401.84 3402.65 3407.06 3413.79 3424.89 3442.46 3448.36 3454.05
3463.27 3467.23 3464.55 3466.47 3469.5 3458.61 3481.24 3514.21 3532.98 3538.87
3528.34 3525.59 3542.95 3569.19 3574.1 3560.35 3553.69 3579.24 3592.34 3592.11
3584.94 3555.34 3551.04 3579.15 3581.79 3571.94 3573.68 3569.36 3592.53 3586.02
3562.97 3540.2 3527.17 3483.41 3445.66 3422.06 3397.9 3386.8 3393.63 3404.18
3408.09 3412.66 3409.96 3402.26 3386.58 3348.15 3319.92 3320.12 3345.12 3389.42
3418.4 3415.94 3386.28 3364.45 3360.14 3364.63 3389.2 3406.93 3439.33 3478.18
3502.62 3515.08 3543.49 3579.24 3608.46 3628.77 3621.27 3609.92 3614.58 3640.65
3664.56 3684.88 3707.28 3736.72 3755.41 3760.45 3752.22 3719.76 3681.99 3631.9
3597.66 3562.44 3509.42 3464.13 3465.81 3464.84 3468.86 3484.1 3500.3 3509.67
3520.21 3543.07 3547.68 3542.52 3520.77 3524.35 3541.94 3573.89 3602.39 3610.41
3610.83 3599.25 3577.04 3568.57 3561.62 3564.73 3578.74 3611.57 3638.02 3657.1
3659.22 3661.79 3651.86 3637.02 3618.85 3597.36 3587.5 3588.27 3581.8 3568.47
3565.52 3560.84 3555.16 3539.63 3527.19 3514.1 3511.25 3499.98 3494.95 3488.08
3471.21 3488.89 3512.46 3520.71 3512.49 3490.55 3456.25 3444 3414.47 3407.28
3448.25

2908.37 2906.81 2905.64 2903.97 2904.91 2904 2905 2906 2905.1 2908
2907.95 2908.96 2908.87 2909.86 2911.97 2913 2913.72 2915.97 2916.2 2917.96
2919.03 2918.58 2923.42 2924.98 2925 2926.31 2930 2930.2 2936 2935.53
2936.99 2940 2941 2945 2945.05 2947 2947.12 2951.02 2956.01 2958
2959.63 2961.93 2963.01 2966 2969 2971.39 2974 2976 2978.49 2980.32
2983.03 2986.27 2987.02 2990 2993 2994.14 2995.16 2997.45 2997.93 3000.11
3003 3007.02 3008 3011.41 3015.52 3015.61 3018 3022.75 3024 3026.65
3029.33 3031.71 3034 3036.17 3037.97 3037.97 3042 3045.09 3045.16 3049.88
3051.35 3052.06 3054.05 3058 3059 3062.02 3064.56 3065.86 3066.54 3071.3
3073.41 3072.47 3078.55 3078.14 3083.32 3083.95 3083 3087.94 3093.09 3089.97
3091.02 3098.78 3097.94 3100.25 3105.5 3106.95 3106.99 3105.05 3110 3107.17
3108.1 3111.17 3108.47 3104.63 3099.81 3097.19 3091.18 3088.51 3090 3102.83
3123.43 3125 3126.92 3127 3131.95 3140.09 3147 3147.71 3158.62 3162.95
3172.02 3176.84 3182.68 3189.76 3200.18 3209.01 3218.92 3233.35 3248.64 3261.61
3271.93 3292.12 3299.16 3311.37 3325.99 3333.72 3344.72 3358.15 3369.8 3386.55
3396.63 3409.74 3415.05 3421.05 3423.35 3432.48 3451.37 3470.14 3471.01 3472.61
3487.13 3494.25 3499.38 3500.68 3499.16 3491.48 3499.47 3535.87 3561.8 3565.76
3557.18 3551.94 3552.46 3579.5 3595.74 3584.68 3583.68 3612.59 3622.74 3627.36
3610.99 3573.74 3592.14 3604.27 3612.52 3612.6 3607.87 3581.15 3565.72 3543.29
3527.8 3510.7 3507.75 3478.16 3444.39 3419.83 3403.67 3420.36 3418.84 3428.63
3433.97 3437.17 3433.24 3415.92 3392.92 3352.02 3330.2 3330.7 3359.5 3406.76
3450.79 3450.84 3428.47 3394.61 3379.8 3375.46 3380.8 3405.57 3450.64 3502.84
3544.6 3570.62 3572.81 3600.48 3640.89 3647.01 3642.58 3633.33 3645.16 3657.16
3679.59 3698.56 3727.79 3753.62 3769.2 3770.17 3765.01 3730.81 3688.68 3655.2
3618.84 3562.26 3504.26 3479.75 3480.02 3491.49 3489.53 3500.15 3512.84 3523.55
3539.96 3557.03 3565.71 3560.82 3540.37 3553.21 3575.41 3595.53 3621.46 3636.22
3634.14 3622.39 3601.66 3586.12 3579.62 3578.96 3591.52 3621.07 3649.87 3672.47
3685.28 3685.1 3672.89 3651.81 3630.02 3616.28 3612.35 3610.76 3601.92 3582.81
3585.02 3582.96 3570.22 3556.09 3542.67 3534.96 3525.89 3513.8 3509.42 3501.89
3481.92 3495.54 3519.89 3528.9 3522.17 3500.9 3472.01 3453.68 3426.14 3412.75
3451.07

2913.69 2910.93 2908.71 2906.91 2903.64 2904 2904.7 2907 2906 2907.69
2909.03 2909.08 2909.96 2910.63 2912.26 2913.06 2914.91 2917 2917 2919
2920 2924 2924 2925.27 2926 2928.63 2931.54 2931.26 2935.7 2938.03
2939.6 2940.64 2945 2945 2946.57 2950.9 2952 2953 2955.97 2958
2959.13 2963.35 2964.37 2966.33 2969 2970.51 2974 2975.41 2978 2981
2983.21 2986.14 2988.08 2992.47 2993.92 2997.77 2998.79 2999.03 2997.47 3001.87
3003.54 3006.63 3009 3012.69 3016.46 3019.01 3018.33 3023.4 3024 3028.12
3028.93 3031.72 3034.27 3037.11 3039.72 3040 3043.09 3047 3047.89 3052.02
3054 3054.59 3057.37 3059.01 3060.63 3063.7 3068.77 3069.74 3071.06 3075.4
3078.37 3075.72 3079 3080.24 3082.98 3082.42 3086.19 3089.92 3093.99 3091.91
3094 3099.89 3097.91 3100.07 3105.96 3106.15 3107 3107.97 3110.99 3110.09
3112.14 3111.99 3112.52 3109.37 3103.73 3099.79 3093 3091.04 3093.6 3094.85
3124.89 3130.12 3130.67 3129.86 3136.05 3144.37 3146.99 3149.7 3163 3169.05
3173.71 3180.67 3187.91 3196.25 3202.11 3211.56 3220.24 3237.17 3250.88 3263.9
3276.9 3291.92 3305.03 3316.91 3333.8 3342.28 3357.1 3368.18 3379.66 3396.18
3407.35 3422.57 3431.86 3438.24 3445.95 3455.3 3481.32 3502.36 3499.71 3493.62
3516.34 3524.1 3528.46 3525.25 3524.55 3507.76 3512.92 3546.51 3583.64 3595.37
3581.13 3579.89 3579.06 3607.92 3621.39 3615.5 3614.25 3647.13 3658.26 3656.98
3634.23 3607.59 3625.75 3629.25 3643.64 3646.85 3626.89 3612.36 3588.88 3561.31
3533.76 3509.67 3484.39 3456.36 3431.44 3424.71 3423.47 3449.44 3437.32 3446.95
3457.56 3450.51 3432.74 3412.61 3384.71 3353.81 3338 3344.52 3379.54 3414.98
3451.11 3464.72 3454.29 3425.61 3419.15 3398.81 3388.36 3397.26 3430.68 3492.31
3542.74 3581.05 3600.83 3623.11 3650.16 3662.06 3648.81 3651.41 3668.29 3678.32
3692.23 3714.99 3741.41 3765.68 3779.29 3770.85 3758.8 3723.96 3688.05 3657.68
3617.12 3558.13 3501.58 3495.39 3494.91 3499.33 3508.54 3510.35 3530.2 3540.86
3552.44 3565.87 3578.72 3578.76 3566.76 3580.23 3603.73 3625.34 3646.99 3661.29
3658.45 3638.61 3614.12 3602.97 3605.01 3601.61 3595.46 3624.24 3651.13 3677.67
3699.88 3701.26 3688.32 3665.72 3658.5 3644.35 3634.77 3626.72 3621.77 3612.04
3613.79 3601.89 3585.82 3575.05 3565.72 3549.87 3542.33 3530.09 3522.23 3504.65
3498.17 3491.96 3514.35 3531.41 3533.83 3517.99 3484.6 3464.88 3432.36 3416.2
3450.56

2912.92 2909.98 2910.99 2906.18 2906.98 2905 2906.57 2908.74 2906.93 2907.32
2911 2913 2913 2915 2915.34 2916.26 2918 2917 2918.19 2921
2921 2923.12 2925.82 2927.97 2927.99 2930 2933 2935.67 2937 2939.7
2940.98 2942.26 2946 2945.61 2946.52 2947.91 2952.26 2953 2954.96 2958
2960.24 2964 2965.02 2968.4 2968.72 2972.77 2976.99 2977.25 2977.96 2981
2982.57 2986.69 2988 2991.77 2993.01 2998.9 2999 3001 3002.26 3004.39
3005.87 3008 3009.14 3014 3018.03 3020 3020.38 3024 3023.67 3029
3031 3032 3035 3038.02 3041 3042.7 3047.61 3048.5 3050.58 3052.46
3053 3054.42 3056.78 3059.39 3061.46 3064 3068.95 3069.93 3072 3076
3079.94 3078.85 3078.5 3080.98 3084.32 3086.98 3088 3090.76 3094.86 3095
3093.48 3097.01 3098.82 3101.97 3105 3106.86 3110 3109 3109.5 3111.98
3113.92 3114.41 3115.32 3112.75 3106.03 3103.87 3093.98 3094.5 3094.64 3094
3118.56 3130.4 3132.62 3138.64 3141.96 3143.75 3151.17 3158.78 3167.95 3176.08
3184.98 3185.46 3196.7 3203 3212.14 3216.46 3234.31 3239.99 3251.63 3261.44
3278.99 3292.35 3308.51 3319.33 3335.18 3351.29 3364.95 3375.77 3389.64 3408.11
3420.24 3437.36 3453.41 3459.57 3470.2 3486.03 3508.49 3532.11 3530.63 3520.22
3542.07 3554.8 3570.05 3564.88 3558.04 3531.07 3528.85 3564.84 3598.1 3617.09
3608.38 3612.47 3616.47 3644.5 3658.26 3644.6 3639.49 3659.29 3687.11 3683.2
3649 3646.65 3648.74 3652.56 3671.2 3676 3662.2 3632.99 3608.3 3581.52
3553.35 3515.12 3485.48 3458.88 3442.21 3435.55 3457.51 3463.56 3457.42 3473.3
3471.39 3455.85 3437.11 3423.17 3401.72 3372.28 3345.79 3360.03 3396.72 3424.19
3454.81 3499.26 3497.6 3460.49 3451.12 3420.59 3423.03 3414.05 3412.07 3448.12
3501.84 3544.65 3597.13 3627.27 3646.49 3649.52 3640 3650.32 3669.32 3688.14
3706.14 3728.01 3754.05 3775.04 3778.87 3764.07 3731.88 3696.32 3664.94 3630.05
3591.85 3549.69 3501.23 3511.32 3510.82 3517.98 3527.81 3528.62 3539.39 3554.32
3569.14 3578.99 3593.17 3595.97 3593.94 3605.27 3630.92 3657.01 3671.49 3680.91
3674.09 3654.13 3626.94 3638.28 3639.73 3637.11 3618.26 3624.07 3650.46 3673.69
3701.23 3708.99 3697.79 3674.49 3680.87 3676.21 3659.43 3649.51 3639.17 3637.48
3635.97 3617.05 3605.54 3598.53 3587.32 3570.66 3560 3547.45 3529.99 3526.23
3519.99 3503.73 3525.74 3546.13 3549.17 3532.97 3497.73 3473.77 3436.53 3426.24
3457.07

2910.35 2911 2910 2908.32 2909.81 2907.95 2907.69 2909 2908.03 2910.03
2911.7 2912.74 2915.07 2915.99 2917 2915.42 2917.22 2919 2921.14 2921.31
2923 2926 2925.87 2928.64 2928.98 2937 2936.36 2934.58 2935.99 2939.37
2942.62 2943.27 2945.31 2946 2948.07 2950 2952 2952.2 2955.96 2958.03
2960 2963.07 2966.01 2968.93 2971.01 2973.62 2975.98 2977.98 2980.23 2984.1
2987 2987.17 2989.3 2991.68 2994 2997.92 3000.29 3000 3002.62 3004.24
3006.11 3010.08 3011.44 3015 3018.07 3021.88 3022.99 3023.92 3027.73 3029.07
3032.62 3033 3035.08 3039.46 3040.99 3043.47 3046.8 3049 3050.4 3052.42
3055 3056.94 3060.92 3061.27 3064 3065.07 3068.07 3070.83 3071.02 3076.87
3078.35 3081.97 3082.68 3083.16 3085.71 3088.82 3090.11 3092 3093.46 3095.65
3096.54 3100.35 3102 3103.1 3105.95 3108.99 3111 3114.85 3114.13 3115.6
3116.88 3119.76 3119.16 3115.29 3110.12 3104.91 3100.49 3096.56 3096.66 3097.87
3124.37 3131.66 3135.13 3142.88 3145.96 3145.3 3154.01 3162.04 3171.85 3179.04
3188.09 3196.42 3203.71 3209.86 3218.72 3227.47 3234.62 3250.09 3253.8 3268.89
3279.53 3300.78 3312.19 3332.44 3345.23 3355.02 3371.22 3389.16 3398.8 3414.62
3426.31 3443.89 3463.76 3483.76 3493.98 3512.46 3539.75 3559.99 3561.37 3558.52
3576.55 3594.11 3605.83 3601.47 3587.77 3557.82 3564.92 3579.88 3620.39 3646.22
3643.66 3640.34 3653.43 3676.07 3683.44 3677.82 3677.75 3686.25 3708.95 3708.46
3691.84 3678.35 3683.53 3700.01 3725.11 3728.8 3705.1 3670.36 3633.62 3594.21
3560.56 3521.15 3498.24 3472.06 3454.1 3469.46 3491.27 3491.07 3485.72 3494.47
3480.99 3463.1 3440.1 3423.54 3418.84 3392.48 3355.98 3373.82 3433.6 3470.3
3496.46 3537 3537.69 3509.25 3480.34 3451.3 3455.31 3448.61 3433.54 3426.31
3477.84 3523.66 3569.31 3600.46 3609.66 3607.66 3618.82 3631.19 3648.95 3676.31
3700.43 3730.82 3753.86 3776 3772.56 3744.22 3713.89 3683.73 3653.41 3633.1
3594.66 3548.67 3519.42 3524.73 3524.35 3535.55 3547.61 3548.58 3554.76 3575.2
3587.78 3596.87 3605.12 3614.98 3618.35 3626.48 3652.44 3677.34 3696.45 3707.17
3700.47 3674.04 3641.84 3667.77 3678.57 3673.1 3658.15 3646.43 3651.87 3678.39
3695.48 3715.85 3714.47 3709.36 3713.88 3706.97 3697.2 3675.73 3666.25 3652.56
3658.52 3641.86 3630.23 3623.71 3610.44 3591.96 3576.45 3556.45 3547.32 3540.86
3532.03 3526.7 3527.2 3556.31 3562.49 3540.12 3507.29 3470.92 3438.89 3432.28
3470.31

2913 2911.66 2910 2909.09 2909.99 2908.63 2913.01 2913.02 2912.01 2911.03
2915 2915 2916 2916.1 2919 2917.99 2918.92 2919.96 2922 2924.87
2925.16 2924.49 2928.39 2931 2931.97 2936.08 2936.07 2938.26 2937.49 2939.66
2944 2943.06 2946 2947 2950.07 2950.9 2952.52 2955.84 2958.01 2960
2961.55 2963.58 2966 2967.39 2971.01 2973 2976.76 2977 2979.53 2984.4
2986.18 2989.02 2991.96 2994 2996 2996.87 2998.19 3002.01 3006 3006.96
3008 3011.75 3013.33 3015.35 3018.54 3023 3023.51 3025.5 3029.01 3031.29
3032.36 3034 3038 3041.56 3044.14 3046.2 3048 3049 3051.18 3052.96
3055.33 3057.94 3060.63 3063 3066.86 3069.63 3072.42 3072.65 3073.98 3076.68
3079.66 3081 3082.66 3084 3086.45 3090.63 3091.32 3092.12 3093.84 3096
3099 3101.21 3102.15 3105.35 3108.44 3112.66 3113.92 3115.54 3116.83 3122.87
3120.83 3121.96 3119.43 3116.42 3114.16 3106.66 3102.74 3099.76 3099.69 3100.12
3110.35 3136.38 3140.29 3142.1 3146.98 3154.64 3160.09 3169.16 3177.55 3185.29
3192.99 3203.63 3210.99 3221.47 3227.83 3235.92 3241.22 3254.43 3272.01 3281.8
3290.27 3302.21 3317.04 3338.15 3352.88 3370.14 3387.66 3395.84 3412.07 3427.05
3441.58 3458.78 3466.95 3492.76 3515.31 3539.89 3565.09 3585.48 3589.07 3591.29
3611.41 3631.32 3646.42 3637.69 3614.74 3582.67 3602.68 3601.49 3647.44 3685.43
3679.63 3674.77 3698.78 3712.01 3718.28 3724.79 3724.73 3726.8 3736.05 3727.08
3724.3 3714.81 3720.73 3752.39 3782.03 3764.19 3729.49 3691.7 3640.73 3601.33
3566.09 3532.67 3511.95 3478.36 3487.57 3496.1 3513.03 3516.84 3521.68 3520.21
3506.53 3499.8 3471.84 3443.37 3424.78 3400.71 3366.01 3405.49 3447.01 3502.74
3540 3570.4 3571.02 3550.9 3512.11 3498.1 3491.57 3477.8 3453.5 3439.34
3447.95 3493.71 3523.2 3553 3556.67 3566.11 3578.1 3600.4 3619.27 3657.01
3694.24 3728.75 3754.02 3764.18 3751.35 3714.64 3681.5 3666.69 3649.01 3629.32
3592.43 3542 3532.15 3535.91 3542.29 3554.44 3567.42 3571.14 3575.02 3585.06
3603.53 3614.81 3628.54 3635 3639.57 3647.13 3675.55 3700.34 3720.05 3730.29
3720.77 3686.22 3676.04 3696.38 3713.31 3712.08 3703.78 3687.8 3681.77 3687.79
3707.97 3735.27 3746.55 3755.04 3758.48 3750.1 3739.6 3709.81 3691.37 3671.46
3677.87 3665.86 3658.02 3649.92 3630.33 3611.08 3588.16 3567.36 3565.21 3562.23
3554.71 3545.4 3534.4 3563.08 3563.09 3542.5 3510.07 3477.51 3440.68 3441.69
3473.38

2913.48 2913.92 2913.88 2912 2912.98 2912.91 2913.83 2916.9 2914.64 2913.4
2913.97 2914.64 2915.47 2918.9 2919.68 2919.45 2919.94 2920 2923 2926.36
2926.9 2928 2928 2929.33 2932.49 2934.74 2935 2935.05 2940.08 2941.89
2941.99 2942.18 2946.65 2949 2950.93 2950.69 2952.92 2957.47 2958.16 2961.04
2961.9 2965.35 2970.8 2967.71 2972 2976 2977 2978.42 2981.46 2983.63
2987.72 2989.6 2989.98 2991.52 2994.01 2997.64 3000.66 3003 3005.93 3007.01
3009.39 3012.6 3015 3016.95 3018 3020 3025 3027 3029.65 3031.83
3035.13 3035.24 3040 3043.12 3045 3048 3048.41 3050.59 3053 3054.77
3058.03 3060.95 3061.26 3064.49 3067.54 3070.37 3073.57 3074.9 3076.31 3077
3081.18 3081.46 3081 3083 3088.05 3090.68 3094 3094.86 3099 3098.19
3100.98 3101.81 3102.04 3108.99 3112.93 3113.99 3114.94 3114.45 3118 3122.01
3120 3123.77 3122 3119.5 3118.85 3110.95 3107.23 3103 3101.66 3102.8
3104.6 3137.49 3142 3144.45 3152.66 3158.84 3165.7 3172.65 3180.34 3190.36
3202.47 3209.94 3219.73 3230.06 3242.29 3247.54 3254.77 3264.8 3275.23 3292.83
3306.7 3310.96 3324.99 3351.78 3373.93 3384.46 3400.18 3414.18 3434.17 3454.84
3473.26 3482.77 3486.4 3499.53 3529.53 3557.17 3586.86 3608.2 3618.41 3612.69
3626.93 3643.17 3668.03 3669.24 3633.02 3607.2 3643.37 3652.23 3674.37 3723.95
3724.78 3702.09 3734.1 3747.55 3758.62 3768.41 3765.42 3762.99 3766.29 3760.04
3755.84 3739.96 3769.12 3801.36 3804.56 3785.78 3737.18 3687.58 3643.68 3601.25
3576.97 3547.55 3511.92 3500.01 3521.11 3528.99 3543.56 3555.33 3551.13 3564.33
3549.53 3555.44 3540.95 3499.79 3465.86 3414.98 3386.11 3444.65 3494.23 3544.44
3579.81 3602.91 3604.12 3577.06 3545.61 3545.37 3535.84 3503.34 3477.05 3454.18
3451.45 3467.71 3488.3 3510.82 3519.44 3538.11 3560.56 3584.87 3627.85 3673.84
3701.76 3733.43 3743.1 3757.88 3742.12 3715.98 3691.92 3676.48 3648.4 3622.39
3579.32 3540.54 3547.37 3550.83 3560.77 3567.18 3579.58 3587.78 3601.84 3606.44
3622.86 3637.96 3649.1 3658.37 3664.65 3675.24 3701.23 3724.47 3748.63 3758.89
3744.58 3704.78 3710.8 3734.78 3747.32 3750.25 3751.97 3745.06 3724.06 3715.05
3728.18 3753.6 3776.08 3793.63 3801.61 3795.91 3782.03 3746.49 3719.75 3697.97
3704.68 3696.71 3680.5 3664.38 3645.24 3615.81 3595.62 3594.45 3582.5 3578.45
3571.04 3561.38 3546.26 3568.95 3570.93 3547.72 3511.3 3483.52 3447.34 3450.01
3489.41

2915.03 2914.92 2914.65 2915.99 2916.24 2920.76 2933.04 2931.94 2920.58 2918.99
2917.21 2918.07 2917.11 2917.9 2919 2921.06 2921.1 2924 2923.64 2927.13
2928 2928.03 2930.85 2933 2933.82 2933.92 2937.87 2936.99 2938.49 2941.94
2941.15 2942.09 2947 2949 2950.43 2952.93 2956 2955.87 2960.28 2962.94
2962.83 2966.14 2970.75 2971.04 2972 2974.42 2978 2979.98 2983.02 2984.98
2986.74 2989 2991.51 2992 2994.53 2999.05 3000.07 3004.02 3004.07 3009.72
3009 3011.36 3015 3017 3020.87 3022.98 3023.77 3026.19 3029.72 3032
3035.07 3037 3038.91 3042.21 3044.58 3047.69 3051 3051 3055.35 3057
3060.4 3061.03 3063.1 3065.91 3069.19 3071.37 3074 3076 3077.13 3080.3
3082.4 3083.59 3085 3085.97 3089 3092.04 3094.07 3097 3100.8 3102.78
3102.07 3104 3105.81 3108.01 3110.51 3114 3119.11 3118.12 3119 3118.89
3120.97 3120.84 3123.05 3122.93 3120.99 3114.26 3110.56 3107.51 3103.2 3104.84
3105 3130.33 3141.95 3149.63 3155.39 3164.97 3168.64 3176.27 3186.99 3197
3207.97 3214.53 3229.85 3237 3248.31 3255.35 3265.67 3273.73 3288.81 3300.64
3317.6 3330.59 3336.67 3360.89 3387.64 3407.15 3428.61 3449.8 3464.41 3486.37
3513.96 3523.45 3516.03 3512.99 3531.19 3567.51 3601.76 3633.03 3645.27 3643.36
3651.88 3661.27 3672.95 3669.62 3660.5 3642.14 3669.16 3690.57 3719.36 3748.65
3754 3736.2 3756.86 3781.95 3807.85 3814.22 3808.56 3801.58 3804.51 3800.95
3797.86 3792.25 3825.71 3841.34 3827.2 3792.96 3743.26 3676.65 3640.61 3606.11
3579.2 3547.21 3508.89 3555.75 3562.12 3561.38 3579.87 3605.03 3611.77 3610.78
3594.23 3613.41 3599.37 3549.29 3476.54 3414.01 3398.57 3471.28 3519.07 3558.46
3603.61 3639.31 3633.83 3627.27 3597.42 3583.96 3555.59 3518.87 3514.75 3484.12
3468.75 3481.27 3510.56 3515.44 3521.98 3546.15 3563.25 3586.07 3627.4 3672.71
3691.38 3716.39 3727.94 3738.43 3736.74 3726.5 3712.99 3681.74 3653.66 3624.47
3575.82 3561.82 3559.05 3568.4 3576.15 3584.61 3596.9 3613.32 3624 3629.77
3645.55 3664.56 3672.89 3683.45 3687.64 3698.54 3716.52 3745.13 3771.82 3777.43
3763.04 3731.41 3746.4 3770.59 3798.2 3807.86 3802.13 3790.07 3754.64 3745.8
3746.29 3776.87 3809.8 3829.71 3840.47 3829.61 3811.27 3780.52 3747.24 3719.62
3738.87 3733.69 3709.19 3678.58 3645.85 3626.39 3620.59 3618.64 3606.66 3598.9
3586.87 3580.03 3564.27 3572.97 3574.42 3550.49 3513.26 3481.41 3450.26 3463.64
3506.69

2915.87 2915.2 2914.89 2915.01 2920.31 2937.29 2942.67 2951.73 2941.11 2918.36
2918.94 2920 2921 2920 2921.97 2923 2922.05 2923.18 2927.98 2926.39
2926.98 2930.32 2931.23 2932.24 2932.47 2937.38 2937.79 2940 2939.46 2942.44
2943.18 2943.47 2946.99 2948.98 2952 2955.15 2955.58 2959.01 2964 2961.7
2967 2968.03 2969.67 2971.31 2971.84 2976 2977.52 2980.01 2984 2985
2986 2992.04 2991.33 2992 2994.41 2999.36 3002 3004.96 3006.6 3009.45
3009.12 3014 3014.09 3017 3020.28 3023.93 3023.79 3028.03 3030.47 3032.5
3036.57 3038.99 3040.21 3044 3044.95 3048.24 3050.26 3051.44 3055.12 3059.22
3061 3063.12 3066.13 3069.19 3070.88 3071.38 3075.06 3076 3078.02 3080.21
3085.35 3085.15 3086.08 3091.07 3090.15 3091.78 3095 3097.06 3102.53 3104.97
3102.73 3103.91 3107.3 3111 3111.85 3113.71 3122.16 3120.83 3124.07 3122.15
3123 3122.11 3127.03 3126.19 3122.37 3117.96 3113.27 3110.67 3107.1 3105.01
3106 3127.84 3147.15 3155.98 3160.92 3168.9 3172.86 3181.54 3190.48 3201.8
3210.85 3222.19 3234.31 3244.62 3257.81 3267.84 3276.92 3286 3295.15 3313.94
3330.68 3353.66 3357.7 3362.13 3393.63 3427.45 3454.89 3478.49 3498.08 3506.04
3535.65 3557.93 3545.55 3534.15 3541.52 3585.95 3622.18 3656.83 3682.9 3682.21
3679.07 3688.03 3690.56 3691 3684.6 3679.48 3696.21 3722.96 3743.26 3767.19
3778.4 3792.42 3791.06 3806.59 3823.13 3836.91 3838.86 3849.47 3853.27 3854.13
3845.32 3854.64 3872.8 3868.38 3831.86 3792.93 3732.66 3670.36 3632.61 3601.5
3564.9 3530.01 3557.76 3594.75 3613.76 3608.6 3623.51 3661.8 3664.58 3657.13
3644.56 3647.76 3603.59 3548.49 3478.35 3411.73 3403.13 3468.65 3518.23 3557.51
3617.38 3667.42 3678.15 3655.56 3651.72 3618.63 3561.54 3560.18 3558.27 3492.81
3477.78 3503.23 3558.94 3569.57 3557.35 3546.92 3559.3 3589.3 3621.29 3660.06
3666.73 3688.51 3706.76 3713.77 3730.81 3731.95 3711.64 3694.39 3639.57 3595.99
3578.87 3584.06 3578.62 3586.69 3589.26 3607.76 3625.32 3635.7 3650.53 3662.81
3667.52 3686.89 3696.28 3717 3729.74 3730.67 3741.95 3769.46 3802.88 3807.1
3788.61 3770.74 3779.12 3811.33 3837.54 3853.69 3851.68 3815.83 3781.75 3780.91
3782.15 3804.94 3830.21 3853.22 3860.83 3856.02 3834.3 3797.67 3762.45 3753.7
3775.11 3768.7 3734.46 3678.6 3666.33 3653.04 3653.83 3651.19 3631.33 3617.2
3605.05 3592.63 3574.39 3586.2 3579.95 3549.16 3521.2 3490.72 3453.24 3473.42
3511.53

2919.89 2915 2918 2916.96 2926.65 2952.49 2962.34 2968.87 2943.41 2923.63
2918.89 2920 2921 2923.65 2924.96 2923.64 2924 2924.81 2926.82 2926.98
2927.25 2931.31 2931.83 2934 2936.25 2936.62 2937.9 2939.13 2940 2943
2945 2944.82 2946.83 2949 2952.07 2955.9 2956.57 2960.73 2963.96 2965.01
2967 2971.95 2970.54 2972 2973.96 2975.88 2980.22 2982 2982.16 2983.35
2985.87 2991.89 2993 2993.63 2996.08 2998.15 3000.98 3003.02 3006.96 3010
3012.97 3016.67 3015.98 3017.81 3020.83 3024.94 3025.54 3029.71 3033 3033.92
3037 3040 3040 3044.23 3048 3051 3053 3053.12 3056.77 3060.04
3062.25 3064.39 3066.98 3069.98 3072.01 3075.22 3075.92 3077 3078.07 3081.01
3084.31 3093.58 3090.85 3093 3093.98 3094.45 3098.77 3099.95 3102 3106.86
3105.94 3107.74 3111 3111 3110.97 3119.99 3123.82 3125 3125 3124.02
3126.06 3126.78 3128.22 3128 3128.46 3121.97 3116.86 3115.79 3109.54 3107.7
3109 3115.87 3149.34 3155.85 3165.34 3170.68 3175.53 3188.01 3195.11 3203.71
3214.03 3226.33 3240.57 3254.27 3266.23 3277.73 3288.39 3296.95 3309.42 3327.69
3346.29 3364.72 3386.96 3388.35 3391.79 3431.79 3460.36 3493.24 3526.72 3540.59
3564.86 3581.75 3565 3561.62 3562.8 3587.86 3643.9 3681.11 3712.29 3720.48
3716.99 3717.42 3703.15 3700.17 3713.72 3723.12 3747.28 3759.62 3777.12 3794.87
3819.75 3837.27 3849.38 3856.56 3868.98 3878.46 3885.69 3911.1 3917.17 3913.84
3920.35 3919.04 3907.33 3867.01 3824.8 3780.78 3722.24 3660.24 3625.4 3594.15
3553.84 3572.59 3587.65 3620.51 3662.45 3666.46 3684.67 3720.94 3726.09 3702.11
3687.17 3662.58 3603.98 3551.23 3486.15 3427.63 3422.71 3467.57 3510 3569.12
3619.04 3673.52 3707.57 3708.49 3690.08 3650.43 3606.31 3609.59 3591.32 3508.68
3494.72 3542.75 3596.66 3625.57 3623.43 3600.88 3592.59 3582.67 3610.69 3629.14
3657.9 3676.73 3705.68 3727.2 3731.7 3729.58 3707.5 3694.59 3637.33 3595.35
3601.41 3601.89 3603.24 3601.7 3613.72 3631.53 3657.73 3673.58 3680.17 3698.36
3694.73 3707.87 3726.68 3760.2 3775.49 3765.79 3786.19 3800.66 3827.2 3841.56
3823.86 3793.21 3808.9 3838.56 3868.27 3877.77 3874.66 3853.45 3822.11 3824.77
3828.13 3840.77 3868.14 3882.16 3883.63 3867.58 3841.26 3804.19 3781.58 3797.17
3811.78 3799.68 3752.97 3697.96 3696.56 3690.75 3681.37 3670.92 3648.34 3643.53
3628.53 3612.36 3588.94 3591.36 3585.75 3551.92 3525.79 3492.27 3458.49 3475.98
3522.85

2921 2918.02 2917.8 2918.1 2929.69 2953.53 2964.02 2967.08 2940.99 2929.21
2920.94 2920.11 2922.07 2925.51 2925.98 2926.07 2927 2925.91 2930.15 2929
2929.61 2931 2933 2932.96 2936.45 2937.12 2940.11 2941.09 2941.81 2942.96
2944.92 2945.73 2948.08 2949.57 2953 2954.01 2955.89 2960.12 2962.38 2964
2967.05 2970.11 2969.23 2972.12 2974.94 2976 2979 2980.98 2983.98 2987.94
2987 2987.96 2992.04 2996 2999.01 3000 3002.9 3006.95 3006.58 3008.33
3013 3016.4 3017.02 3019.06 3023.18 3025 3026.08 3030.34 3032.77 3034.97
3037.07 3041.97 3043.52 3046.12 3047.12 3050 3054 3055.09 3058 3059.35
3063 3065.25 3067.18 3070.78 3074.4 3076.41 3076.02 3077.03 3081.3 3084.26
3084.39 3093.39 3092.29 3094.94 3095 3096 3098.62 3101.92 3100.77 3106.58
3105.94 3108.64 3110.93 3114 3113.82 3122.75 3126.08 3127.02 3125.86 3124.9
3129 3129 3128.96 3128.55 3129.99 3124.94 3122.25 3119.85 3114.74 3112
3112 3116.81 3152.38 3159.58 3165.5 3171.57 3181.66 3190.95 3201.97 3208.4
3218.16 3230.07 3246.76 3259.86 3272.14 3284.71 3295.89 3306.44 3323.92 3338.35
3360.97 3379.87 3405.02 3412.28 3406.53 3429.07 3458.77 3493.34 3528.42 3561.39
3591.79 3602.46 3583.5 3590.54 3588.59 3595.27 3642.84 3687.24 3737.46 3756.29
3755.48 3742.45 3715.5 3707.88 3722.79 3745.16 3779 3821.6 3840.53 3854.66
3886.6 3911 3905.69 3930.34 3937.42 3940.65 3958.72 3980.22 3993.11 3985.83
3977.07 3942.63 3903.33 3851.7 3804.74 3760.72 3711.29 3658.48 3614.3 3582.45
3591.8 3614.84 3624.43 3653.07 3711.16 3734.77 3753.45 3772.91 3764.5 3741.25
3720.73 3663.5 3601.71 3545.54 3480.36 3428.74 3438.88 3505.49 3540.26 3554.83
3596.12 3674.59 3720.69 3731.28 3709.67 3664.18 3647.46 3643.52 3595.54 3532.2
3505.64 3571.84 3622.56 3634.87 3648.17 3642.76 3628.38 3633.55 3625.79 3633.91
3663.32 3688.37 3722.01 3748.93 3740.72 3710.99 3687.37 3668.61 3629.61 3620.67
3619.24 3619.62 3624.77 3622.12 3638.31 3659.81 3680.74 3683.17 3698.68 3722.59
3730.15 3749.2 3782.72 3807.8 3821.79 3821.91 3833.56 3849.11 3862.9 3869.53
3855.73 3827.19 3831.62 3854.76 3878.78 3899.94 3908.19 3887.52 3866.55 3872.27
3880.15 3879.86 3909.09 3911.5 3905.61 3888.28 3852.35 3812.07 3824.93 3835.84
3829.61 3794.67 3750.93 3739.57 3743.61 3733.16 3706.54 3682.7 3678.6 3680.07
3654.42 3625.94 3602.1 3608.95 3599.97 3561.94 3533.1 3493.94 3466.34 3474.64
3529.48

2921 2919.72 2919.88 2923.9 2931.4 2950.19 2960.4 2953.93 2937.91 2928.22
2923.35 2921.93 2924.8 2924.15 2927 2927.97 2928 2928.73 2931 2931.36
2932.93 2932.65 2933.14 2935.9 2937.99 2938.88 2942.68 2942.13 2943 2944.2
2946.42 2948 2949 2950.48 2952.49 2954 2957.88 2960.99 2963.96 2965.48
2966 2967 2970.13 2974 2977 2975.29 2982 2981.3 2983.63 2986.43
2988.12 2989.98 2992.52 2995.68 2997.5 2999.18 3003.06 3005.96 3007.33 3010.11
3012.29 3015.31 3018.45 3021.58 3023 3025 3028.02 3030.99 3033.71 3034.12
3037.63 3040.48 3044 3046.79 3048.96 3050.01 3055.05 3056.09 3058.89 3061.67
3064 3067 3068.77 3072.83 3074.28 3077 3078.6 3081.68 3082.14 3087.02
3088.05 3089 3093 3095 3099.31 3099.19 3101 3102.89 3102.61 3106.99
3105.74 3108.59 3112 3115.54 3117 3121.09 3126.99 3127.98 3127.06 3128.11
3129 3130.01 3131.47 3133.33 3134.77 3128.14 3126.47 3124.66 3119.71 3113.14
3112.86 3118.62 3151.99 3163.9 3171.11 3176.06 3187.07 3195.72 3205.79 3215.17
3224.24 3228.94 3246.97 3262.41 3283 3293.43 3302.07 3318.14 3329.25 3346.59
3371.92 3392.99 3417.63 3436.81 3424.79 3429.38 3451.1 3485.49 3519.52 3555.1
3586.7 3611.74 3607.07 3615.25 3615.67 3620.54 3644.26 3684.52 3737.62 3780.76
3794.08 3774.59 3743.75 3724.98 3738.89 3767.88 3795.85 3846.53 3891.98 3925.87
3951.56 3988.33 3996.42 4006.22 4022.7 4035.73 4038.25 4049.77 4057.11 4043.95
3992.75 3937.17 3880.81 3827.93 3786.93 3739.65 3686.65 3649.09 3602.85 3616.92
3620.22 3650.1 3686.14 3691.4 3747.13 3796.79 3808.84 3799 3769.98 3742.3
3707.74 3657.92 3614.19 3563.44 3495.69 3425.32 3480.35 3537.87 3591.83 3604.8
3600.41 3656.72 3712.33 3738.5 3729.71 3705.82 3692.07 3656.94 3601.55 3545.28
3524.07 3580.55 3623.75 3632.37 3656.77 3667.16 3680.37 3695.19 3690.82 3658.04
3691.39 3710.57 3745.83 3776.15 3769.67 3757.99 3724.81 3688.41 3641.02 3644.88
3644.86 3639.2 3648.59 3648.55 3651.67 3681.51 3703.8 3713.5 3719.93 3741.33
3759.5 3791.46 3817.94 3847.08 3859.65 3861.23 3863.1 3872.46 3888.22 3891.06
3877.14 3851.58 3872.48 3878.1 3895.51 3926.76 3943.87 3936.96 3918.92 3934.33
3944.38 3942.47 3955.38 3950.18 3936.48 3908.88 3871.34 3847.57 3880.03 3875.4
3833.05 3788.51 3779.81 3778.5 3771.67 3751.13 3725.92 3713.44 3706.7 3701.37
3675.92 3642.75 3612.86 3609.97 3597.48 3560.15 3537.57 3500.96 3472.33 3482.89
3522.7

2922.95 2922.94 2922.41 2924.97 2930.26 2949.03 2956.15 2949.54 2933.9 2925.99
2924.34 2926.58 2924.9 2928.03 2929.2 2927.94 2928.1 2930.54 2933.01 2933
2934.81 2934.17 2936.04 2938.01 2937.47 2940 2943 2943.37 2945.29 2946
2948.62 2949.69 2951 2954 2954.49 2954.12 2956.88 2960.09 2963.32 2965.93
2966.72 2969.93 2972.59 2975.46 2976.37 2978.57 2981.83 2983 2984.45 2985.47
2989 2989.91 2993 2995.39 2998 3000.23 3004 3003.59 3008 3010.89
3013.13 3015.1 3019.95 3021.92 3023.76 3026 3026 3031.44 3035 3035.39
3038.49 3041 3043 3044.6 3047.19 3051.99 3055.71 3058 3059.23 3063.92
3064.16 3068.45 3068.56 3073 3074 3075.99 3079.93 3083 3084 3090
3089.33 3090.31 3091.78 3093.92 3099.97 3102.94 3103.45 3103.8 3103.01 3109.17
3110.97 3114.3 3115.53 3116.42 3117.54 3121.02 3123 3127.21 3129.79 3131.49
3130.51 3131.4 3133 3137.69 3136.92 3133.05 3128 3124.97 3124.72 3115
3116.21 3116.99 3147.36 3165.05 3173.9 3183.63 3194.01 3197.84 3209.8 3221.85
3228.23 3235.96 3247.76 3268.23 3296.29 3316.83 3318.1 3324.36 3338.34 3352.22
3373.02 3395.12 3415.35 3437.99 3442.76 3455.57 3469.71 3490.23 3519.45 3554.34
3598.16 3638.41 3638.4 3638.09 3643.6 3664.76 3663.29 3688.98 3744.52 3800.56
3818.66 3793.29 3771.65 3764.84 3763.69 3779.58 3802.19 3831.99 3893.88 3929.29
3968.81 4003.76 4022.27 4061.59 4088.26 4103 4110.6 4124.26 4110.79 4053.18
3990.06 3926.94 3862.19 3811.6 3758.98 3716.63 3672.38 3628.68 3637.4 3650.18
3653.72 3684.15 3729.16 3743.67 3784.31 3837.34 3832.59 3794.24 3747.99 3704.28
3666.17 3620.91 3580.84 3543.55 3463.81 3446.47 3504.77 3550.87 3612.77 3649.64
3648.39 3676.39 3731.82 3773.5 3770.47 3748.83 3718.09 3666.05 3617.37 3558.7
3542.85 3568.43 3602.91 3636.72 3658.12 3693.84 3727.23 3751.42 3746.26 3716.48
3709.5 3757.51 3792.03 3823.06 3820.78 3798.11 3757.22 3712.53 3669.24 3683.94
3666.6 3666.94 3666.24 3673.73 3690.68 3697.09 3712.89 3743.12 3757.31 3768.35
3789.36 3822.29 3857.55 3877.17 3888.45 3890.78 3896.76 3892.35 3902.33 3911.47
3895.6 3879.56 3899.34 3901.62 3924.61 3956.01 3980.61 3978.66 3975.1 4000.47
4007.03 3994.96 4004.2 3983.78 3956.64 3930.14 3891.86 3895.52 3913.67 3881.59
3845.67 3823.18 3824.13 3814.74 3801.79 3771.75 3751.54 3742.97 3727.87 3707.82
3674.12 3647.31 3615.9 3599.78 3579.69 3557.29 3542.18 3504.62 3480.77 3487.36
3518.48

2926.69 2928 2923.36 2926.19 2927 2943.03 2946.63 2938.97 2928.81 2926.91
2928.44 2926.98 2928 2929 2931 2930.56 2932.42 2933 2934 2934.04
2933.94 2936.79 2938.37 2939.96 2941.12 2942.57 2942.77 2942.25 2948 2948.99
2950.07 2950.96 2952.89 2954.98 2955 2955.75 2958.14 2959.63 2964 2965.65
2968 2969.49 2973.01 2977 2978 2977.82 2982 2983.24 2985 2988.91
2991 2993 2996.31 2999.76 2998 2999.12 3002.01 3004.96 3008.59 3011.01
3012 3016.58 3018.84 3021.31 3024.48 3026 3028.03 3032.39 3034 3036
3038.23 3040.97 3044 3046.67 3048.89 3052.02 3054 3058.14 3059.9 3062.09
3063 3069 3072 3070.93 3075 3077.61 3079.81 3083.54 3087.51 3088.99
3090.43 3093.39 3095.9 3096.25 3096.81 3101.26 3104 3105 3108.19 3107.6
3111.09 3115.12 3117 3117.77 3118.36 3123.97 3123 3128.22 3129.73 3131.96
3132.9 3133 3136.48 3134.94 3135.77 3140.75 3137.84 3128.85 3126 3119.78
3119 3119.96 3136.57 3160.75 3173.71 3184.82 3193.89 3203.22 3213.56 3225.56
3237.06 3248.36 3263.94 3275.43 3298.82 3328.34 3354.61 3343.34 3346.1 3362.58
3376.73 3392.26 3410.79 3437.68 3454.78 3481.28 3497.32 3520.85 3550.9 3573.48
3620.52 3675.79 3672.96 3659.57 3676.89 3710.65 3713.88 3703.48 3763.76 3813.9
3840.86 3830.92 3826.11 3822.86 3824.8 3819.73 3819.66 3824.42 3856.66 3878.19
3930.19 3961.49 4007.39 4056.2 4092.77 4114.84 4156.42 4162.11 4115.42 4035.3
3969.93 3915.72 3874.06 3837.71 3783.31 3721.53 3668.78 3663.9 3688.05 3710.98
3702.39 3724.01 3772.87 3811.37 3828.22 3850.17 3830.68 3775.2 3714.44 3663.48
3629.71 3589.34 3549.58 3507.7 3458.4 3472.29 3525.23 3571.49 3633.55 3686.29
3701.78 3713.82 3751.52 3802.99 3805.17 3780.71 3719.41 3662.45 3614.96 3570.64
3563.11 3591.83 3631.77 3684.08 3711.94 3724.06 3743.55 3796.59 3802.37 3771.43
3761.24 3797.55 3851.57 3887.1 3886.42 3839.74 3788.18 3740.62 3705.83 3714.77
3700.55 3704.41 3712.77 3724.87 3726.94 3745.91 3742.85 3749.68 3777.63 3799.71
3820.14 3838.67 3873.9 3900.21 3919.16 3925.85 3931.05 3918.78 3917.45 3926.21
3919.48 3903 3922.42 3934.32 3947.2 3975.42 4002.92 4015.19 4030.25 4058.62
4064.31 4054.09 4041.98 4009.67 3975.79 3941.85 3911.5 3921.68 3921.97 3894.26
3883.5 3866.19 3868.92 3856.15 3835.49 3804.33 3791.81 3780.05 3756.08 3720.04
3673.58 3642.85 3620.91 3596.73 3588.56 3570.15 3549.29 3512.89 3491.61 3492.22
3517.8

2928.18 2930 2925.25 2925.91 2925 2926.48 2926.37 2928.99 2931.09 2928.29
2929 2928.91 2928.89 2930.99 2931.15 2934.55 2934.32 2932.99 2934.99 2936.2
2937.93 2939.99 2940.01 2941 2942.13 2944.02 2945 2946.04 2947.71 2949.3
2952.01 2954.98 2955 2954.43 2956.06 2957 2959.01 2960.49 2962.97 2964.01
2968 2970.23 2974 2975.99 2977.44 2980.96 2982 2984.98 2985.07 2986.02
2991.7 2993 2996.97 2997.56 2998.21 3001.52 3004 3005.01 3008 3010.11
3013.62 3014.24 3017.05 3020.18 3024.27 3026.82 3029 3033 3034 3035
3039 3042.33 3045 3049.79 3050.94 3055.51 3055.41 3058.56 3060.96 3063
3066.14 3067.79 3070.36 3075 3077.17 3079.4 3082 3083.18 3088.19 3090.98
3091 3095 3094.91 3099.12 3100.99 3099.94 3104 3107.13 3109.03 3108.96
3114.97 3114.28 3117 3117 3120.19 3123.94 3126.19 3130.97 3132.99 3134
3136.14 3134.15 3137.95 3137.97 3138.01 3139.99 3139.21 3133.56 3130.65 3121.21
3121 3119.64 3132.28 3162.03 3174.32 3183.25 3195.96 3206.04 3218.07 3231.25
3254.37 3260.63 3270.01 3285.95 3304.74 3332.35 3376.89 3384.3 3365.03 3367.75
3383.89 3400.19 3418.76 3433.05 3460.05 3498.55 3530.17 3565.81 3601.38 3625.77
3661.74 3704.68 3710.02 3698.7 3711.17 3742.56 3742.08 3733.89 3770.53 3808.78
3858.64 3880.56 3888.61 3884.04 3884.67 3876.5 3868.9 3858.77 3866.37 3881.63
3919.2 3958.32 3977.03 4026.6 4048.01 4085.9 4155.41 4162.9 4111.5 4055.55
4014.12 3972.02 3934.35 3883.36 3799.81 3735.33 3675.1 3697.15 3727.4 3758.3
3753.33 3771.39 3816.1 3862.14 3866.99 3870.6 3838.01 3785.3 3740.28 3714.7
3676.56 3634.49 3574.96 3516.8 3459.08 3495.27 3527.23 3571.13 3631.67 3690.4
3737.32 3756.58 3788.23 3827.19 3827.93 3799.41 3729.05 3661.5 3622.69 3586.67
3591.26 3631.92 3658.97 3711.58 3768.16 3786.28 3786.51 3817.84 3855.38 3838.46
3819.45 3851.71 3900.25 3921 3915.06 3871.62 3817.11 3751.22 3742.04 3748.59
3739.15 3752.98 3767.36 3790.13 3792.46 3802.66 3809.45 3772.53 3794.96 3831.51
3848.82 3872.62 3887.62 3909.25 3947.25 3948.17 3950.37 3943.26 3928.12 3938.2
3934.78 3927.51 3944.24 3957.48 3972.27 4004.18 4027.55 4046.25 4068.62 4103.29
4116.96 4108.35 4077.06 4032.92 3991.46 3964.9 3956.31 3956.21 3945.49 3932.71
3931.1 3909.71 3907.82 3899.45 3878.6 3850.85 3846.42 3821.45 3775.92 3734.84
3687.92 3654.27 3629.58 3610.06 3595.05 3577.32 3552.19 3529.08 3501.7 3498.5
3524.38

2926.96 2927 2926.99 2927.97 2927 2927.39 2926.56 2928.99 2932.97 2930.88
2930 2929 2930.21 2930.36 2932.3 2936.23 2938.97 2935.81 2937.15 2937
2939 2938.89 2940 2941.7 2942.29 2944.09 2946.75 2950.97 2950.23 2950
2951.76 2954.89 2955.88 2956 2957.48 2958.36 2960.95 2960.02 2966 2966
2967.43 2971.11 2973 2975.39 2977 2979.18 2983 2983 2987 2986.61
2992 2992.86 2993.3 2996.23 2997.91 3000.57 3004 3005.35 3007.86 3010
3014 3015 3018 3019.94 3022.17 3027 3030 3031.89 3034.93 3036.82
3039.69 3043.99 3045.01 3052 3052.99 3053.78 3056.97 3058 3062 3062.85
3066.99 3067.44 3070.14 3075 3080 3079.07 3081.95 3083.2 3088.16 3089.84
3090.96 3094.98 3098 3097.99 3099.6 3100.98 3104.37 3108 3108.01 3111.01
3114.55 3118.21 3120.99 3120.25 3121 3122.67 3129.83 3132.27 3133 3135.62
3137.72 3137.99 3138.04 3139.99 3138.01 3139.85 3142.32 3140.26 3131.87 3123.66
3122.1 3123.02 3126.19 3157.77 3171.07 3179.55 3201.96 3220.61 3230.57 3251.76
3259.9 3274.13 3281.64 3295.05 3310.6 3336.95 3372.66 3408.93 3408.08 3389.44
3390.69 3408.02 3424.72 3445.42 3470.15 3523.41 3566.89 3602.31 3635.89 3657.77
3685.14 3715.39 3737.12 3727.2 3737.2 3753.86 3766.49 3782.73 3787.26 3824.43
3882.82 3934.75 3953.07 3951.06 3949.12 3947.77 3935.81 3919.63 3917.52 3924.36
3942.91 3967.87 3983.8 4016.08 4041.99 4055.95 4128.08 4164.75 4151.99 4113.69
4064.47 4021.03 3953.88 3883.28 3804.32 3748.27 3692.94 3717.52 3765.13 3816.26
3809.53 3821.9 3883.17 3903.65 3894.95 3870.78 3832.98 3781.88 3748.94 3730.52
3694.51 3640.16 3577.68 3511.45 3468.04 3530.8 3585.62 3590.81 3625.72 3686.48
3730.75 3780.14 3829.92 3860.68 3844.78 3799.9 3729.31 3671.19 3635.46 3598.69
3603.27 3642.47 3697.59 3732.45 3780.26 3833.33 3848.69 3867.4 3912.69 3907.39
3897.21 3907.23 3927.59 3918.55 3918.43 3868.72 3814.67 3755.05 3761.83 3766.44
3768.24 3806.92 3827.62 3849.55 3850.27 3846.76 3868.29 3845.92 3806.15 3842.76
3875.4 3897.03 3922.57 3932.38 3959.29 3977.58 3978.1 3968.67 3955.19 3959.53
3961.22 3953.71 3965.8 3978.88 3994.9 4021 4049.4 4061.56 4087.15 4141.04
4169.02 4155.25 4113.63 4063.63 4021.06 3997.14 4008.87 4002.2 3986.65 3979.69
3976.35 3953.51 3953.77 3941.56 3918.7 3905.15 3897.17 3853.42 3802.05 3748.89
3700.47 3658.69 3629.99 3617.5 3602.88 3581.69 3564.48 3537.39 3512.28 3505.56
3522.65

2928.99 2928.99 2928.03 2929 2929.08 2930 2930 2929.26 2934 2932.67
2930 2930.91 2932.1 2935.93 2935.91 2937 2938.99 2938.88 2939.92 2939
2941 2942.1 2943 2943.09 2944.15 2945.44 2947.07 2950.86 2951.38 2951.69
2953.17 2954.24 2958 2958 2959.54 2959.65 2960.81 2962.13 2966 2968.98
2969.43 2972.01 2973.01 2977.5 2977.82 2978.66 2983.5 2984.01 2987 2988.9
2991.03 2993.17 2996 2997.18 2999.65 3001.22 3003.86 3006 3008.17 3011.95
3013.19 3017 3018.99 3021.44 3023.69 3027.03 3030 3033.78 3034.62 3038
3040.42 3043 3046.15 3050 3053 3053.6 3058.73 3060.24 3062.87 3064.22
3068.33 3068.09 3071.99 3076 3081.98 3082 3081.05 3082 3086.96 3091
3090.49 3093.89 3097.67 3098.01 3101.44 3101.43 3106.1 3108.4 3110 3112.28
3113.79 3121.91 3121.93 3125.99 3125 3125.01 3130.47 3134.61 3135.27 3138.63
3136.92 3140.2 3141 3141 3141.12 3144 3143.03 3145.51 3140.8 3125.78
3125 3127 3125.45 3150.15 3166.73 3178.88 3193.95 3222.44 3242.84 3262.5
3272.12 3280.47 3295.88 3304.5 3330.47 3361.71 3392.12 3417.76 3416.84 3406.16
3401.17 3421.74 3451.8 3464.1 3473.84 3520.92 3571.38 3603.36 3631.97 3647.85
3690.01 3724.58 3743.54 3752.82 3755.23 3764.11 3789.74 3805.14 3820.25 3855.15
3915.61 3984.64 4016.39 4020.69 4019.99 4013.98 4009.89 4001.94 3996.77 3999.73
4012.72 4019.36 3999.32 4017.57 4048.08 4070.52 4115.58 4172.58 4178.3 4129.14
4073.98 4018.3 3948.84 3887.14 3803.83 3752.98 3720.87 3753.39 3789.82 3848.87
3860.27 3876.35 3921.9 3931.38 3900.17 3856.06 3815.83 3774.6 3713.27 3689.39
3671.92 3631.46 3587.35 3516.08 3488.83 3555.31 3622.17 3657.12 3688.23 3701.77
3738.99 3794.07 3859.76 3879.15 3852.64 3794.77 3738.86 3686.54 3657.45 3620.92
3624.59 3653.75 3702.83 3758.11 3803.2 3853.67 3894.82 3925.73 3960.31 3966.27
3957.06 3954.91 3939.35 3906.43 3887.81 3837.64 3788.93 3777.76 3787.7 3795.81
3793.22 3846.94 3887.1 3907.35 3905.07 3882.68 3922.86 3909.54 3874.35 3862.35
3899.83 3926.99 3950.85 3966.75 3980.85 3999.33 3998.45 3986.72 3988.41 3990.23
3983.3 3979.03 3983.38 3992.87 4003.37 4032.3 4054.97 4073.75 4092.63 4156.85
4202.97 4199.42 4152.63 4084.94 4053.04 4039.44 4048.56 4046.28 4035.32 4024.09
4016.92 4004.75 3996.05 3974.08 3965.72 3956.86 3936.26 3880.22 3823.43 3772.91
3722.23 3682.64 3649.59 3623.16 3606.16 3586.47 3575.08 3547.17 3525.95 3515.33
3525.8

2929.44 2930.6 2930 2931 2933.98 2933.51 2932.58 2932.02 2933.91 2935.23
2934.17 2934.96 2934.98 2935.97 2937.03 2938.48 2939.9 2941 2940.11 2942
2943.33 2943.08 2944.87 2944 2948 2947.81 2948.9 2952.12 2952.65 2953
2954.07 2958 2957.86 2960.22 2961 2963.76 2963.11 2964.08 2966.29 2968.94
2970.04 2971.92 2973 2978.29 2978.51 2979.96 2982.99 2986 2986.96 2989
2991.8 2993.11 2994.31 2997.05 3001.99 3002 3003.01 3010 3009.53 3012
3014.94 3016.63 3020.48 3022.97 3024.35 3027.5 3030 3033 3035.94 3037
3041 3044.18 3046.01 3049.69 3050 3054.15 3058.63 3059.93 3063 3065.93
3068.94 3070 3073.69 3076.98 3078.47 3081.7 3082 3086 3086.14 3090.87
3092 3094.94 3099 3098.31 3100.58 3104.95 3107 3109 3111 3112.16
3114.45 3119.37 3122.9 3125 3125 3126.25 3129.14 3133.14 3136.19 3141
3140.14 3142.18 3143.98 3143.06 3148.59 3149.92 3144.25 3147 3142.04 3131.28
3128.13 3128.37 3128.99 3144.93 3170.19 3179.3 3197.21 3235.48 3255.34 3272.78
3295.1 3300.95 3303.55 3318.13 3332.52 3364.28 3383.28 3402.54 3421.72 3426.18
3423.15 3446.48 3475.94 3509.54 3517.48 3507.4 3534.4 3572.46 3601.83 3644.52
3687.95 3726.24 3742.23 3754.93 3758.74 3772.43 3797.75 3812.82 3833.38 3875.01
3937.57 4002.83 4066.19 4084.49 4085.16 4081.1 4078.69 4073.1 4076.14 4084.56
4085.52 4077.1 4034.75 4030.76 4062.83 4097.75 4138.35 4182.6 4176.76 4118.56
4064.65 3999.75 3938.9 3881.87 3817.04 3751.42 3758.42 3807.67 3816.81 3855.15
3910.99 3929.23 3946.39 3948.79 3908.63 3871.05 3811.21 3754.99 3733.87 3694.35
3648.29 3603.91 3564.82 3498.52 3503.28 3554.79 3618.29 3679.34 3736.99 3762.95
3787.72 3820.99 3869.58 3886.19 3866.28 3832.08 3761.95 3710.71 3680.9 3636.9
3645.95 3692.87 3719.97 3751.87 3824.31 3880.6 3945.1 3996.18 4019.04 4018
3988.68 3953.15 3925.32 3889.09 3857.25 3817.63 3813.06 3802.41 3815.12 3817.36
3815.67 3861.14 3917.56 3962.85 3961.26 3937.16 3968.76 3964.02 3913.1 3893.66
3924.46 3954.3 3978.72 3994.64 4008.67 4020.18 4017.78 4006.81 4008.4 4006.45
3991.47 3996.45 4009.28 4015.29 4026.33 4056.46 4077.61 4098.18 4110.02 4152.46
4208.83 4208.75 4167.31 4119.8 4084.39 4075.84 4080.19 4106.61 4107.53 4083.27
4071.82 4063.89 4042.36 4022.11 4016.09 4002.36 3965.75 3896.86 3836.06 3778.71
3733.91 3695.39 3661.84 3634.99 3613.84 3593.01 3574.25 3549.7 3538.57 3518.82
3529.94

2932 2932 2931 2931.8 2933 2932 2933.57 2934.58 2934.99 2935.98
2935.19 2934.56 2938.86 2938.44 2939 2939.45 2941 2941.29 2943 2942.16
2944.52 2946 2947.85 2946.99 2949.32 2950.56 2952.67 2953.6 2954.26 2954.33
2956 2959.39 2960 2961.24 2962.19 2965 2965.83 2966.36 2966.62 2968.65
2970.07 2974.77 2974 2976.96 2978.94 2981 2986.04 2987 2988.92 2988.05
2992.68 2993.58 2996.69 2997.98 3002.2 3002.79 3006.46 3009.98 3012 3012
3015.98 3016.36 3019.72 3022.66 3025.3 3027.92 3029.22 3033.03 3035.92 3036.06
3041.06 3045 3046.03 3050.72 3051.54 3055 3055 3060.01 3063.06 3066
3068.22 3071.48 3073.66 3075.16 3078 3079.09 3082.33 3086 3087.03 3092.11
3092.4 3095.01 3098.76 3099.11 3102.29 3103.94 3107.88 3108.92 3112.19 3114.34
3118.13 3122 3121.01 3127.54 3128.12 3128.02 3131.8 3134.96 3138.01 3138.19
3140.95 3144.02 3146 3146.58 3145.8 3148.99 3148 3145.23 3147.4 3135.18
3129 3132.23 3130.97 3141.85 3174.22 3187.27 3201.96 3238.54 3264.03 3279.04
3304.86 3328.47 3325.04 3335.74 3346.15 3360.46 3377.63 3401.71 3427.21 3439.74
3456.02 3480.02 3506.42 3543 3558.94 3550.66 3553.29 3570.5 3590.25 3635.03
3669.09 3687.33 3715.1 3731.99 3757.17 3772.26 3791.76 3819.65 3839.12 3868.26
3934.91 3998.78 4067.98 4117.14 4141.93 4153.84 4164.57 4160.98 4153.86 4134.83
4115.48 4088.79 4058.66 4061.97 4099.87 4115.39 4156.1 4186.1 4159.65 4102.37
4056.88 4007.91 3943.89 3890.57 3817.1 3768.27 3794.68 3842.69 3877.04 3884.85
3924.75 3969.19 3986.1 3962.98 3910.47 3855.76 3810.32 3772.29 3737.75 3694.67
3665.11 3610.6 3545.97 3501.27 3526.74 3570.76 3605.28 3663.97 3747.36 3783.85
3827.23 3867.18 3890.86 3905.59 3902.7 3856.4 3789.72 3732.29 3704.55 3642.23
3665.52 3707.46 3772.06 3799.85 3836.06 3879.3 3949.05 4013.93 4043.85 4024.83
3982.82 3933 3903.04 3884.04 3870.06 3876.25 3853.35 3826.08 3837.54 3839.94
3838.13 3879.62 3935.14 3988.83 4001.72 4000.77 4020.32 4002.23 3959.58 3963.37
3945.27 3970.29 3989.69 4013.84 4031.83 4038.96 4040.95 4032.38 4027.7 4024.83
4013.3 4027.36 4035.14 4039.59 4059.93 4094.68 4129.16 4132.17 4140.71 4167.71
4228.69 4231.27 4195.54 4150.11 4115.13 4097.37 4105.05 4156.29 4160.88 4150.35
4150.26 4129.16 4104.59 4081.41 4065.02 4024.13 3972.25 3907.22 3842.74 3782.27
3736.99 3692.26 3662.38 3636.38 3614.92 3588.79 3579.19 3579.35 3559.28 3527.8
3536.99

2932.99 2933.48 2933.86 2932.86 2931.77 2934.97 2935.84 2936.31 2937.93 2937
2936 2938.69 2938.42 2939.19 2941.98 2942 2941.91 2945.78 2946.03 2947.03
2945.98 2947 2948.58 2949.15 2949.99 2951.6 2954.12 2955 2957.01 2958
2957.72 2959.38 2961.33 2962 2962.96 2964.7 2965.87 2967.16 2971.37 2971.41
2970.68 2974 2975 2977.26 2981.67 2982.01 2984.94 2985.97 2987.49 2991.34
2993 2993.49 2997.39 2999 3002.01 3004 3007.33 3007.51 3010.95 3011.94
3015 3019.07 3020.04 3022.46 3024.12 3027.89 3029 3033.45 3035 3037.01
3041.01 3043.01 3046.29 3048.26 3053.41 3054.78 3056.03 3058.95 3063.43 3066.4
3070 3070.89 3071.41 3074 3078 3080.16 3082.03 3085.96 3088 3092.04
3094 3096.08 3100.01 3102.6 3104 3105.06 3107 3112.89 3114.18 3116.96
3119.93 3122 3124.29 3128.21 3129.99 3129.01 3134.71 3137 3137.85 3139.88
3143.57 3145.04 3149 3151.91 3151.2 3148.97 3150 3151.42 3151.51 3140.91
3130.95 3133 3132.94 3135.01 3175.22 3192.01 3200.95 3232.35 3248.36 3273.13
3304.06 3329.8 3348.05 3359.37 3373.06 3376.77 3387.12 3412.89 3440.96 3465.4
3482.56 3512.43 3533.36 3566.23 3587.83 3585.95 3573.13 3593.38 3614.7 3631.83
3649.05 3673.81 3705.54 3736.44 3764.49 3807.75 3816.99 3820.69 3845.54 3855
3893.96 3971.08 4043.74 4120.91 4180.76 4213.37 4229 4226.65 4208.2 4157.09
4127.65 4114.49 4093.19 4103.27 4131.77 4138.01 4174.62 4192.4 4163.25 4096.51
4045.38 3986.62 3935.09 3882.94 3828.38 3790.05 3853.61 3890.09 3919.9 3949.91
3951.47 3990.41 4001.15 3979.45 3918.19 3855.44 3803.14 3752.43 3703.07 3676.04
3635.04 3588.29 3534.69 3522.03 3561.31 3622.98 3646.07 3672.9 3727.62 3773.07
3831.67 3884.38 3923.6 3925.88 3907.68 3869.19 3800.92 3747.98 3704.15 3668.26
3700.11 3732.85 3779.36 3827.58 3872.95 3914.22 3975.28 4036.63 4044.49 4018.53
3962.79 3952.88 3953.04 3949.93 3933.97 3933.53 3904.04 3862.25 3849.67 3864.23
3867.95 3883.71 3940.38 3998.23 4042.55 4061.54 4064.84 4024.71 4016.19 4008.14
3973.22 3996.54 4013.9 4026.49 4041.78 4063.95 4066.79 4052.14 4048.8 4050.64
4049.21 4066.06 4072.57 4071.75 4096.39 4129.44 4165.4 4171.11 4167.23 4186.14
4250.26 4260.45 4238.23 4168.33 4129.4 4112.06 4145.92 4203.49 4222.71 4222.13
4228.32 4202.89 4169.34 4125.43 4070.16 4019.32 3964.56 3902.14 3838.86 3777.53
3733.13 3705.05 3673.58 3641.44 3613.02 3604.37 3602.12 3601.13 3572.14 3537.23
3540.54

2932.81 2935.94 2936 2933.02 2934 2935 2936.23 2937.13 2939.66 2940
2940.16 2940.08 2940.12 2942.02 2943.99 2944 2945 2947.39 2949.66 2949.19
2948.16 2950 2951 2951.17 2955.63 2953.48 2956 2957.14 2959 2958.55
2959.2 2961.8 2962.95 2962.06 2966.05 2967.95 2968.93 2970.87 2972.99 2972.6
2974.65 2975.14 2975.01 2978 2981.92 2981.85 2985.79 2986 2988.41 2992
2993 2994.26 2997 2999 3002.14 3004 3007.95 3009 3010.99 3012.96
3015.92 3017.61 3020.78 3022.01 3026 3027.62 3028.14 3034.47 3037.02 3038.9
3041 3041 3047 3049.11 3056.3 3056.89 3057.21 3060.4 3063.2 3065
3067 3069.62 3073.09 3073 3077.99 3080.73 3083.08 3086.94 3088.88 3092.57
3094 3097 3101 3103.47 3103.46 3107 3107.51 3113.37 3117 3117.88
3118.72 3123.18 3128 3126.93 3129.73 3130.89 3136 3137 3139.13 3141.11
3148.15 3149.18 3150 3153.85 3152.54 3151.02 3153 3151.8 3153.86 3139.76
3133 3134.37 3134.07 3134.09 3163.17 3193.17 3201.35 3224.88 3247.86 3277.31
3309.97 3347.59 3371.82 3385.71 3406.94 3413.31 3403.33 3414.02 3444.45 3482.9
3503.99 3538.85 3567.52 3601.82 3628.65 3623.72 3615.73 3623.79 3649.97 3664.46
3672.89 3721.51 3760.65 3805.66 3827.27 3875.32 3890.65 3881.22 3855.29 3874.62
3891.28 3943.43 4016.47 4097.28 4153.68 4217.1 4244.57 4266.24 4247.87 4172.74
4133.8 4154.69 4151.75 4152.24 4161.94 4184.9 4214.34 4221.58 4184.33 4117.53
4063.52 4001.66 3949.17 3899.51 3823.73 3838.54 3898.44 3947.79 3977.07 4007.59
4005.84 4010.85 4029.13 4000.76 3940.07 3873.84 3812.47 3775.05 3761.35 3729.5
3664.54 3596.58 3537.48 3545.72 3592.6 3649.7 3694.06 3713.31 3749 3780.37
3816.4 3875.96 3924.16 3928.69 3906.89 3868.39 3807.89 3750.84 3698.2 3709.95
3731.81 3787.14 3812.36 3833.96 3902.05 3947.51 3997.64 4063.25 4059.91 4008.26
3985.27 4000.42 4016.17 4014.94 3995.68 3993.93 3942.99 3889.58 3875.84 3896.79
3900.72 3904.78 3936.01 3996.68 4056.49 4096.45 4099.81 4061.94 4063.62 4036.16
4015.57 4028.26 4036.1 4048.84 4067.39 4081.47 4087.04 4074.93 4080.99 4085.15
4085.06 4101.74 4124.4 4122.97 4140.35 4172.38 4201.32 4205.22 4198.76 4212.68
4263.7 4287.26 4275.55 4212.7 4169.77 4154.55 4200.11 4256.86 4279.65 4261.98
4246.13 4223.99 4174.83 4122.4 4068.05 3998.54 3938.58 3880.91 3835.97 3798.51
3763.04 3726.19 3682.22 3647.93 3622.95 3627.63 3627.9 3607.41 3581.61 3546.35
3545.65

2936.34 2936.07 2936.62 2936.85 2935.72 2938 2937 2939 2940 2940.01
2942.95 2943 2945 2944.79 2944.16 2945.45 2945.74 2948 2951.32 2951.11
2952.46 2950.59 2952.86 2954 2954.96 2955.88 2956.14 2958 2958 2961.06
2961.59 2962.87 2963.91 2964.73 2968 2968.53 2970.59 2971.45 2971.34 2972.94
2975 2977 2978 2979.1 2980 2984.22 2987 2988 2989 2991.92
2992.69 2993.93 2997 3000.87 3003 3004.52 3005.96 3008.48 3010.52 3013.55
3017 3018 3020 3020.42 3026.24 3029 3030.46 3032.22 3037.26 3038.14
3041 3043 3045.93 3050 3054.87 3054.93 3057.37 3061.9 3063 3066.6
3066.98 3069.99 3074 3074 3079.43 3082.42 3085 3086.14 3090.26 3091
3094.31 3098.21 3100.45 3102 3104.13 3108 3109.65 3111 3113.84 3118.95
3120.06 3122.71 3127.01 3129.61 3131.92 3134.85 3136.88 3139 3140.53 3142
3146.89 3150.74 3149.63 3151 3154.69 3157 3156.01 3152.36 3155.66 3148.24
3137.33 3136.32 3137 3139.99 3153.52 3181.71 3202.68 3225.23 3256.78 3303.55
3348.64 3383.04 3419.73 3417.21 3447.23 3467.91 3461.06 3435.79 3445.91 3482.11
3511.87 3554.42 3593.67 3637.58 3654.48 3659.44 3655.46 3655.19 3672.33 3701.82
3710.33 3742.46 3816.1 3865.14 3902.82 3941.12 3952.6 3937.99 3904.8 3886.76
3914.16 3945.37 3992.65 4055.48 4105.89 4171.54 4214.81 4264.24 4245.57 4193.7
4144.67 4157.68 4190.04 4191.52 4204.1 4241.83 4261.77 4257.84 4199.48 4144.22
4079.94 4012.94 3960.95 3901.72 3833.76 3882.15 3945.01 3991.88 4038.78 4064.45
4060.66 4062.99 4065.16 4021.61 3953.91 3890.29 3854.45 3837.87 3798.87 3737.79
3662.91 3585.28 3542.59 3567.8 3623.68 3678.96 3740.6 3778.37 3813.87 3840.57
3860.38 3884.04 3927.1 3930.89 3907.87 3856.9 3802.61 3745.99 3713.76 3742.48
3782.57 3839.51 3870.02 3877.51 3923.54 3979.26 4033.83 4092.51 4093.18 4033.75
4019.33 4039.88 4083.69 4082.69 4054.56 4027.48 3973.23 3924.03 3904.96 3915.47
3929.2 3935.88 3976.81 4003.63 4052.85 4100.4 4113.73 4104.98 4089.27 4057.97
4036.94 4052.41 4058.52 4073.19 4095.2 4098.43 4105.38 4111.43 4118.77 4124.68
4131.72 4141.37 4141.01 4146.41 4181.28 4217.54 4247.25 4238.52 4225.39 4246.16
4283.96 4287.66 4274.22 4260.58 4228.99 4216.01 4251.49 4273.99 4280.69 4259.31
4231.97 4202.46 4158.12 4111 4059.75 4004.29 3948.46 3911.06 3866.04 3827.85
3782.59 3732.65 3688.3 3650.83 3644.95 3645.21 3641.78 3618.19 3589.32 3554.93
3558.17

2937 2936.86 2938 2936.82 2937.99 2939.03 2941 2942.5 2943.03 2945
2944.4 2945 2946.97 2947.13 2946.35 2948 2949 2950.1 2951 2952.09
2954.07 2954.74 2954.13 2955.13 2955.41 2956.85 2958 2961.54 2962.67 2964.98
2965.5 2966.22 2966.15 2966 2969.39 2971 2973.09 2973.32 2974 2976.19
2977.39 2978.13 2980.09 2980.07 2982.54 2984.86 2986.04 2988 2989 2990.78
2992.31 2996.15 2997 3000 3001.25 3004.57 3008 3009.7 3012 3014
3017 3018.34 3020.97 3022.63 3026.16 3028.27 3031.01 3032.12 3035.69 3037.09
3042 3043 3046.7 3050 3052.08 3055.67 3060.18 3061 3062.71 3065.14
3067.99 3070 3074.4 3075.69 3079.32 3081.22 3085 3087 3090.9 3092.07
3094.04 3096.57 3101.83 3104 3106.01 3109.94 3111.18 3114 3115.68 3117.99
3122.01 3122.52 3127 3128.42 3133.08 3135.07 3137 3138.91 3140.98 3144.54
3148.08 3148.85 3152.75 3157.44 3161.65 3162.87 3156.39 3155.01 3157.92 3148.95
3138.86 3140.01 3139.88 3140.77 3152.3 3181.2 3208.03 3231.12 3270.14 3311.45
3371.32 3432.09 3465.95 3462.74 3491.79 3525.03 3512.46 3476.42 3481.07 3518.51
3555.6 3583.95 3603.64 3639.37 3669.8 3689.51 3691.47 3708.84 3722.11 3740.35
3750.14 3773.53 3846.59 3910.21 3962.08 4010.39 4017.88 3997.81 3962.77 3941.26
3924.45 3956.5 3964.89 3997.5 4053.43 4110.16 4160.7 4201.71 4225.34 4205.05
4170.94 4154.21 4192.56 4225.37 4243.61 4290.64 4298.75 4273.08 4218.17 4160.13
4096.43 4045.1 3977.39 3906.24 3869.44 3919.33 3970.46 4024.2 4088.98 4107.74
4109.76 4107.29 4086.36 4029.44 3966.98 3926.96 3907.13 3855.1 3807.23 3737.79
3660.7 3585.79 3567.59 3580.74 3623.07 3690.58 3740.79 3782.81 3833.2 3875.42
3908.88 3928.76 3948.99 3941.53 3905.51 3852.14 3802.14 3762.19 3741.67 3771.62
3806.64 3863.76 3904.85 3938.05 3966.14 4012.71 4062.09 4121.23 4121.38 4063.97
4046.26 4086.64 4132.44 4140.44 4111.72 4062.79 4013.96 3947.01 3940.36 3947.09
3954.37 3969.47 3999.27 4047.26 4076.12 4115.81 4148.73 4132.84 4097.53 4070.96
4046.37 4061.22 4080.22 4101.39 4120.88 4121.28 4130.66 4139.79 4144.4 4153.42
4175.02 4186.51 4176.82 4165.29 4189.97 4244.4 4262.22 4260.81 4244.55 4264.01
4302.21 4285.63 4284.07 4298.76 4281.01 4267.14 4256.89 4258.66 4239.52 4218.9
4185 4152.68 4116.15 4088.35 4025.95 3990.3 3949.87 3905.74 3861.99 3822.72
3774.62 3724.29 3681.94 3662.64 3664.94 3660.24 3655.13 3637.21 3607.31 3573.96
3563.71

2937.21 2938.13 2939 2940.65 2940 2941.42 2941.03 2942.11 2945.33 2946.53
2945.01 2947.08 2949 2948.49 2948 2949.51 2951 2952.95 2954 2955.66
2956.87 2958.59 2959 2959 2959.02 2960 2961.31 2961.54 2964.43 2966.41
2967.59 2967 2967 2969.29 2968.66 2974 2974.18 2974.95 2976 2979.31
2978 2979.05 2982 2984.68 2984.93 2986.01 2989 2988.97 2992 2992.96
2993.82 2997 2997.46 2999.2 3003 3005.77 3007.95 3010.28 3012.57 3013.76
3016.2 3020 3021.35 3025 3027.02 3031.56 3033 3033.72 3038.01 3040
3042 3043.33 3046.06 3049.69 3053 3055.33 3060 3061 3064.82 3067
3066.28 3069.27 3073.24 3076.89 3080.99 3081.32 3084.11 3088.02 3090 3092.01
3095.63 3099 3101 3105.49 3106.63 3110.7 3114.45 3116.93 3117.89 3122.3
3124 3125.7 3125.37 3133.29 3135.83 3137.99 3137.86 3139.97 3144.59 3146.42
3150 3150.59 3155.64 3158 3158.66 3158.51 3162 3160.8 3158 3153.34
3141.13 3141 3142 3142.01 3151.88 3167.63 3210.41 3232.2 3273.23 3318.81
3375.04 3442.02 3502.1 3504.75 3529.31 3551.64 3525.56 3522.85 3528.01 3537.7
3593.05 3627.43 3640 3644.59 3677.05 3715.15 3746.85 3771.35 3782.61 3790.41
3809.7 3829.54 3861.73 3933.75 3997.97 4050.3 4070.5 4053.95 4029.72 3999.27
3974.89 3969.19 3977.03 3990.54 4013.05 4061.41 4091.15 4137.04 4188 4209.37
4206.7 4178.49 4189.04 4227.81 4255.05 4296.04 4306.17 4277.41 4218.43 4155.04
4085.3 4038.98 3977.72 3907.49 3914.88 3962.56 4022.82 4062.91 4110.71 4129.94
4135.17 4128.59 4099.09 4053.02 4010.77 3954.37 3916.26 3857.15 3792.94 3720.48
3655.56 3588.06 3587.03 3607.86 3633.21 3664.58 3696.96 3758.94 3812.15 3875.14
3917.43 3951.52 3972.71 3961.12 3920.98 3880.62 3828.67 3770.05 3762.24 3780.08
3811.97 3859.38 3907.28 3962.36 4005.32 4056.97 4112.49 4153.2 4138.54 4076.05
4083.87 4137.29 4163.82 4160.39 4122.67 4063.75 4011.12 3966.24 3966.5 3978.02
3976.87 4000.97 4017.03 4055.97 4116.21 4165.61 4189.76 4173.52 4126.56 4092.41
4070.05 4083.84 4104.22 4130.75 4145.08 4146.27 4156.22 4174.1 4175.05 4176.64
4194.46 4206.88 4214.19 4217.3 4211.06 4257.03 4267.57 4266.25 4259.89 4299.18
4330.94 4315.15 4301.67 4312.51 4300.48 4272.81 4234.54 4198.2 4181 4164.35
4131.37 4092.36 4062.64 4024.91 3985.59 3947.29 3906.65 3870.87 3840.65 3797.12
3750.64 3697.48 3689.25 3691.18 3681.46 3671.66 3666.92 3656.26 3625.34 3594.09
3572.63

2941.97 2940.55 2941.72 2941.03 2943 2943.46 2944 2945.07 2946.91 2949.27
2950.1 2949 2951 2952.86 2951.2 2953.47 2953.6 2953.82 2954.99 2957
2958.55 2958.72 2961.86 2961.46 2962.37 2962.25 2963.66 2965.81 2967.01 2968.26
2967.92 2968.92 2970.83 2974.85 2973.45 2974.63 2976.79 2977.71 2979.33 2980.51
2982.96 2982.41 2984 2985.81 2985.99 2986.84 2989 2992.25 2991.58 2995.1
2997.88 2998 3000 3002.03 3005.07 3006.14 3008.16 3009.87 3015 3015
3018.49 3022.01 3023.28 3024.63 3028.05 3032.01 3034 3036.85 3039 3039.66
3043.24 3046 3048 3049 3054 3055.88 3059.07 3060.67 3064.95 3068.09
3070 3071 3074.97 3076 3078.09 3081.88 3086 3089 3091 3094.98
3097.42 3098.43 3101.07 3105.37 3107.29 3111 3113.91 3118 3119.1 3122.21
3127.93 3127.65 3130.04 3135.99 3136.92 3137.93 3140.27 3143.37 3145.2 3148.17
3151.88 3154.99 3156.06 3158.23 3158 3158.83 3162 3160.96 3161.56 3161.84
3153.87 3144.29 3143.55 3145.23 3151.33 3165.02 3211.8 3238.86 3275.28 3318.49
3382.45 3444.42 3510.54 3543.34 3568.38 3577.12 3551.65 3578.15 3580.7 3548.19
3597.22 3644.84 3667.43 3693.9 3709.81 3741.51 3797.67 3826.29 3844.23 3858.25
3880.8 3892.86 3926.77 3958.34 4011.68 4088.15 4113.74 4110.59 4082.45 4065.28
4038.35 4023.77 4023.01 4016.31 4028.47 4044.94 4081.1 4105.46 4151.35 4217.51
4242.25 4225.92 4216.86 4230.38 4255.6 4290.14 4292.85 4261.24 4207.15 4143.77
4083.72 4027.32 3967.2 3921.4 3948.67 3992.53 4057.76 4114.03 4151.09 4159.56
4151.03 4130.43 4098.26 4048.38 4002.51 3937.52 3901.95 3854.9 3794.63 3715.86
3651.09 3589.42 3604.8 3632.52 3677.48 3701.66 3746.38 3768.96 3783.4 3834.43
3882.47 3941.76 3978.11 3979.89 3943.63 3896.34 3828.66 3798.98 3808.5 3809.4
3800.65 3849.44 3893.57 3935.65 4007.56 4075.15 4131.96 4175.11 4147.53 4100.75
4133.91 4165.12 4175.41 4153.75 4090.78 4045.19 4019.96 4008.5 4007.22 4007.91
4002.32 4022.96 4044.81 4074.33 4132.61 4193.37 4235.62 4212.95 4151.24 4113.54
4107.11 4117.7 4146.81 4170.57 4177.25 4176.06 4184.36 4215.67 4214.29 4220.19
4222.67 4224.15 4235.9 4271.4 4266.37 4274.6 4271.2 4273.62 4274.57 4322.91
4357.97 4344.83 4309.5 4307.83 4275.45 4233.1 4185.12 4159.22 4134.94 4120.06
4096.09 4049.41 4011.6 3991.67 3966.96 3933.14 3884.56 3838.89 3808.92 3754.33
3721.66 3727.09 3715.29 3703.37 3690.01 3680.68 3671.61 3664.07 3635.45 3608.31
3589.64

2942.02 2942.06 2944 2944 2943.79 2946.76 2944 2946.82 2946.68 2951.71
2950.95 2951.08 2952.58 2954 2954.01 2955.18 2957 2957.13 2958 2960.03
2960 2961.13 2962.87 2964 2964.06 2967 2967.1 2967 2968.01 2969.05
2970.05 2971.72 2972 2976 2975.28 2977 2979 2980.5 2982 2983
2982.65 2984 2988 2988.97 2988.93 2990.96 2992.14 2993.99 2995 2996.58
2998.7 2998.83 2999.74 3003.82 3005.43 3009.42 3012.99 3013.19 3015.1 3016.87
3019.41 3022 3025.42 3027.22 3030 3031 3035 3038.05 3039.27 3042.74
3045.11 3046.73 3049.98 3050.18 3054 3055.59 3059.63 3062 3064 3067.87
3068 3071.04 3073.97 3076 3079.36 3082 3085.93 3088.33 3091 3093
3096.72 3100.16 3104.75 3107.93 3110.03 3112.46 3116.01 3120.13 3119.89 3125.04
3128.4 3133.51 3136 3136.49 3137 3143.74 3143.98 3148 3147.54 3150
3150.87 3153.05 3157.32 3160.41 3163.51 3161.86 3164.03 3164.56 3163.63 3163.81
3151.79 3146 3147.95 3149.74 3153.3 3171.41 3194.65 3244.12 3296.28 3336.66
3373.73 3438.49 3491.93 3550.04 3599.37 3603.17 3580.08 3599.93 3608.75 3583.42
3610.2 3653.44 3682.1 3734.27 3777.09 3786.97 3813.99 3860.05 3904.73 3928.28
3950.06 3959.06 3982.13 4013.57 4041.02 4098.09 4151.89 4170.59 4148.85 4133.81
4109.19 4108.58 4088.99 4073.29 4074.94 4085.28 4100.74 4118.4 4148.97 4212.35
4251.73 4266.65 4263.66 4273.9 4303.01 4307.76 4295.14 4253.64 4188.75 4123.81
4066.29 4014.72 3963.67 3964.52 3985.49 4026.72 4076.76 4127.07 4186.55 4193.14
4164.96 4124.28 4074.3 4015.71 3952.14 3888.12 3838.47 3822.43 3756.15 3698.59
3649.06 3598.29 3622.59 3665.8 3715.99 3751.84 3775.22 3815.1 3847.46 3851.15
3884.9 3949.44 3990.65 3994.12 3945.75 3894.92 3820.93 3848.1 3869.01 3881.54
3870.66 3832.74 3884.57 3931.2 3984.34 4051.19 4124.93 4176.41 4176.26 4134.44
4168.53 4196.88 4200.45 4163.09 4115.88 4077.58 4063.44 4050.4 4045.57 4044.81
4028.66 4041.17 4059.32 4087.71 4137.98 4200.7 4251.75 4249.7 4191.8 4154.15
4145.34 4154.25 4182.08 4195.71 4205.51 4202.42 4220.51 4240.85 4263.99 4268.44
4260.22 4240.2 4245.05 4299.74 4311.92 4290.83 4280.35 4288.54 4291.61 4338.6
4368.25 4344.62 4304.4 4287.89 4244.04 4218.58 4184.34 4154.74 4127.99 4088.73
4068.95 4015.49 3983.51 3957.05 3934.49 3913.36 3878.47 3824.56 3776.36 3758.36
3756.81 3755.1 3730.57 3725.31 3708.84 3704.44 3704.44 3697.09 3660.4 3645.15
3611.09

2944.22 2944.94 2945.11 2944 2947 2946.97 2948.4 2948.07 2948 2952
2951.37 2952.07 2954.3 2954.38 2956.99 2957.06 2958.16 2959 2961.81 2962.33
2962.3 2962.7 2965.13 2966 2968.3 2967.98 2968.97 2969.56 2973.67 2971.01
2975.59 2974.88 2975 2975.72 2978.47 2980.24 2980 2981.3 2983.09 2984.04
2986.68 2986.98 2988.19 2990 2991.57 2992.11 2993.02 2994 2998 2997.99
2999.77 3000.55 3003.3 3006 3007 3008 3011.01 3016.37 3019.94 3020
3020.9 3025.32 3027.97 3029 3031.74 3035.91 3035.24 3039.04 3041.9 3043
3046 3049.73 3052.5 3056 3057.35 3059.98 3061.03 3063.03 3069.09 3069.83
3072 3071.91 3076 3078.52 3081 3082.14 3085.51 3090.11 3092 3094.17
3096.05 3102.03 3105 3108 3112.67 3114.68 3120.38 3123.37 3124.91 3127.82
3132.92 3138.89 3140.06 3141.03 3142.6 3147 3148.15 3149.7 3152.05 3154.78
3155.98 3156.23 3159.35 3160.68 3165 3163.59 3165.56 3169 3169.72 3168.96
3154.94 3149 3151.93 3150.96 3152.86 3168.57 3192.41 3248.51 3322.34 3371.29
3413.86 3429.42 3477.6 3548 3606.14 3621.19 3610.18 3621.27 3631.1 3617.85
3613.67 3653.73 3686.83 3751.3 3821.36 3858.35 3877 3898.61 3943.66 3983.06
4022.37 4031.86 4047.69 4075.56 4101.84 4132.77 4195.4 4224.88 4215.78 4189.5
4184.22 4182 4158.13 4134.3 4143.44 4140.18 4136.81 4135.96 4159.09 4216.42
4274.61 4322.39 4327.3 4340.76 4348.62 4335.71 4292.49 4238.37 4176.51 4111.8
4058.51 4010.74 3994.25 4013.95 4024.06 4050.33 4093.11 4150.51 4196.02 4196.68
4162.31 4113.72 4065.39 4006.18 3942.18 3876.66 3836.82 3798.28 3742.02 3680.29
3634.55 3608.64 3644.67 3689.9 3736.17 3775.93 3826.57 3841.14 3886.35 3911.39
3923.16 3972.84 4021.34 4016.27 3962.89 3895.27 3837.28 3892.17 3934.42 3950.04
3941.79 3890.61 3867.26 3918.49 3968.64 4029.75 4094.47 4153.16 4164.81 4166.07
4192.36 4232.13 4236.98 4196.97 4147.88 4123.2 4107 4098.18 4083.03 4073.54
4061.87 4067.21 4085.51 4102.15 4132.87 4205.91 4273.78 4280.51 4233.79 4187.54
4175.94 4183.58 4213.99 4217.47 4220.41 4218.27 4244.83 4264.5 4287.72 4288.22
4284.08 4265.56 4292.84 4328.55 4321.69 4299.49 4292.61 4302.25 4305.99 4346.07
4376.86 4350.65 4300.72 4268.62 4243.09 4223.4 4204.32 4167.91 4125.75 4079.43
4036.73 4002.73 3955.34 3925.38 3908.6 3882.65 3841.64 3803.01 3805.38 3804.02
3788.02 3778.39 3775.87 3769.45 3757.47 3756.03 3758.3 3741.39 3696.21 3672.5
3631.43

2945.08 2945 2946.41 2949 2950.01 2950.4 2953 2951.29 2951.91 2952.98
2953.41 2954 2956.01 2956.93 2959.99 2960.44 2963.58 2962.69 2963 2964.37
2965.01 2966.68 2968 2967.58 2969 2969 2970.67 2972.45 2973.98 2973.97
2977.58 2978.08 2979.38 2977.99 2979.66 2981 2982.8 2982.98 2987.95 2987
2989.55 2989.07 2990 2991 2992.93 2995.72 2996.47 2998.01 2999 3000
3001.26 3005.96 3005.08 3006 3009.72 3011.25 3013 3016.3 3018.59 3022
3021 3027.01 3030.01 3032.93 3035 3036.64 3039.68 3042.23 3046.11 3047.94
3048.93 3053.72 3057 3055.91 3058.8 3062.3 3063.08 3066.94 3068.09 3071.1
3073.15 3076.48 3077.01 3079 3082.93 3083.96 3088.89 3090.9 3095.59 3096.99
3098.75 3103.08 3108.41 3111.02 3115.43 3119.46 3123.66 3126.79 3132.37 3133.16
3137.15 3142.94 3145.9 3147.85 3151.69 3151.78 3155.58 3159.26 3157.39 3160.61
3164 3163.64 3161.42 3163.66 3166.76 3167.1 3168 3168.94 3170.86 3168.69
3161.02 3148.94 3150.47 3151.99 3154.69 3173.5 3195.21 3256.55 3338.81 3409.76
3464.4 3484.36 3511.61 3574.97 3618.15 3644.2 3641.5 3652.98 3658.41 3660.59
3653.67 3664.78 3686.76 3749.16 3818.31 3871.98 3920.4 3953.78 3988.19 4030.01
4078.96 4098.58 4106.16 4131.84 4158.42 4176.45 4206.12 4235.14 4236.87 4236.81
4247.32 4240.15 4223.59 4193.05 4183.15 4172.11 4152.27 4156.49 4180.1 4238.23
4310.56 4372.53 4394.9 4392.17 4361.15 4333.46 4289.65 4241.76 4176.79 4105.04
4043.41 4005.73 4035.24 4070.56 4083.81 4089.79 4108.71 4170.87 4199.36 4193.73
4154.29 4098.28 4043.96 4016.84 3970.05 3925.21 3867.33 3810.09 3752.16 3687.37
3631.49 3628.62 3671.57 3732.37 3777.73 3815.23 3875.38 3895.04 3916.57 3961.95
3975.91 4014.46 4049.32 4036.95 3989.08 3917.16 3881.22 3928.96 3980.44 4011.04
3990.76 3934.71 3923.55 3902.35 3942.32 4003 4059.21 4103.27 4129.93 4171.16
4199.25 4253.62 4265.96 4243.16 4205.95 4183.75 4163.8 4147.62 4125.23 4114.24
4101.46 4088.44 4100.21 4120.43 4147.36 4208.02 4277.59 4314.18 4283.3 4236.12
4215.36 4225.52 4230.69 4237.16 4237.27 4240.17 4290.55 4315.17 4323.47 4301.19
4293.02 4313.2 4342.39 4347.19 4328.35 4320.65 4328.95 4326.45 4323.46 4368.65
4373.67 4342.09 4292.01 4256.82 4243.78 4225.33 4209.11 4159.2 4110.03 4073.73
4028.69 3989.93 3948.32 3911.76 3884.48 3866.44 3862.57 3855.37 3850.34 3847.31
3830.99 3825.68 3828.31 3830.74 3821.05 3822.52 3822.87 3788.25 3737.51 3687.77
3652.19

2947.47 2946.2 2948.81 2951 2950.99 2952 2952.54 2952 2956.04 2956
2954.62 2956.95 2958 2961 2962 2963.27 2965.56 2964 2966.12 2966.67
2968.07 2968.69 2970.99 2970 2974 2974.45 2974 2975 2976.1 2977
2980.08 2981 2980.87 2981.01 2983.05 2983.01 2986 2985.14 2989.32 2990.99
2992 2991.96 2995.16 2995.16 2995.18 2997.03 2997.12 2999.01 3001 3004.01
3004.09 3005.85 3006.04 3008 3009.97 3012.12 3015 3018 3021 3023.94
3025.55 3027.16 3030.04 3032.7 3036 3040.53 3040.99 3047.75 3049 3050
3052.36 3056.26 3058.16 3062.05 3063.86 3067.11 3066.37 3069.62 3072.78 3075.89
3077.02 3079 3079.37 3082.68 3085.99 3086.86 3091.53 3094.16 3096.12 3100.56
3102.43 3106.24 3109.38 3114 3119.63 3124.99 3128.83 3132.75 3135.19 3136.43
3142.55 3148.09 3152.25 3152.97 3156.73 3159.99 3161.3 3166.65 3163.51 3168.85
3169.93 3170.76 3171.97 3171.65 3171.67 3171.9 3170.26 3173.45 3171.67 3172.81
3165.34 3155.52 3152.63 3153.6 3156.04 3177.75 3201.66 3281.53 3356.72 3417.15
3500.17 3539.18 3583.05 3610.15 3651.55 3672.74 3673.43 3682.15 3691.06 3695.68
3700.31 3718.2 3732.42 3751.7 3788.11 3857.98 3923.37 3968.29 4015.76 4065.73
4110.55 4121.61 4115.73 4139.67 4161.26 4165.79 4167.47 4193.3 4224.72 4237.31
4272.45 4292.67 4289.29 4248.52 4219.07 4188.41 4172.59 4174.73 4198.95 4254.69
4315.01 4385.26 4420.79 4400.3 4347.52 4310.71 4261.55 4198.56 4139.26 4091.91
4044.28 4044.62 4082.83 4119.28 4126.94 4122.65 4147.06 4198.75 4221.42 4213.8
4163.16 4117.95 4076.05 4042.36 3998 3933.81 3886.74 3820.74 3768.95 3689.36
3653.25 3652.23 3699.68 3764.81 3816.03 3857.96 3899.96 3939.1 3964.29 3991.09
4037.31 4068.84 4084.01 4071.55 4001.74 3957.2 3900.92 3942.83 4005.74 4038.8
4027.15 3980.55 3972.74 3963.13 3951.73 3967.53 4017.41 4059.1 4086.77 4133.61
4183.36 4248.04 4261.07 4264.22 4257.85 4248.25 4230.21 4206.39 4188.01 4155.18
4137.35 4118.96 4127.8 4144.86 4168.16 4227.95 4308.02 4348.65 4326 4261.77
4239.92 4259.3 4254.65 4249.01 4247.1 4276.36 4329.08 4381.19 4379.6 4332.45
4308.71 4331.56 4365.75 4369.05 4358.8 4337.51 4336.76 4338.38 4372.98 4398.66
4379.73 4315.2 4291.49 4276.48 4247.38 4218.53 4207.03 4162.69 4132.64 4100.25
4035.9 3983.59 3947.6 3927.44 3926.95 3916.96 3911.76 3910.66 3907 3921.58
3882.65 3883.83 3896.74 3901.57 3901.92 3885.09 3880.22 3831.83 3775.46 3713.06
3673.37

2950.32 2949.57 2951.72 2952.14 2951.94 2953 2952.06 2955.1 2957.09 2957
2956 2958.38 2961 2963.5 2965.02 2963.41 2966 2968.25 2969.65 2969.31
2969.56 2970.68 2970.86 2975 2974.19 2975.53 2975.5 2978.09 2976.91 2980.46
2981 2982.86 2983.56 2984.53 2986.05 2986.41 2988 2990 2991 2992.95
2992.86 2995.01 2998.03 2997.88 2997.07 2999.69 3000.03 3002.06 3003.03 3004.11
3007.1 3008.95 3009.64 3010.29 3013.73 3015.59 3016.91 3018.35 3021.74 3025.01
3028 3029 3033.66 3035 3039.22 3043.8 3043.41 3049.17 3050.48 3051
3054.11 3058 3059.07 3063.04 3067.5 3070.02 3071.77 3074.92 3076.43 3079.14
3081.7 3083.89 3085.66 3088 3090.13 3091.01 3098.17 3098 3101.14 3105.18
3108.04 3110.59 3114.77 3119.96 3124.03 3129.49 3131.98 3137.12 3143.83 3146.96
3150.59 3154.86 3158.53 3163.23 3165.33 3169.91 3173.11 3173.33 3173.44 3177.47
3179 3177.1 3178.46 3177.54 3175.2 3176.1 3176.3 3175.06 3179.69 3176.65
3174.14 3164.83 3153.07 3155.25 3163.29 3180.73 3201.03 3295.22 3367.16 3452.21
3512.33 3582.95 3632.16 3667.38 3688.39 3703.72 3698.74 3705.68 3724.31 3737.47
3765.53 3770.06 3774.22 3812.6 3819.97 3850.6 3904.13 3958.15 4020.33 4083.12
4104.34 4098.56 4070.46 4076.04 4097.07 4093.19 4102.43 4117.57 4154.58 4195.32
4274.88 4336.64 4347.97 4308.97 4269.89 4226.11 4189.96 4185.56 4202.32 4252.18
4290.81 4354 4406.69 4400.75 4353.93 4299.23 4233.29 4177.93 4125.41 4085.94
4074.54 4082.37 4119.73 4147.06 4160.49 4174.61 4204.96 4231.54 4231.28 4214.14
4169.43 4112.29 4059.37 4018.83 3982.3 3917.68 3876.21 3820.37 3768.02 3701.73
3670.54 3670.04 3695.93 3757.78 3815.95 3860.35 3899.51 3942.48 3970.99 3993.2
4038.57 4079.46 4104.66 4090.01 4046.73 4030.82 3971.38 3951.71 4010.63 4052.7
4044.38 4025.81 4019.79 4016.89 3986.78 3986.91 4001.92 4038.82 4083.5 4127.99
4165.5 4191.97 4219.76 4263.17 4291.18 4310.02 4296.69 4271.74 4231.3 4195.95
4176.75 4158.66 4155.21 4169.89 4191.04 4246.61 4313.79 4368.68 4370.1 4306.25
4281.75 4285.31 4274.01 4267.91 4268.86 4309.01 4376.35 4424.59 4429.04 4383.42
4346.98 4364.73 4380.23 4381.33 4372.88 4359.26 4366.67 4389.59 4412.14 4416.34
4392.85 4355.38 4335.07 4293.72 4249.38 4206.42 4183.96 4157.12 4141.82 4106.08
4038.38 3990.75 3976.94 3982.78 3977.06 3968.59 3970.87 3969.34 3973.26 3981.73
3938.12 3950.9 3963.49 3971.38 3965.63 3950.66 3905.27 3847.45 3785.03 3729.34
3697

2951.96 2951.65 2952.83 2954 2952.04 2951.85 2955 2956.97 2958.85 2960.23
2960.15 2964.58 2964.84 2965.15 2967 2966.53 2967.07 2969.79 2970 2972.03
2973.48 2972.69 2975 2975.65 2977.79 2979 2980.57 2981 2980.99 2982.55
2983.92 2987.73 2986.01 2988.27 2989.33 2988.81 2988 2990.97 2992 2995
2996 2998.83 3001.03 3002 3001.49 3001.41 3005.82 3004 3005.98 3006.11
3011 3011.03 3012 3014.97 3018.94 3018.04 3020.13 3021.5 3026 3027.66
3029.86 3033.26 3035 3037.12 3040.7 3043.83 3046.22 3050.07 3052.7 3055.6
3059.12 3063.87 3065.12 3068.71 3070.29 3074 3077.14 3077.55 3081.73 3082.23
3086 3088.2 3090 3090.03 3091.98 3096.1 3100.49 3101.59 3105.76 3108.9
3112.87 3117.9 3121.01 3125.06 3128.85 3133.02 3137.45 3145.02 3151.48 3153.6
3157.24 3161.31 3167.03 3171.22 3174.75 3177.83 3181.23 3183.32 3182.96 3184.07
3184.93 3184.99 3186.04 3187.31 3184.5 3183.4 3185.36 3184.39 3184.41 3184.8
3184.8 3169.85 3157.93 3157.09 3165.86 3184.66 3214.85 3286.13 3371.01 3448.99
3506.18 3584.27 3648.02 3691.31 3717.61 3731.77 3730.14 3742.04 3757.45 3773.58
3782.22 3776.51 3777.46 3810.91 3821.98 3862.5 3912.88 3977.84 4026.76 4063.81
4055.46 4037.55 4019.3 4030.51 4047.62 4062.83 4083.33 4097.9 4135.26 4210.49
4281.56 4367.87 4384.59 4363.23 4315.27 4274.58 4222.12 4197.47 4195.47 4211.41
4246.48 4316.37 4382.34 4384.11 4324.34 4274.42 4232.57 4176.39 4126.59 4115.28
4117.31 4119.25 4139.55 4166.65 4191.57 4224.2 4244.58 4261.5 4228.11 4183.76
4140.12 4103.08 4061.42 4006.92 3970.31 3928.09 3862.5 3812.97 3762.81 3709.66
3700.02 3710.95 3708.41 3725.74 3766.87 3818.6 3860.08 3904.17 3932.48 3963.96
4010.33 4058.3 4098.48 4117.56 4096.94 4071.75 4013.21 3974.51 4010.12 4053.58
4092.48 4087.36 4066.89 4059.35 4031.99 4025.03 4020.45 4052.4 4088.18 4117.08
4141.31 4158.23 4182.27 4225.79 4288.46 4326.73 4347.12 4323.8 4278.29 4251.28
4231.15 4210.83 4199.31 4206.96 4218.08 4280.19 4344.28 4391.33 4391.87 4351.39
4329.83 4313.41 4300.95 4291.22 4312.83 4353.41 4402.03 4472.85 4478.15 4436.04
4398.78 4411.62 4406.82 4414.23 4411.94 4412.76 4437.19 4454.76 4453.45 4411.17
4381.74 4358.98 4352.9 4311.36 4250.5 4208.3 4170.13 4141.24 4119.84 4093.09
4031.81 4012.32 4029.34 4042.71 4045.45 4034.48 4041.14 4038.07 4040.4 4044.9
4001.52 4024.09 4028.05 4019 3982.19 3941 3884.13 3828.36 3775.7 3734.37
3703.11

2954.27 2953.44 2956 2956.06 2957 2956.39 2957.02 2961.72 2961.81 2963.17
2964 2964.92 2965.15 2968.03 2968.13 2968.38 2970.68 2972.69 2975 2976.58
2978.93 2976.67 2975.3 2978.01 2980 2981.67 2983 2983.94 2985 2985.56
2986.89 2988 2990 2990 2991 2991.07 2992.91 2993.96 2996 2996
2999.09 3000.95 3002.1 3002.56 3004.07 3006.49 3008 3008 3009.04 3008.27
3011 3013.23 3014.02 3017.05 3018.4 3020.89 3022 3024.04 3027.08 3028.1
3030.98 3034.16 3037.67 3042.01 3043.46 3045.08 3048.51 3050.46 3056.53 3058.78
3062.47 3066.99 3069 3072.93 3076.87 3078 3079.57 3081.03 3086.06 3088
3090.25 3090.52 3094 3096.09 3098.01 3100.97 3104.85 3108.1 3112.45 3115.22
3119.6 3120.6 3127.04 3131.1 3137.61 3141.55 3146.72 3152.02 3154.48 3160.49
3164.13 3167.89 3174.08 3178.22 3185.73 3186.89 3191.09 3194.47 3195.07 3195.55
3196.99 3198.08 3195.45 3195.49 3194.9 3197.93 3195.85 3194.56 3194.9 3189.59
3189.07 3188.78 3170.5 3163.84 3160.81 3186.39 3214.29 3283.02 3358.11 3433.39
3494.27 3571.65 3643.61 3689.85 3735.21 3749.75 3756.72 3759.48 3766.59 3765.46
3767.64 3738.21 3735.98 3752.3 3780.43 3835.36 3897.79 3970.82 3997.65 4009.4
4002.78 3982.02 4004.99 4024.16 4047.82 4065.86 4085.65 4117.98 4169.07 4233.06
4305 4369.97 4389.07 4374.12 4366.82 4317.22 4277.22 4236.43 4219.2 4234.82
4262.64 4310.46 4368.13 4364.43 4309.31 4245.15 4216.33 4178.59 4142.38 4144.24
4146.98 4151.05 4187.69 4205.55 4224.35 4256.62 4262.71 4264.47 4220.35 4158.87
4097.86 4048.21 4004.81 3982.26 3975.04 3933.4 3864.41 3808.66 3763.23 3714.57
3743.28 3783.75 3783.54 3749.34 3733.9 3785.53 3821.82 3856.66 3882.72 3935.56
3969.12 4024.46 4083.07 4145.95 4142.82 4094.1 4043.71 4020.16 3993.06 4047.28
4099.06 4126.29 4125.81 4097.7 4071.26 4064.45 4071.71 4072.53 4091.78 4131.05
4161.75 4174.88 4190.19 4202.91 4254.71 4317.66 4368.55 4373.39 4341.29 4312.99
4293.79 4260.35 4238.32 4244.85 4259.02 4311.63 4373.97 4415.43 4397.05 4358.37
4347.36 4338.01 4329.76 4332.61 4372.08 4380.67 4430.19 4506.67 4517.3 4497.96
4463.03 4446.46 4447 4475.64 4486.07 4496.86 4517.37 4513.03 4483.99 4429.07
4390.83 4340.04 4334.68 4304.91 4248.32 4203.33 4169.24 4131.49 4103.49 4078.15
4057.44 4067.66 4094.07 4108.28 4111.66 4106.19 4112.67 4113.17 4111.16 4099.59
4077.86 4075.68 4060.82 4018.99 3974.1 3908.51 3858.17 3797.01 3757.24 3753.08
3727.14

2957 2955.54 2957.1 2959 2958 2958.52 2960.06 2962 2962 2966.95
2965.85 2967.43 2969 2968.13 2969.01 2971.01 2973.66 2975.48 2977.06 2976.01
2978 2981.48 2981 2980.24 2982.27 2985.29 2985.22 2987.88 2988.99 2989
2989 2989.85 2989.97 2992.17 2994.99 2997 2995.78 2996.5 2998.83 3003.93
3001.43 3001.84 3004.47 3006.12 3008.07 3008 3011 3010.18 3010 3013.69
3014.11 3015.09 3018 3019 3020.53 3023.71 3026 3029.61 3031.42 3033.55
3036.58 3038.46 3038.81 3045.34 3047.86 3050.02 3051.52 3056.11 3060.57 3063
3066.15 3069.45 3074.47 3075.7 3077.13 3082.02 3084.33 3087.03 3088.88 3092.68
3093.85 3094.82 3099.68 3099.85 3102.97 3102.78 3106.56 3111.13 3115.04 3120.3
3125.41 3127.91 3132.03 3139.06 3142.4 3146.58 3153.7 3158.71 3162.98 3164.33
3172.92 3177.16 3186.88 3186.82 3192.77 3198.12 3203.01 3204.38 3205.18 3207.36
3208.42 3208.4 3205.59 3204.21 3206.6 3206.77 3206.37 3206 3202.42 3202.55
3198.65 3200.29 3200.44 3185.5 3177.92 3173.81 3211.86 3286.16 3363.49 3436.16
3499.24 3559.54 3606.57 3653.77 3712.08 3725.51 3758.44 3762.37 3755.22 3720.78
3704.63 3681.6 3677.39 3709.67 3764.47 3827.79 3895.45 3949.93 3946.86 3945.06
3934.43 3954.85 3985.87 4000.13 4034.02 4059.81 4092.89 4154.21 4211.13 4277.13
4314.4 4339.94 4339.99 4369.39 4377.75 4347.96 4328.61 4293.29 4275.25 4294.72
4321.75 4369.01 4390.23 4374.55 4303.75 4240.44 4192.7 4181.73 4158.53 4161.59
4174.41 4191.19 4225.17 4247.13 4281.33 4285.62 4278.67 4243.05 4210.74 4168.85
4114.74 4053.94 3998.87 3944.69 3891.02 3888.33 3846.05 3796.12 3746.88 3735.68
3793.16 3834.96 3848.01 3818.29 3785.55 3765.17 3786.54 3830.88 3877.49 3929.46
3977.59 4030.01 4073.21 4149.39 4154.93 4114.91 4101.47 4070.78 4041.07 4034.2
4090.87 4139.83 4158.68 4138.11 4108.52 4094.5 4108.41 4113.28 4114.45 4129.03
4162.84 4177.63 4192.81 4205.47 4234.13 4303.63 4385.15 4417.47 4392.79 4368.88
4346.55 4296.88 4274.76 4287.92 4305.13 4337.54 4403.53 4438.75 4412.79 4366.21
4369.51 4373.48 4388.02 4397.9 4421.27 4415.77 4472.31 4538.24 4550.85 4516.72
4480.78 4446.43 4457.05 4494.66 4529.37 4541.14 4560.07 4555.51 4485.38 4430.02
4408.33 4357.67 4334.31 4303.38 4251.91 4204.33 4168.08 4139.57 4132.38 4121.04
4124.6 4129.78 4161.81 4187.64 4188.81 4198.01 4206.67 4195.61 4179.18 4166.62
4135.9 4101.39 4058.41 4008.23 3957.69 3896.62 3836.19 3799.28 3811.1 3799.66
3793.83

2956.35 2959.02 2959.91 2959.86 2960 2961.97 2964.93 2963.12 2964.78 2968.44
2969 2968.31 2969.9 2972.35 2973.22 2973.63 2977.24 2977.91 2979.97 2978.17
2979.94 2982 2981.19 2984 2985.01 2987 2987.84 2987.86 2992 2991.28
2991.06 2993.75 2995.08 2996 2996.4 2996.92 2999.04 3001.68 2999.58 3002.95
3004.39 3005.83 3006.94 3010.15 3011.52 3011.34 3011.83 3013 3015.31 3015.93
3018.73 3017.83 3019 3021.01 3022.86 3026.44 3026.05 3028.56 3034 3035
3038 3042.17 3042.29 3045.93 3052.19 3054.88 3056.39 3060.99 3063.09 3068.73
3069.15 3076 3077.34 3079.63 3083.95 3088 3090.36 3091.54 3092.9 3095.13
3100.02 3101.44 3105 3105.31 3105.98 3111.09 3112.49 3117.92 3121.96 3126.25
3131.33 3135.08 3138.94 3145.07 3150.95 3156.31 3160.71 3165.6 3171.22 3175.02
3180.58 3184.67 3192.5 3197.58 3199.38 3207.6 3214.11 3216.19 3221.93 3221.7
3222.8 3222.72 3221.82 3216.23 3219.76 3220.94 3219.33 3218.8 3217.09 3209.95
3212.14 3223.61 3224.54 3221.84 3213.36 3187.66 3204.65 3269.35 3349.67 3409.04
3462.73 3508.21 3565.82 3632.58 3675.61 3674.61 3708.28 3748.66 3744.49 3696.07
3658.64 3634.5 3661.01 3719.39 3777.6 3838.14 3895.74 3909.03 3883.34 3880.79
3896 3931.39 3969.81 3985.03 4029.76 4049.56 4110.44 4174.37 4238.5 4295.77
4302.55 4277.88 4273.24 4317.1 4343.74 4343.13 4342.21 4349.21 4345.42 4359.01
4371.13 4381.2 4395.37 4376.67 4323.86 4280.31 4220.42 4205.22 4188.49 4181.06
4191.27 4200.15 4232.29 4278.09 4318.31 4310.5 4279.66 4246.39 4211.56 4181.93
4145.48 4085.46 4025.13 3973.12 3928.49 3854.8 3806.14 3781.76 3736.74 3787.52
3823.93 3868.69 3900.5 3879.07 3847.05 3819.7 3790.99 3825.57 3875.68 3933.56
3988.02 4053.9 4106.41 4163.72 4178.25 4175.9 4159.02 4125.66 4079.56 4058.4
4085.63 4132.76 4161.43 4162.92 4141.89 4126.78 4145.61 4150.58 4155.34 4150.19
4160.45 4192.52 4204.37 4217.94 4239.83 4310.56 4389.8 4438.43 4438.81 4393.95
4378.51 4342.22 4311.42 4323.2 4333.29 4339.78 4394.84 4447.51 4441.75 4399.13
4380.77 4389.83 4427.1 4464.43 4479.03 4479.66 4494.19 4550.85 4550.12 4524.03
4487.88 4441.9 4424.64 4469.25 4503.6 4525.04 4558.36 4553.72 4507.86 4455.32
4407.93 4349.46 4306.46 4282.49 4246.51 4206.74 4182.33 4171.59 4170.92 4177.24
4188.08 4200.06 4221.02 4250.4 4257.35 4246.63 4236.83 4232.48 4223.63 4204.57
4149.63 4098.64 4040.85 3987.62 3931.56 3866.17 3823.45 3837.94 3845.19 3843.29
3845.31

2960 2960.5 2961.06 2964 2962.6 2964 2965.99 2964.5 2967.36 2969.2
2969.01 2972.26 2972.89 2973.15 2975 2975.41 2980.16 2981 2982.12 2983.01
2986.47 2986.47 2985.07 2987 2986.04 2988.06 2989.85 2990.07 2993.99 2994
2995.73 2996.99 2997 2997.07 3000.62 3000.86 3002.02 3004 3004.02 3005.08
3006.76 3010 3010.16 3010.28 3013.01 3014.68 3016.1 3016.26 3017.42 3016.61
3019.95 3021.92 3023.55 3023.84 3028.06 3027.56 3030 3033.06 3035.48 3038.7
3040.07 3043.15 3045 3050.97 3052.96 3057.9 3061.98 3064.04 3069.28 3072.71
3074.62 3076.83 3081.16 3083.08 3085.93 3091.46 3093.35 3097.56 3099.89 3101.44
3106.25 3106.51 3110.6 3111.07 3111.14 3115.02 3116.49 3121.71 3126.84 3134.64
3137.24 3139.6 3146.94 3153.57 3162.27 3162.47 3166.46 3173.42 3181.18 3180.82
3188.84 3194.78 3202.22 3210.54 3212.69 3222.25 3225.91 3228.23 3232.61 3235.85
3234.97 3234.76 3235.31 3236.06 3237.33 3232.67 3234.2 3232.05 3228.94 3224.71
3227.45 3243.29 3250.31 3248.05 3232.62 3217.05 3198.21 3254.09 3306.18 3366.41
3419.09 3489.02 3551.9 3607.13 3629.04 3624.76 3654.07 3698.11 3703.75 3668.71
3623.15 3610.51 3659.78 3706.38 3774.1 3821.88 3855.62 3866.56 3845.97 3849.35
3881.56 3902.56 3936.58 4000.9 4037.57 4080.17 4125.01 4192.99 4247.92 4275.71
4251.72 4208.97 4214.81 4252.69 4277.99 4294.21 4338.27 4383.36 4387.86 4377.32
4370.6 4361.36 4354.67 4336.93 4318.76 4289.01 4266.65 4240.2 4234.54 4216.77
4199.35 4205.55 4245.57 4291.68 4326.31 4314.79 4271.13 4234.02 4196.43 4170.74
4150.51 4097.35 4057.47 4017.07 3951.02 3900.68 3846.79 3785.51 3756.87 3827.35
3868.42 3911.93 3953.44 3941.7 3906.19 3872.58 3835.31 3812.11 3851.74 3910.18
3966.48 4037.53 4104.56 4164.24 4195.49 4220.77 4218.3 4171.98 4127.11 4109.99
4101.59 4125.95 4167.09 4183.94 4167.34 4156.54 4177.3 4197.42 4217.21 4195.2
4185.81 4208.38 4227 4235.39 4263.4 4310.78 4384.27 4450.63 4468.19 4430.48
4421.46 4387.36 4361.72 4343.25 4333.84 4354.33 4413.35 4458.25 4485.29 4461.8
4427.04 4404.78 4463.05 4537.64 4545.91 4535.57 4509.32 4499.17 4507.44 4508.98
4459.65 4402.53 4391.31 4397.86 4424.41 4452.24 4467.17 4487.32 4502.39 4467.2
4409.92 4352.34 4303.7 4272.2 4248.68 4226.23 4215.68 4208.37 4210.44 4221.19
4262.01 4269.48 4295.31 4300.74 4300.74 4264.42 4229.5 4226.08 4217.27 4197.49
4141.5 4081.02 4035.48 3981.53 3916.68 3851.03 3875.97 3864.14 3873.06 3894.84
3892.02

2961.69 2962.75 2963.29 2964.12 2968 2967.49 2968.4 2969.14 2968.53 2970.31
2973 2972.59 2975.11 2975.89 2977.2 2980.04 2982.68 2984.91 2986.12 2986.01
2987.06 2987.75 2988.13 2990.5 2992.13 2994.52 2993.8 2995 2994.1 2996.59
2998.08 2999.11 3000.21 3001 3003.03 3005.59 3005.66 3005.11 3005.25 3006.66
3009.59 3010.96 3014.6 3014.2 3014.99 3017 3017.51 3020 3020.01 3022.56
3022 3023.08 3025.41 3027.05 3029.07 3031.12 3035.11 3036 3037.45 3041.08
3042.09 3046 3048.22 3054.56 3055.33 3059.64 3062.61 3067.88 3072.31 3075.31
3078.99 3080.12 3084 3087.21 3091.14 3094.3 3098.43 3101.06 3103.82 3108.16
3112 3111.5 3113.68 3117.91 3117.87 3122.23 3125.1 3129 3132.94 3137.43
3140.59 3148 3154.17 3161.29 3166.02 3170.73 3175.89 3183.12 3189.24 3192.01
3194.17 3199.8 3206.96 3221.34 3227.69 3232.36 3241.24 3241.21 3245.15 3247.17
3244.66 3246.22 3247.22 3249.66 3252.09 3248.09 3251.43 3248.87 3248.37 3247.49
3253.62 3281.69 3288.83 3278.87 3262.12 3240.82 3196.52 3240.84 3277.34 3342.19
3410.69 3490.19 3548.37 3583.87 3581.13 3558.55 3604.27 3640.59 3645.8 3633.22
3599.06 3583.47 3630.52 3684.06 3731.74 3775.46 3813.45 3809.38 3803.32 3821.8
3850.69 3903.15 3965.44 4027.53 4082.91 4107.04 4136.77 4184.72 4240.87 4255.47
4212.33 4160.94 4168.68 4198.73 4233.38 4272.38 4325.62 4372.26 4377.21 4348.29
4308.62 4294.77 4280.1 4268.87 4252.04 4263.26 4267.02 4260.59 4269.85 4265.84
4248.27 4235 4276.21 4320.09 4340.97 4316.92 4280.99 4244.92 4192.7 4144.14
4114.02 4083.92 4066.74 4021.72 3976.02 3919.52 3852.49 3806.09 3783.35 3846.37
3895.14 3946.36 3992.78 3989.92 3967.45 3924.9 3884.1 3849.26 3841.86 3896.98
3953.3 4001.09 4071.13 4127.97 4182.77 4222.23 4227.28 4206.29 4172.84 4151.57
4139.13 4145.77 4183.53 4214.76 4200.45 4182.34 4197.75 4219.18 4271.72 4264.74
4237.86 4235.85 4250.67 4254.94 4283.02 4322.97 4399.47 4465.47 4511.92 4507.37
4482.4 4485.36 4417.68 4398.07 4375.7 4401.12 4456.35 4506.45 4550.79 4528.34
4491.82 4467.44 4494.6 4557.65 4588.58 4570.86 4510.64 4484.83 4479.59 4469.88
4429.88 4382.45 4349.17 4345.13 4358.41 4368.21 4394.5 4429.47 4463.86 4460.02
4418.75 4367.75 4320.87 4289.33 4272.74 4252.05 4250.66 4245.42 4246.96 4276.18
4320.64 4329.39 4323.94 4308.71 4293.15 4269 4225.75 4180.58 4164.77 4157.5
4124.62 4074.84 4014.61 3961.5 3916.43 3866.27 3901.42 3903.75 3912.8 3938.76
3948.41

2963 2963.36 2965 2966.89 2969 2969.36 2970.03 2971.7 2972 2973.93
2975.38 2975 2977 2979.05 2980.19 2982.95 2984.92 2986.78 2987.43 2989.01
2991 2991.63 2991.82 2990.83 2992.2 2995 2996.69 2997.88 3000 2997.15
3004 3002.64 3002.14 3004.02 3004.7 3006 3008 3008.46 3009.13 3010.5
3011.54 3013.17 3017.17 3017.23 3017.64 3019.76 3022.87 3023 3022.63 3024.93
3027.13 3030 3030.2 3031.49 3032.91 3034 3037.65 3038.79 3042.25 3046.73
3046.34 3048.58 3051.42 3056.36 3058.42 3063.25 3066.06 3069.97 3074 3078.07
3081.15 3086.38 3089.46 3093.62 3095.95 3100.93 3105.34 3107.48 3110.54 3114
3117.26 3119.93 3120.2 3122.99 3124.51 3127.31 3134.2 3134.31 3141.1 3144.36
3148.6 3154.7 3160.83 3163.26 3174.24 3179.48 3187.56 3190.36 3200.27 3206.37
3208.46 3208.5 3219.08 3228.86 3240.74 3251.04 3254.13 3256.33 3257.09 3259.53
3260.12 3261.18 3260.58 3260.04 3260.42 3263.03 3264.93 3267.26 3265.41 3273.07
3284.44 3312.38 3313.38 3314.09 3300.79 3278.17 3207.55 3237.04 3262.97 3321.62
3398.72 3460.7 3515.04 3520.97 3520.68 3506.55 3536.87 3588.18 3588.06 3569.3
3552.65 3559.49 3604.32 3650.03 3687.61 3724.92 3752.6 3765.25 3772.69 3799.35
3854.16 3922.34 3986.08 4045.38 4101.89 4140.1 4178.93 4221.68 4253.98 4245.7
4191.17 4142.83 4153.8 4194.64 4224.32 4260.42 4291.82 4314.71 4310.53 4299.12
4253.92 4230.87 4218.26 4195.79 4181.46 4187.34 4233.5 4251.58 4293.48 4319.2
4320.27 4301.5 4325.79 4356.15 4346.2 4312.94 4273.54 4231.02 4162.18 4119.74
4072.6 4051.98 4020.14 3994.8 3963.84 3908.66 3855.73 3826.03 3803.33 3847.95
3893.48 3943.09 3996.58 4021.75 4018.73 3982.85 3935.25 3896.38 3887.35 3882.94
3929.66 3981.04 4031.75 4087.66 4131.5 4177.86 4222.07 4231.61 4191.99 4184.7
4173.94 4173.59 4207.4 4244.67 4235.55 4211.45 4221.02 4232.67 4287 4310.4
4292.75 4269.52 4272.09 4277.2 4301 4349.84 4404.58 4475.02 4540.27 4559.31
4558.22 4524.57 4486.84 4450.75 4432.91 4462.61 4507.24 4550.83 4601.65 4587.68
4578.82 4533.2 4503.9 4538.22 4577.97 4573.25 4488.82 4452.05 4458.58 4458.43
4418.06 4348.41 4323.99 4305.67 4314 4324.14 4326.06 4351.11 4399.6 4429.6
4424.24 4397.32 4366.09 4318.86 4304.94 4297.5 4299.94 4298.08 4307.64 4335.4
4367.57 4361.42 4325.02 4300.73 4276.06 4261.29 4223.24 4183.58 4145.38 4125.22
4118.07 4085.05 4043.4 3980.98 3923.8 3901.63 3944.7 3942.67 3951.45 3967.01
3998.75

2966.02 2965 2967.1 2969.04 2969.04 2970.98 2973.18 2974.79 2975 2974.89
2979.43 2978.84 2979.66 2982.05 2982.26 2984.48 2984.33 2988 2989 2990.01
2994.16 2995 2997.7 2996.79 2995.29 2996.03 2998.09 3001 3003.13 3002.43
3005.08 3005.11 3007 3007.42 3008.43 3008.25 3010.97 3011.08 3011.49 3014
3017 3016.39 3019.1 3019.98 3020.53 3023 3026 3024.92 3028.93 3028.46
3028.1 3031.08 3032.81 3034.47 3035.57 3037.9 3040.03 3041.66 3045.15 3046.09
3050.25 3053.2 3056.32 3061.13 3063.17 3067.75 3070.03 3073 3077.54 3080.85
3084.89 3090.66 3096.08 3098.42 3100.03 3104.5 3108.83 3113.31 3117.11 3117.13
3121.55 3125.17 3126.08 3127.89 3132.15 3133.19 3138.54 3142.08 3147.84 3151.16
3155.4 3159.48 3167.9 3174.59 3180.61 3185.4 3195.36 3204.86 3211.29 3215.52
3219.31 3225.41 3229.33 3240 3249.96 3261.7 3267.25 3271.13 3271.09 3274.86
3275.72 3271.39 3274.82 3272.57 3272.43 3279.63 3286.66 3287.75 3293.08 3304.17
3328.39 3345.02 3349.41 3349.66 3339.43 3311.1 3251.19 3206.04 3247 3309.74
3360.48 3434.1 3454.04 3455.98 3459.76 3449.08 3497.07 3527.08 3517.45 3507.39
3524.2 3558.58 3590.4 3615.18 3643.54 3675.11 3704.84 3722.02 3745.35 3804.17
3879.72 3932.72 3986.44 4051.04 4114.16 4174.68 4223.37 4265.92 4277.23 4248.51
4174.98 4124.94 4150 4200.32 4226.64 4230.86 4227.18 4249.35 4264.86 4251.17
4216.83 4182.91 4154.25 4130.63 4116.19 4125.04 4158.45 4216.9 4287.42 4331.91
4365.85 4382.89 4388.16 4386.41 4335.93 4282.75 4234.06 4194.4 4156.57 4124.27
4086.8 4045.62 4009.35 3975.31 3944.34 3911.32 3891.6 3875.63 3843.53 3836.96
3866.15 3923.51 3978.51 4030.35 4048.88 4036.73 3981.03 3930.91 3921.96 3891.47
3928.63 3979.1 4004.64 4046.59 4084.34 4135.93 4201.46 4224.73 4221.03 4215.28
4206.66 4219.71 4246.8 4269.6 4273.96 4235.06 4239.27 4241.76 4278.93 4336.09
4346.27 4329.29 4310.06 4315.71 4343.75 4390.39 4447.05 4498.55 4549.47 4605.63
4614.56 4602.93 4542.66 4490.61 4508.04 4533.29 4577.52 4613.26 4658.84 4665.9
4636.97 4554.33 4497.25 4508.12 4531.36 4535.89 4477.56 4439.5 4422.33 4422.94
4376.81 4333.45 4316.39 4300.85 4285.95 4290.03 4296.92 4304.08 4337.58 4374.29
4407.21 4413.9 4402.65 4372.59 4367.92 4369.78 4379.47 4370.35 4379.63 4400.86
4389.34 4360.81 4312.17 4270 4257.75 4238.86 4200.06 4166.33 4121.09 4079.59
4084.15 4077.66 4042.08 3984.51 3928.04 3947.11 3971.89 3974.64 3973.9 3988.71
4034.41

2968.64 2969.64 2971 2971 2973.09 2974.04 2976.07 2976.11 2977.95 2979.88
2981.96 2982 2982.11 2984.14 2986.24 2988 2988.48 2990 2991.13 2993.69
2995.9 2996.73 2997.13 2997.01 2999 3000.36 3000.42 3002.01 3006 3006.97
3008 3010.2 3011 3011.18 3010.26 3010.08 3013.9 3015.06 3013.55 3016.51
3018.61 3019.92 3022.17 3024.17 3024.7 3027 3027.53 3028.17 3029.55 3031.83
3032.47 3035.42 3034.59 3040 3039.6 3041.12 3043 3045.06 3045.27 3048.14
3056.06 3057.76 3060.94 3063 3066.91 3068.96 3072.23 3075.03 3078.4 3085.51
3089.48 3094.73 3096.57 3102.81 3106.39 3110.33 3113.65 3116.75 3121.07 3122.91
3126.34 3130.45 3133.67 3135.88 3138.17 3141.27 3143.42 3148.13 3155.46 3157.77
3164.03 3165.42 3173.69 3182.35 3189.41 3194.59 3205.26 3211.56 3219.79 3226.96
3234.81 3242.47 3244.72 3245.49 3253.66 3269.53 3282.07 3287.15 3287.86 3289.98
3291.31 3289.64 3286.28 3282.11 3286.69 3296.2 3307.87 3315.94 3320.83 3339.49
3379.49 3388.07 3388.16 3380.79 3372.65 3344.38 3289.93 3225.73 3212.08 3268.66
3319.6 3383.41 3389.43 3387.83 3395.25 3407.4 3459.88 3470.45 3464.13 3482.13
3524.47 3551.63 3576.24 3605.2 3637.93 3662.22 3694.08 3729.93 3757.49 3799.73
3879.03 3915.72 3975.35 4027.89 4100.4 4178.85 4241.76 4280.97 4278.74 4228.73
4153.23 4115.57 4130.59 4177.49 4181.62 4168.25 4159.18 4188.68 4230.29 4240.63
4193.51 4154.63 4132.07 4113.36 4094.82 4086.8 4121.06 4186.61 4244.5 4307.96
4371.09 4402.67 4401.78 4390.55 4352.14 4297.69 4264.48 4227.75 4215.06 4177.12
4131.97 4089.31 4050.84 4016.94 3981.77 3951.9 3927.09 3896.16 3874.95 3891.94
3894.61 3888.32 3966.79 4034.61 4083.21 4079.31 4020.59 3981.07 3955.23 3926.79
3967.93 3979.24 3989.51 4030.76 4067.22 4121.61 4182.94 4228.69 4234.85 4235.83
4241.93 4265.72 4290.63 4294.13 4314.33 4284.26 4272.97 4261.91 4316.17 4362.78
4400.03 4394.47 4368.62 4367.91 4395.14 4439.13 4491.93 4541.81 4580.59 4639.66
4653.97 4651.09 4601.68 4560.18 4581.15 4609.24 4613.91 4641.69 4677.2 4687.7
4667.15 4580.31 4503.59 4475.01 4487.58 4498.44 4453.45 4416.7 4386.58 4377.92
4347.94 4324.42 4314.77 4303.56 4296.2 4260.28 4257.36 4258.69 4279.77 4313.14
4360.75 4406.02 4418.41 4431.73 4428.98 4432.62 4440.99 4445.62 4439.48 4440.21
4397.31 4354.77 4303.63 4255.87 4228.55 4212.81 4179.33 4134.52 4104.75 4075.14
4052.42 4034.53 4012.24 3965.72 3967 3976.62 3998.76 4003.17 4000.63 4015.44
4056.08

2971.64 2973.77 2971.01 2972.39 2973.93 2976 2978.28 2980.59 2979.23 2983.01
2982.27 2982.01 2984.99 2986.02 2988.95 2991 2990.61 2992 2993.01 2996.16
2998.43 2998.57 3000.02 2999.99 3001.15 3004.31 3005.9 3005.47 3008 3008
3011.61 3011.43 3014.86 3014.99 3012.31 3014.59 3016.7 3019.61 3019.17 3020.35
3022.65 3024.82 3024.91 3026.19 3028.45 3030.62 3029.86 3031.01 3035.25 3035.58
3037 3037.84 3038 3041 3041.62 3045.77 3045.86 3047.03 3053.94 3052.46
3056.76 3060 3062.91 3065.58 3070.57 3073.43 3078.61 3082.14 3086.96 3089.86
3093.93 3096.29 3103.57 3108.64 3112.95 3115 3120.03 3124.01 3128.91 3129.94
3132.21 3135.83 3138.69 3140.9 3143.51 3146.33 3153 3155.57 3162.37 3166.36
3170.75 3172.83 3181.07 3189.17 3196.44 3200.69 3212.33 3223.11 3230.28 3241.05
3253.55 3261.92 3259.84 3255.99 3271.08 3292.16 3297.51 3303.62 3302.18 3304.58
3307.91 3306.15 3303.04 3299.29 3301.2 3311.96 3332.93 3351.08 3363.29 3379.45
3422.49 3440.39 3431.97 3425.73 3409.95 3365.75 3306.4 3240.21 3203.95 3246.37
3284.01 3322.74 3324.01 3320.72 3356.74 3382.01 3413.87 3436.45 3483.84 3507.12
3534.13 3590.62 3636.18 3655.14 3679.2 3710.04 3741.18 3776.35 3821.35 3858.29
3886.79 3915.1 3964.07 4035.99 4097.41 4171.64 4241.65 4281.94 4280.1 4235.48
4162.61 4110.43 4091.97 4099.57 4100.46 4102.42 4112.65 4135.78 4176.09 4210.75
4217.45 4170.87 4128.16 4104.81 4090.27 4081.96 4099.24 4143.42 4204.34 4265.67
4319.69 4365.36 4375.65 4376.8 4362.85 4341.59 4309.27 4286.47 4269.95 4227.94
4182.96 4145.5 4117.6 4086.09 4029.86 3998.85 3945.29 3891.23 3929.79 3952.88
3965.53 3942.84 3943.09 4015.2 4078.32 4093.89 4077.08 4028.28 3983.62 3973.01
4029.37 4046.25 4032.38 4039.57 4071.47 4122.84 4170.9 4226.09 4251.86 4248.46
4268.39 4305.87 4318.85 4331.87 4359.35 4332.23 4299.43 4302.81 4351.03 4398.47
4449.04 4452.9 4450.63 4440.04 4453.72 4490.26 4533.97 4555.7 4584.35 4625.58
4647.98 4643.95 4622.9 4588.92 4597.94 4608.41 4602.96 4620.96 4643.91 4674.27
4675.64 4637.82 4517.97 4463.94 4455.15 4447.02 4426.36 4374.78 4364.42 4366.93
4355.49 4342.4 4316.63 4300.19 4292.49 4263.97 4235.62 4233.22 4245.27 4256.26
4305.6 4365.32 4415.97 4442.5 4430.11 4425.66 4444.53 4458.96 4460.63 4464.14
4411.16 4356.52 4311.06 4267.12 4215.04 4188.98 4175.35 4128.54 4103 4075.75
4047.67 4024.49 4003.06 3976.79 4026.57 4034.26 4019.38 4021.46 4017.97 4036
4072.61

2974.06 2975 2973.14 2976.13 2976.01 2977.38 2981.58 2983 2983.78 2984.14
2984.96 2985.64 2985.57 2989.13 2988.65 2993 2994.62 2995.86 2995.13 2997.11
2999 3001.24 3003.3 3004 3005.17 3008 3008 3009.09 3008.73 3011.96
3015.97 3014.1 3015.97 3017.51 3017.99 3017.09 3019.73 3020.49 3022.03 3023.02
3025.05 3025.92 3027.26 3029 3031 3032.77 3032.22 3037.02 3037 3039
3038 3039.86 3041.18 3041 3044.71 3049.09 3048.07 3051.69 3054.61 3058
3058.4 3062.06 3067 3069.35 3072.34 3075.36 3080.99 3085.55 3087.94 3093.06
3098.18 3099.29 3106.96 3110.74 3117.59 3121.82 3126.98 3130.53 3132.66 3138.03
3141.1 3142.46 3146.08 3147.78 3149.58 3153.92 3158.49 3163.98 3169.96 3170.35
3177.51 3182.28 3188.03 3193.2 3202.46 3213.03 3218.69 3231.95 3247.27 3257.56
3267.36 3271.86 3280.5 3277.24 3284.43 3311.33 3323.77 3318.44 3318.6 3323.16
3323.56 3324.22 3319.47 3321.11 3323.8 3351.73 3366.1 3383.82 3403.72 3422.32
3464.92 3490.62 3476.49 3472.3 3438.18 3385.94 3327.14 3266.43 3211.64 3222.18
3254.71 3263.04 3293.96 3338.74 3384.56 3415.74 3445.07 3495.42 3504.49 3507.83
3548.06 3602.77 3668.83 3701.8 3730.03 3761.62 3804.71 3827.8 3872.55 3918.69
3952.77 3979.71 4005.71 4051.7 4111.13 4169.02 4242.06 4286.94 4292.26 4247.09
4184.51 4121.99 4081.76 4056.82 4055.5 4049.33 4065.1 4090.12 4141.51 4205.13
4221.22 4172.67 4121.65 4067.37 4064.97 4073.08 4083.13 4122.98 4167.76 4210.66
4266.67 4301.26 4305.74 4330.07 4343.71 4364.53 4363.63 4340.19 4310.97 4272.39
4236.88 4194.59 4162.32 4123.17 4075.4 4005.38 3943.31 3934.62 3974.42 3999.85
4019.01 3994.19 3951.67 4010.63 4070.6 4125.64 4130 4085.35 4029.68 4003.7
4059.41 4104.33 4086.2 4076.2 4100.7 4143.68 4195.3 4215.86 4253.13 4274.34
4284.87 4315.19 4328.49 4365.01 4396.26 4367.73 4328.89 4358.19 4399.18 4443.66
4501.33 4530.91 4529.63 4513.16 4523.63 4560.53 4563.45 4551.2 4555.79 4580.13
4591.61 4596.76 4597.68 4583.93 4580.87 4577.41 4557.37 4550.18 4565.24 4596.5
4633.03 4640.75 4564.4 4482.39 4436.06 4414.36 4374.22 4386.28 4386.05 4379.33
4365.3 4349.74 4312.72 4302.6 4285.84 4268.04 4243.02 4224.23 4216.9 4228.15
4268.64 4321.24 4385.03 4415.94 4387.91 4358.15 4380.17 4415.4 4450.8 4455.42
4447.27 4383.55 4327.14 4266.86 4211.42 4162.77 4155.59 4123.7 4096.41 4095.9
4071.3 4055.78 4059.68 4073.72 4080.26 4076.72 4058.77 4032.52 4036.01 4052.16
4078.29

2975.03 2975.02 2977.1 2978.6 2978.8 2982.22 2982.96 2984.1 2986 2988
2988.39 2988.21 2990.83 2992.68 2993.01 2995.15 2996.29 2997.96 2999.03 3002.37
3004.4 3004.11 3007.77 3007.02 3008.99 3010 3009.54 3011.01 3013.79 3013.09
3016 3017 3020 3022.24 3021.04 3022.19 3026.74 3024.89 3023.02 3025.22
3027.47 3029.89 3031.99 3032.35 3035.49 3036 3035.08 3039.15 3038.65 3039.63
3042.4 3043.13 3044.99 3045.47 3048.44 3051 3052.15 3055.1 3056 3061.75
3062.94 3063.99 3069.46 3071.29 3076.1 3080.01 3084.2 3089.02 3091.54 3096.13
3102.13 3105.88 3111.32 3116.55 3121.01 3126.69 3130.28 3134.9 3140.78 3142.69
3145.49 3147.74 3153.68 3154.11 3156.02 3159.41 3162.08 3169.74 3175.8 3179.17
3184.94 3188.4 3199.48 3209.3 3215.56 3218.46 3228.27 3236.05 3253.78 3265.11
3281.27 3291.74 3301.91 3297.71 3301.48 3332.44 3354.1 3348.99 3335.31 3345.44
3347.31 3347.6 3352.46 3353.75 3372.36 3395.65 3400.55 3419.62 3452.4 3481.34
3500.71 3531.43 3525.19 3494.29 3446.93 3390.85 3333.36 3298.57 3229.47 3212.75
3226.78 3239.77 3277.69 3311.57 3364.23 3419.98 3489.55 3513.82 3501.8 3479.38
3547.54 3582.75 3667.59 3710.49 3756.82 3786.39 3822.66 3853.97 3902.65 3959.8
4007.4 4037.82 4063.74 4101.96 4136.93 4188.32 4256.42 4304.94 4312.67 4280.43
4218.81 4143.66 4082.77 4043.54 4028.41 4022.41 4016.03 4060.37 4121.4 4191.9
4194.3 4156.33 4090.44 4040.91 4044.69 4064.53 4072.57 4093.31 4125.34 4163.39
4207.29 4229.11 4239.07 4268.29 4318.56 4373.36 4382.57 4355 4314.34 4282.31
4245.48 4204.47 4168.42 4127.33 4075.3 3998.81 3948.91 3976.38 4015.27 4054.01
4073.28 4048.16 3997.08 4000.49 4071.57 4133.96 4156.74 4120.23 4061.23 4017.75
4061.32 4117.15 4131.96 4115.55 4125.39 4151.2 4195.92 4230.9 4234.51 4287.72
4325.9 4348.04 4370.15 4409.29 4435.26 4414.83 4386.79 4423.08 4463.81 4501.1
4555.48 4576.51 4583.34 4570.8 4582.14 4594.11 4567.62 4519.02 4518.5 4526.87
4537.34 4548.66 4557.99 4551.76 4538.12 4532.65 4485.88 4486.02 4497.86 4511.64
4543.27 4590.67 4563.19 4501.02 4446.75 4409.59 4385.54 4394 4390.54 4383.48
4365.55 4348.82 4324.98 4303.71 4284.43 4254.16 4244.07 4241.28 4218.98 4215.13
4227.38 4278.39 4322.69 4374.37 4368.08 4335.15 4328.31 4364.49 4415.27 4454.62
4459.39 4396.6 4326.55 4272.95 4222.83 4194.84 4180.49 4136.14 4158.65 4167.23
4148.93 4119.2 4138.22 4143.71 4138.42 4115.16 4085.9 4060.88 4054.79 4073.7
4104.38

2976.7 2977.35 2978.4 2981 2983.18 2984.17 2986 2986.54 2988.86 2990.01
2991.97 2991 2993 2995.13 2997.98 2998.06 2999.81 3000 3003 3003.21
3006.01 3007.86 3008.64 3010.6 3011 3012.41 3014.35 3015.74 3015.42 3017.41
3020 3019.37 3022.94 3024 3024.46 3025.54 3027 3029.1 3028.81 3029.95
3031.02 3032 3033.99 3037.87 3037.53 3038.91 3040 3043 3042.28 3044
3043.73 3046.93 3048.01 3048.95 3051.2 3054.05 3055.43 3057.16 3060.43 3065
3064.77 3065.92 3072.31 3074.37 3078.95 3085.15 3088.97 3091.44 3098.06 3102.33
3107.06 3110.68 3116.37 3122.66 3126.36 3132.61 3136.6 3141.58 3145.19 3150.1
3153.23 3158.39 3160.65 3161.88 3166.11 3166.2 3174 3177.5 3179.58 3188.87
3192.27 3197.85 3206.59 3216.27 3223.25 3227.77 3234.96 3243.75 3256.29 3271.73
3290.37 3299.75 3316.04 3325.52 3326.17 3361.76 3387.52 3383.34 3358.16 3360.48
3363.21 3381.37 3400.99 3404.37 3418.02 3430.52 3431.38 3470.61 3494.91 3527.87
3550.15 3558.45 3541.32 3496.66 3449.32 3372.64 3372.27 3349.79 3279.77 3227.41
3205.23 3202.31 3207.56 3260.31 3333.76 3401.67 3454.96 3501.05 3473.12 3441.73
3498.96 3556.56 3608.2 3670.87 3703.29 3751.92 3796.19 3841.93 3893.77 3960.2
4012.34 4059.44 4104.6 4150.73 4187.87 4231.86 4265.78 4308.54 4318.55 4293.51
4242.38 4168.82 4089.66 4043.92 3987.43 3979.21 4000.01 4037.76 4114.63 4179.48
4186.91 4146.38 4081.41 4031.85 4024.81 4030.7 4047.39 4056.61 4083.91 4121.42
4163.18 4181.04 4195.28 4234.41 4286.8 4363.01 4383.81 4377.3 4304.14 4266.52
4221.01 4181.47 4134.46 4107.96 4051.72 3992.61 3984.99 4027.66 4054.88 4090.67
4120.61 4100.37 4062.59 4012.43 4064.88 4128.6 4180.75 4178.31 4109.44 4071
4065.56 4108.47 4165.1 4172.69 4164.8 4163.5 4183.77 4245.7 4260.08 4292.53
4360.03 4405.61 4430.27 4462.65 4476.69 4469.94 4447.07 4465.17 4489.14 4512.21
4554.68 4566.59 4580.2 4569.66 4595.09 4605.99 4573.06 4508.31 4494.55 4494.7
4493.71 4509.14 4520.68 4509.45 4504.1 4481.64 4445.75 4448.28 4450.94 4440.8
4454.35 4501.39 4505.5 4498.48 4463.87 4427.39 4398.3 4396.94 4388.32 4368.63
4352.19 4341.62 4324.45 4300.46 4276.55 4239.76 4246 4242.3 4221.74 4209.68
4210.2 4225.03 4256.71 4307.28 4324.51 4296.91 4294.47 4314.69 4374.75 4437.47
4453.93 4396.44 4329.2 4289.2 4266.49 4254.4 4228.6 4181.93 4205.07 4238.66
4208.13 4185.28 4207.82 4211.44 4183.36 4146.28 4111.33 4087.48 4078.06 4097.76
4129.51

2980.99 2981.5 2983.97 2986.23 2986.98 2987 2986.6 2990.12 2990.44 2992.01
2994.05 2995.91 2995.92 2995.04 3001.07 3003 3002.6 3004 3006.16 3008
3008.99 3009.03 3010.44 3014 3016.03 3016.18 3018.99 3017.81 3019.15 3021.04
3023.07 3023.09 3024 3026.99 3030 3031.08 3029.98 3031 3033.02 3033.39
3033.96 3035.11 3037.46 3039.03 3039.04 3042.09 3043.89 3045 3046.77 3047.08
3048.73 3050.01 3051.27 3052.35 3056 3058.68 3058.16 3060.31 3065.65 3066.81
3070.37 3073.98 3075 3078.24 3084.68 3087.99 3089.55 3096.7 3102.58 3107.07
3110.34 3116.27 3119.01 3128.97 3129.93 3137.1 3144.37 3146.58 3151.07 3156.63
3161.23 3162.91 3168.49 3169.9 3174.55 3173.62 3179.48 3185.03 3192 3198.76
3203.67 3207.6 3214.01 3224.08 3231.6 3238.44 3241.41 3252.02 3263.05 3277.18
3302.94 3317.58 3326.19 3351.9 3360.59 3392.05 3423.38 3417.47 3394.07 3388.54
3384.01 3416.78 3462.11 3461.16 3459.26 3486.12 3481.16 3500.04 3546.32 3590.08
3599.77 3581.93 3537.88 3489.96 3426.57 3440.28 3449.52 3409.23 3345.93 3292.16
3250.61 3239.07 3230.4 3223.68 3297.2 3346.23 3416.21 3447.09 3412.94 3407.19
3452.45 3528.33 3585.55 3611.64 3645.6 3697.76 3753.05 3811.17 3866.87 3936.27
3993.01 4040.79 4098.27 4149.63 4197.09 4232.34 4250.12 4267.84 4285.8 4277.93
4242.86 4172.24 4082.99 4003.62 3956.95 3951.44 3975.68 4023.88 4097.79 4173.04
4172.04 4133.97 4065.83 4024.89 4007.03 4005.06 4024.47 4031.69 4054.39 4079.37
4119.82 4139.37 4163.2 4216.54 4266.62 4313.65 4371.61 4373.84 4328.98 4267.86
4220.39 4181.36 4136.87 4091.32 4040.98 3999.14 4026.55 4073.97 4115.93 4149.22
4175.04 4160.2 4118.21 4060.1 4063.27 4124.21 4183.64 4198.27 4169.57 4131.88
4109.86 4113.83 4168.74 4213.31 4207.4 4199.12 4214.31 4267.07 4293.09 4322.78
4387.12 4455.86 4476.06 4473.56 4476.01 4465.51 4454.95 4468.12 4470.28 4470.91
4465.44 4499.87 4538.81 4545.01 4560.19 4601.64 4596.06 4506.34 4473.35 4474.35
4481.58 4487.61 4484.76 4480.27 4471.52 4430.92 4408.49 4395.34 4375.04 4387.48
4390.15 4411.24 4417.91 4431.99 4438.64 4430.95 4427.07 4412.99 4380.25 4359.99
4337.65 4317.73 4316.38 4301.04 4274.53 4238.7 4236.87 4237.34 4223.2 4197.26
4192.84 4198.51 4213.1 4244.56 4270.4 4257.38 4272.01 4302.37 4359.58 4421.78
4432.45 4410.33 4372.6 4348.81 4327.2 4320.52 4272.59 4216.97 4251.77 4283.73
4262.74 4254.42 4278.98 4276.51 4223.78 4174.55 4133.82 4122.67 4113.51 4119.77
4151.68

2982.53 2983.98 2984.76 2987.12 2990 2991.24 2989.44 2991.8 2993.13 2993.62
2996.03 2997.58 2999.8 3001.9 3003.44 3004.39 3003.67 3005.88 3007.99 3010
3010.99 3013.71 3016.11 3017.16 3018.99 3019.61 3023.03 3023.09 3023.3 3023.94
3026.07 3025.15 3027.04 3028.49 3030.4 3033.91 3034.46 3035 3034.24 3037.97
3035.07 3039.28 3040.96 3043.01 3044.04 3046.77 3047.86 3048.23 3049.87 3050.07
3051.62 3053.12 3057.24 3059 3058.38 3060.89 3066 3068.28 3070 3070.07
3072.32 3076.4 3078.35 3082.31 3087.76 3091.88 3095.07 3099.04 3106.14 3110.87
3116.87 3118.24 3124.48 3129.09 3137.08 3143.76 3148.95 3154.52 3158.81 3164.92
3170.2 3171.01 3179.2 3178.75 3182.09 3183 3185.47 3193.81 3202.01 3206.17
3211.12 3219.13 3223.8 3233.1 3245.04 3247.74 3250.15 3260.08 3269.22 3287.48
3325.36 3353.71 3354.87 3356.43 3389.12 3431.82 3453.39 3447.32 3430.79 3440.51
3401.12 3425.57 3484.46 3512.33 3508.17 3539.29 3541.08 3543.09 3600.97 3627.15
3625.96 3589.84 3540.22 3490.3 3500.09 3505.08 3495.31 3445.39 3398.99 3346.48
3296.02 3267.02 3251.87 3220.14 3249.82 3305.68 3361.18 3382.52 3374.97 3379.75
3455.02 3535.55 3543.87 3548.54 3598.29 3667.53 3729.9 3778.07 3832.52 3889.46
3953.41 4006 4055.03 4124.38 4161.58 4168.74 4176.89 4192.85 4219.56 4241.23
4232.9 4148.05 4065.07 4001.46 3947.92 3930.58 3954.07 3997.08 4079.49 4129.69
4134.23 4102.34 4051.11 4003.35 3985.73 3984.77 4013.35 4025.28 4043.15 4058.29
4091.79 4115.77 4139.81 4188.93 4220.93 4277.07 4354.59 4373.68 4349.44 4312.37
4265.38 4213.31 4164.91 4123.13 4073.55 4032.58 4063.18 4122.04 4167.68 4202.01
4228.94 4227.03 4175.35 4106.41 4076.42 4121.31 4180.37 4211.79 4208.13 4185.56
4150.9 4136.15 4167.08 4218.47 4245.92 4239.62 4244.11 4296.84 4319.1 4357.57
4419.11 4459.06 4475.37 4455.42 4423.65 4409.65 4404.14 4439.04 4431.62 4416.9
4411.31 4450.59 4497.35 4512.06 4535.81 4592.02 4599.26 4535.81 4466.52 4459.2
4458.11 4460.42 4457.44 4440.57 4412.25 4383.34 4364.5 4348.77 4327.84 4327.24
4325.08 4327.48 4340.56 4358.81 4373.76 4410.72 4429.72 4428.38 4411.9 4378.58
4348.38 4324.62 4312.58 4284.24 4253.29 4238.08 4222.02 4212.23 4211.12 4191.46
4170.13 4179.82 4192.48 4211.64 4223.52 4233.24 4287.32 4330.21 4377.42 4411.64
4437.44 4445.94 4435.43 4430.77 4401.16 4365.09 4297.52 4262.11 4289.67 4337.58
4324.37 4332.61 4342.44 4325.85 4267.79 4209.39 4159.73 4148.01 4141.07 4152.03
4180.31

2984.01 2987.4 2987.99 2989.81 2992.67 2992 2992.01 2995 2995.86 2997.62
3000 3001.41 3003.65 3004.89 3003.98 3006.4 3009.01 3010.57 3014 3014.92
3012.74 3016.63 3017 3018.91 3021.31 3023.5 3024.67 3027.85 3026.99 3027.23
3028.5 3029 3029.98 3035 3036 3035.02 3037.02 3037.89 3039.46 3042
3041.5 3040.96 3042.98 3046.28 3046 3051.65 3051.82 3054 3052 3054.63
3058.81 3059.94 3060 3060.93 3063 3062 3068.1 3068.98 3071.94 3076.45
3077.94 3081 3082 3088.01 3088.44 3092.96 3098 3102.89 3108.23 3112.74
3118.15 3122.89 3129.28 3135.09 3142.8 3148.42 3153.72 3161.21 3166.29 3172.01
3173.63 3181.16 3186.3 3190.73 3190.09 3194.27 3193.49 3198.59 3203.88 3209.17
3219.69 3230.93 3233.05 3241.7 3251.22 3260.18 3265.15 3272.94 3281.57 3299.91
3338.17 3379.57 3375.68 3370.88 3395.26 3448.72 3482.09 3477.14 3467.69 3469.03
3425.59 3440.38 3483.23 3534.3 3568.61 3594.41 3591.48 3595.61 3639.81 3673.4
3657.4 3615.93 3548.41 3560.69 3563.63 3571.9 3546.6 3492.16 3447.44 3383.97
3330.51 3296.34 3276.06 3235.73 3221.67 3263.23 3302.4 3331.82 3332.98 3372.68
3445.36 3481.28 3491.37 3526.19 3602.86 3664.76 3702.65 3740.93 3792.14 3840.9
3903.37 3964.19 4031.91 4098.55 4119.41 4114.08 4112.06 4133.29 4173.14 4218.59
4209.58 4133.04 4073.86 4009.16 3941.76 3912.61 3933.21 3981.15 4050.39 4092.18
4074.01 4035.73 4003.08 3969.31 3968.95 3978.6 4012.24 4044.37 4066.38 4077.43
4098.91 4122.92 4146.22 4161.1 4185.2 4255.66 4327.89 4356.12 4352.82 4345.47
4310.2 4252.08 4205.6 4174.36 4113.64 4076.15 4071.6 4127.62 4179.42 4214.54
4268.55 4260.82 4200.71 4144.1 4117.9 4144.31 4178.49 4229.01 4248.1 4232.82
4199.88 4169.6 4176.11 4213.01 4254.62 4269.19 4279.04 4335.56 4373.65 4400.26
4439.45 4462.46 4440.27 4409.96 4378.38 4360.06 4339.77 4350.85 4370.97 4377.25
4351.14 4392.9 4453.13 4477.89 4494.29 4557.97 4588.81 4558.03 4472.74 4444.96
4445.2 4440.43 4429.02 4419.55 4384.98 4336.34 4313.12 4308.32 4307.52 4300.05
4279.8 4273.7 4276.63 4286.91 4302.19 4345.22 4399.51 4424.36 4419.37 4419.45
4392.67 4338.78 4301.53 4277.71 4256.55 4237.49 4222.23 4191.26 4183.71 4163.7
4141.75 4149.52 4155.55 4181.62 4216.36 4264 4311.09 4345.99 4371.16 4384.56
4407.74 4435.3 4459.25 4477.93 4445.64 4387.27 4338.02 4318.86 4346.76 4380.03
4395.49 4400.69 4367.5 4329.4 4264.27 4203.46 4180.91 4156.33 4160.09 4167.91
4197.71

2986.98 2988 2989.08 2993 2994 2995.02 2995.99 2997.98 3000.13 3002
3002 3001.68 3005.01 3006.98 3009.02 3010 3011.64 3014.09 3016 3016.21
3017.78 3019.53 3021.73 3022.65 3025.03 3027.04 3028.05 3028 3030.44 3031.03
3031.75 3033.05 3036.77 3037.21 3038 3038.14 3042.11 3042.09 3043 3044.4
3042.53 3046 3049.57 3049.04 3049.57 3052 3056.29 3058 3057.01 3058.67
3060.88 3064 3062.55 3065 3067 3069.97 3071.93 3072.03 3075.06 3079
3080.98 3083.88 3085.74 3089.57 3090.49 3097.67 3101.57 3105.86 3110.98 3114.4
3122.06 3127.51 3133.34 3140.71 3145.21 3153.46 3160.07 3165.11 3172.14 3179.02
3184.16 3190.35 3194.56 3197.92 3198.99 3203.03 3201.6 3204.87 3214.92 3219.78
3227.04 3237.71 3247.37 3254.87 3262.76 3268.75 3279.01 3285.12 3295.43 3314.63
3357.9 3397.11 3397.63 3392.99 3394.07 3448.71 3489.5 3512.63 3510.25 3491.88
3441.28 3483.03 3493.96 3532.67 3583.92 3637.72 3639.08 3644.62 3694.29 3716.44
3688.3 3634.31 3617.16 3624.86 3621.88 3619.73 3576.93 3516.44 3448.58 3391.58
3364.84 3336.88 3302.96 3271.65 3230.79 3232.08 3251.92 3274.32 3307.88 3361.88
3410.89 3420.56 3460.6 3526.53 3580.56 3611.92 3661.37 3731.95 3790.77 3864.08
3933.86 3995.56 4040.85 4080.69 4083.74 4054.64 4048.66 4077.37 4131.05 4178.9
4181.5 4128.22 4066.7 3989 3917.14 3890.91 3904.66 3962.09 4037.41 4038.36
4008.19 3970.41 3944.11 3934.48 3946.6 3985.72 4027.56 4084.77 4108.04 4123.57
4142.78 4159.89 4174.39 4195.11 4231.16 4275.46 4330.09 4337.19 4322.98 4333.45
4320.61 4288.75 4257.04 4211.77 4151.74 4122.7 4104.48 4137.42 4190.32 4229.74
4285.24 4294.23 4229.51 4181.69 4169.11 4168.9 4191.21 4231.77 4279.84 4281.57
4246.63 4216.44 4207.51 4228.51 4274.23 4289.27 4303 4368.21 4423.65 4437.84
4438.73 4440.39 4420.4 4386.35 4371.73 4346.04 4320.84 4298.84 4305.22 4316.83
4332.9 4347.49 4422.54 4443.94 4451.38 4504.36 4574.02 4556.19 4503.69 4446.93
4431.91 4417.07 4417.26 4403.82 4359.87 4306.62 4296.39 4287.19 4282.71 4270.38
4251.29 4238.64 4221.83 4234.67 4254.83 4281.26 4328.89 4366.07 4400.07 4421.57
4416.11 4381.56 4328.69 4294.83 4265.77 4242.73 4216.07 4190.13 4162.92 4144.07
4115.49 4124.3 4128.23 4175.34 4231.36 4300.71 4314.94 4341.37 4328.54 4327.39
4342.1 4394.4 4448.75 4481.71 4488.95 4453.81 4407 4388.33 4411.01 4420.79
4404.07 4400.08 4337.97 4282.98 4235.18 4211.06 4191.95 4174.35 4178.23 4188.25
4211.46

2990.23 2990.55 2990.92 2995.66 2996 2998.31 2999.19 3002.77 3004.07 3004.98
3006.39 3006.52 3006.69 3009 3011.98 3013.45 3015.58 3017.86 3016.01 3020.62
3020.39 3021.71 3023.99 3027.26 3027.26 3029.99 3031.68 3031.13 3035 3034
3035.05 3037.68 3039.73 3040.97 3041 3043.57 3043.01 3048 3047.15 3047.04
3046.71 3047.46 3051.91 3050 3055.35 3054.91 3058.68 3059.67 3060.1 3061.6
3065.11 3066.75 3066.22 3068.44 3069.02 3071.93 3074.15 3073.92 3080.05 3084.26
3085.8 3086.09 3087.8 3092.56 3098.43 3099.4 3105.2 3108.34 3113.34 3119.84
3124.94 3128.99 3135.25 3143 3146.91 3157.16 3164.93 3170.06 3179.64 3186.16
3192.79 3197.51 3204.53 3207.87 3207.95 3211.29 3214.37 3217.37 3220.22 3230.55
3234.6 3249.26 3258.65 3266.31 3275.23 3276.21 3283.34 3299.94 3312.14 3330.91
3373.05 3406.96 3407.55 3406.26 3404.5 3437.06 3481.89 3514.28 3531.56 3490.24
3458.93 3506.98 3538.69 3530.71 3585.47 3649.25 3691.67 3709.2 3743.7 3760.7
3721.54 3675.41 3690.28 3690 3674.58 3642.18 3580.61 3506.47 3458.07 3442.83
3426.64 3374.24 3331.85 3309.74 3275.32 3219.18 3229.02 3248.26 3280.44 3330.95
3357.82 3395.01 3448.73 3480.66 3551.22 3619.99 3698 3747.64 3806.41 3869.53
3929.97 3992.88 4024.71 4042.71 4029.18 4001.4 3999.55 4029.08 4088.86 4158.89
4159.41 4104.85 4041.75 3978.13 3901.96 3855.94 3875.7 3937.89 3979.28 3970.9
3932.71 3906.59 3903.81 3904.76 3942.86 3991.9 4048.28 4118.52 4161.45 4188.35
4206.8 4221.38 4238.38 4254.03 4283.92 4296.03 4293.58 4274.35 4258 4274.47
4295.17 4296.21 4278.24 4246.97 4212.84 4181.14 4159.42 4162.94 4218.5 4253.69
4297.42 4300.59 4261.75 4238.45 4224.83 4198.21 4200.43 4241.49 4271.16 4302.16
4289.12 4262.9 4251.97 4278.05 4309.7 4309.41 4321.07 4384.77 4427.43 4437.42
4418.76 4392.62 4371.51 4338.6 4317.75 4315.56 4289.36 4286.06 4288.48 4273.51
4277.92 4348.12 4410.39 4428.62 4425.14 4496.69 4578.63 4582.88 4547.19 4476.05
4424.33 4411.95 4377.83 4358.73 4330.49 4314.15 4311.59 4304.44 4273.96 4252.71
4241.47 4229.55 4221.47 4220.9 4241.76 4257.36 4269.85 4306.4 4347.91 4384.17
4408.14 4403.48 4366.75 4323.67 4290.1 4267.13 4241.28 4204.87 4148.64 4116.85
4092.93 4099.35 4121.49 4168.76 4251.35 4300.23 4301.51 4280.81 4265.28 4275.61
4306.7 4352.55 4422.95 4478.86 4503.87 4511.56 4475.9 4470.29 4473.07 4429.37
4389.3 4339.14 4304.57 4270.23 4243.11 4224.91 4201.17 4188.48 4203.76 4207.15
4231.44

2993.99 2993 2994.92 2995.87 2998.09 2999 3002.82 3004.63 3006.94 3008.13
3009 3010.54 3012.95 3013.41 3015 3016.65 3018 3021.31 3020.4 3024
3023.98 3026 3026.91 3030.07 3033 3031.56 3032.91 3035.13 3038 3037.02
3039.34 3040.7 3041.54 3042.52 3044.4 3044.47 3046.1 3047.5 3050.27 3051.35
3049.62 3052 3053 3054.44 3059 3058.66 3060 3063.14 3064.36 3066.54
3068.6 3068.79 3071.24 3073.4 3073.62 3074.87 3077.45 3078.28 3083.5 3086.44
3091.13 3094 3094.31 3097.6 3104.81 3105.73 3110 3111.45 3115.63 3121.7
3127.81 3132.02 3138.65 3149.27 3152.61 3159.6 3167.87 3178.57 3180.65 3194.25
3197.43 3203.61 3212.1 3217.81 3223.02 3222.34 3223.75 3225.91 3228.88 3233.2
3247.96 3253.54 3268.32 3278.87 3290.66 3295.02 3309.99 3322.75 3343.48 3348.94
3374.72 3412.42 3424.39 3426.05 3424.73 3430.55 3465.62 3504.15 3526.3 3500.99
3479.01 3512.18 3561.78 3566.48 3600.94 3651.62 3733.07 3765.48 3798.53 3796.19
3762.03 3750.52 3754.52 3740.59 3695.66 3650.18 3577.53 3535.16 3528.77 3511.8
3457.16 3407.59 3388.64 3352.07 3308.95 3260.45 3225.94 3233.18 3262.05 3299.52
3340.32 3379.84 3440.52 3516.24 3573.85 3630.78 3695.75 3729.62 3769.51 3828.79
3889.19 3941.43 3986.22 3990.63 3973.93 3953.32 3972.38 4001.32 4064.79 4131.62
4137.79 4086.76 4012.55 3939.75 3873.84 3826.3 3845.81 3915.43 3932.61 3904.58
3875.22 3873.16 3868.27 3913.01 3963.72 4022.29 4074.56 4144.2 4195.86 4244.94
4273.98 4288.36 4307.26 4320.32 4325.15 4298.59 4259.91 4224.06 4192.94 4193.16
4234.38 4269.09 4277.46 4287.34 4279 4248.02 4218.09 4201.95 4249.99 4290.69
4290.86 4296.63 4311.2 4305.66 4272.02 4243.22 4222.4 4250.55 4274.21 4318.7
4340.26 4322.02 4302.43 4325.16 4337.49 4331.91 4348.62 4386.19 4403.9 4394.13
4366.1 4341.57 4318.86 4301.88 4280.17 4269.05 4256.06 4274.92 4266.88 4246.15
4298.06 4366.21 4395.29 4394.5 4390.89 4439.34 4543.94 4588.77 4605.36 4550.4
4463.26 4394.28 4359.23 4337.75 4330.53 4331.9 4318.24 4305.31 4278.53 4257.55
4241.28 4225.45 4220.43 4222.97 4239.17 4242.61 4235.12 4262.65 4290.66 4321.22
4376.52 4400.16 4368.63 4325.85 4290.58 4266.25 4245.62 4207 4146.67 4102.07
4066.23 4077.33 4107.75 4171.94 4240.03 4255.06 4235.25 4224.96 4255.45 4277.12
4292.07 4331.3 4382.93 4450.1 4506.86 4542.87 4554.69 4538.69 4503.23 4447.29
4379.17 4336.5 4297.38 4273.58 4258.03 4233.01 4217.41 4213.39 4233.13 4250.78
4249.35

2994 2993.02 2996.9 2996.87 3000.59 3001.71 3003.67 3006 3008.12 3010
3011.39 3011.22 3014.09 3015.21 3017.15 3020.06 3020.66 3022.88 3026.99 3026.04
3027 3028.68 3033.09 3033 3034.99 3038.62 3038.99 3039.77 3040.56 3042.85
3044.41 3045.82 3047 3048 3046.71 3048.53 3050 3050.92 3053.35 3054.49
3056.09 3055.55 3057.15 3058.97 3060.41 3062.53 3065.56 3068.1 3067.07 3070.47
3071.76 3073.05 3076.46 3077 3075.39 3077.02 3080.94 3082.02 3087.27 3090
3092.39 3096 3099.35 3103.54 3107.58 3109.84 3114.83 3118.25 3121.86 3126.4
3129 3136.13 3141.53 3149.96 3156.48 3161.78 3169.81 3181.35 3188.15 3196.01
3204.18 3212.54 3216.87 3226.74 3231.09 3232.26 3233.21 3237.09 3244.02 3242.44
3251.95 3264.51 3282.14 3297.91 3313.29 3327.89 3344.06 3370.22 3392.21 3388.38
3397.48 3408.91 3440.02 3455.01 3451.22 3447.42 3461.36 3495.55 3541.78 3551.23
3501.35 3520.89 3562.19 3599.4 3640.21 3680.54 3757.56 3819.59 3834.62 3831.08
3804.49 3808.26 3795.19 3767.98 3719.56 3658.09 3634.4 3621.83 3595.45 3555.06
3505.1 3465.16 3442.23 3383.14 3337.55 3291.37 3240.04 3217.79 3247.13 3281.75
3333.35 3398.25 3451.57 3515.89 3568.29 3594.89 3624.05 3688.4 3759.79 3821.47
3864.45 3891.97 3948.5 3944.47 3919.52 3923.1 3939.91 3996.01 4069.1 4119.93
4114.43 4071.4 4002.17 3925.22 3856.74 3811.94 3817.86 3858.77 3862.34 3838.25
3831.5 3840.91 3876.57 3933.34 3999.18 4055.86 4108.51 4170.18 4229.44 4293.04
4328.22 4342.88 4365.53 4368.48 4341 4287.59 4227.12 4189.51 4149.16 4140.33
4177.96 4204.7 4248.46 4288.37 4300.94 4291.07 4249.63 4252.21 4287.62 4297.91
4285.8 4282.39 4322.29 4334.91 4328.58 4287.94 4252.25 4268.48 4288.79 4331.91
4381.25 4383.66 4360.56 4370.96 4370.72 4369.43 4380.48 4385.65 4375.68 4354.72
4334.74 4313.94 4310.42 4289.73 4265.77 4236.59 4251.67 4271.69 4264.8 4265.94
4300.88 4352.25 4352.15 4346.02 4359.82 4408.95 4476.7 4567.71 4611.8 4588.22
4509.32 4440.34 4369.51 4330.87 4321.84 4326.75 4318.04 4298.47 4276.23 4265.88
4242 4226.52 4205.47 4216.65 4210.8 4209.7 4216.81 4235.86 4237.91 4268.42
4319.73 4365.21 4355.42 4306.2 4264.67 4221.79 4210.42 4180.42 4131.5 4090.73
4052.93 4074.39 4104.68 4150.84 4183.83 4186.34 4182 4203.81 4246.83 4266.31
4274.74 4311.9 4351.47 4407.31 4478.85 4529.02 4585.23 4592.62 4534.27 4474.28
4406.83 4343.98 4298.1 4284.44 4261.15 4243.18 4240.11 4237.39 4255.16 4261.93
4264.67

2996.18 2999.03 2999.62 3003.34 3003.44 3004 3006.06 3008.27 3011.13 3013.1
3017.21 3016.58 3018 3016.64 3018.21 3019.66 3024.57 3027 3028.15 3027.29
3032 3034.09 3035.95 3036.46 3036.25 3038.99 3041.75 3042.96 3042 3045.97
3047.5 3045.59 3049 3051.21 3052.42 3053.57 3055 3054.06 3054 3057.04
3059.09 3061 3063.13 3063.53 3065.42 3067 3070.94 3070.06 3071.99 3074
3074.02 3076.12 3079.07 3080.58 3082.58 3081.11 3086.01 3088.02 3090.37 3094.67
3095.93 3100.62 3104.22 3108.3 3109.42 3116.32 3119.62 3119.67 3125.93 3130.82
3134.05 3140.35 3146.22 3152.09 3162.94 3164.36 3172.23 3182.08 3187.49 3199.73
3207.95 3217.95 3226.17 3235.47 3240.67 3244.99 3246.94 3249.13 3252.44 3258.48
3261.88 3281.65 3298.35 3316.42 3323.82 3339.97 3369.62 3414.66 3436.3 3439.55
3424.07 3449.5 3458.44 3494.5 3488.55 3477.09 3473.44 3497.33 3549.05 3554.02
3527.14 3537.44 3566.59 3596.55 3657.61 3717.1 3770.8 3836.23 3866.21 3866.99
3854.64 3842.82 3826.62 3787.05 3754.32 3715.7 3698.31 3659.31 3633.58 3594.63
3563.09 3503.48 3470.66 3414.96 3349.54 3309.94 3254.82 3218.95 3233.66 3269.35
3324.89 3390.37 3439.62 3482.33 3506.58 3564.4 3618.61 3695.83 3749.42 3783.59
3816.98 3869.08 3912.02 3908.83 3871.35 3883.97 3911.23 3975.14 4028.09 4046.19
4044.89 4025.17 3978.92 3914.35 3847.12 3784.49 3766.29 3797.08 3799.04 3800.29
3805.26 3834.74 3889.59 3966.98 4031.32 4103.43 4150.4 4186.86 4246.33 4299.81
4336.41 4344.37 4376.69 4373.71 4341.38 4274.72 4215.45 4165.37 4130.19 4120.45
4128.23 4156.2 4206.58 4262.45 4306.82 4307.07 4289.31 4287.72 4288.78 4286.49
4236.55 4228.19 4292.3 4333.68 4340.59 4323.75 4305.76 4302.31 4315.92 4356.26
4418.85 4438.48 4424.93 4417.67 4418.6 4421.31 4421.52 4411.51 4388.92 4360.06
4320.71 4308.39 4305.24 4283.88 4251.98 4221.37 4228.19 4256.42 4272.7 4272.76
4297.23 4329.42 4322.88 4319.22 4344.71 4390.27 4481.34 4555.24 4613.18 4584.24
4533.86 4484.95 4427.79 4373.47 4334.6 4323.34 4325.49 4305.08 4278.77 4262.92
4246.06 4232.53 4217.27 4199.14 4194.73 4185.58 4184.32 4198.96 4208.42 4228.79
4288.15 4317.69 4307.95 4270.43 4231.36 4194.79 4159.53 4127.74 4102.54 4069.46
4031.17 4050.91 4076.44 4105.39 4134.39 4139.9 4160.58 4199.64 4237.86 4251.77
4267.38 4302.06 4325.85 4375.63 4432.31 4501.66 4579.55 4588.35 4563.53 4508.54
4453.61 4353.86 4310.43 4288.6 4281.87 4264.5 4268.85 4266.96 4264.61 4279.92
4292.42

2998.41 3000.14 3003 3003.36 3007.95 3006.25 3008.06 3012.04 3013.98 3016
3018 3018.07 3021.06 3023.82 3021.35 3023.63 3026.65 3028.28 3030.95 3032
3034.16 3038.55 3037.79 3039.09 3042.46 3042.23 3043.79 3048.75 3047.92 3049.3
3052.48 3052.49 3052.1 3053.01 3054.97 3058.06 3059.46 3057.12 3058.77 3060.13
3062.61 3064.37 3066.94 3068.11 3068.37 3070.24 3072.79 3074.29 3075.31 3077.52
3078.73 3081.81 3083.41 3084.05 3087.44 3088.09 3089.61 3092.02 3096.06 3098.01
3101 3104.13 3106.72 3111.09 3115.49 3119.32 3126 3127.1 3129.77 3133.85
3137.99 3145.2 3149.05 3159.52 3162.97 3168.86 3178.68 3185.62 3193.68 3200.88
3211 3220.59 3230.08 3240.79 3249.03 3257.15 3261.59 3263.95 3267.38 3273.16
3277.06 3299.51 3314.96 3343.08 3356.11 3349.35 3372.84 3418.12 3464.55 3472.79
3458.56 3494.4 3499.13 3534.26 3537.6 3525.06 3519.3 3510.66 3544.85 3581.4
3572.11 3558.99 3592.68 3629.87 3681.05 3733.64 3808.41 3857.14 3890.74 3885.7
3874.58 3853.26 3832.19 3795.35 3769.43 3726.36 3695.05 3657.89 3623.95 3595.61
3567.9 3510.52 3466.4 3404.1 3341.17 3326.3 3264.73 3231.25 3223 3248.59
3292.98 3354.95 3376.2 3432.2 3498.82 3564.94 3611.19 3663.25 3718.83 3721.85
3772.14 3836.98 3875.38 3853.85 3821.46 3825.58 3872.89 3945.54 3967.83 3975.21
3983.96 3966.07 3922.17 3877.03 3817.96 3761.72 3732.85 3748.05 3754.97 3765.98
3812.45 3862.57 3908.45 3962.79 4036.74 4101.92 4160.89 4201.83 4265.1 4283.6
4299.45 4311.08 4321.2 4346 4331.38 4261.24 4208.13 4149.74 4104.28 4099.94
4098.83 4131.39 4172.79 4236.65 4267.56 4285.31 4291.31 4291.2 4265.86 4234.77
4186.43 4198.01 4240.2 4274.44 4305.57 4321.75 4338.77 4355.6 4360.73 4396.07
4456.38 4496.95 4486.91 4481.11 4470.37 4459.02 4450.82 4420.14 4388.81 4339.71
4286.03 4274.86 4249.24 4227.76 4199.19 4192.85 4222.52 4256.74 4270.44 4274
4276.21 4294.48 4287.08 4286.43 4329.43 4389.03 4465.15 4535.08 4589.2 4565.66
4531.85 4498.01 4477.93 4440.72 4392.77 4350.46 4329.95 4312.29 4293.28 4272.45
4250.99 4235.42 4216.41 4197.52 4180.6 4158.4 4159.7 4148.39 4177.2 4198.49
4248.49 4275.73 4249.9 4213.17 4186.29 4148.98 4104.01 4072.94 4058.02 4027.52
4033.88 4056.19 4084.3 4098.65 4118.19 4152.18 4172.12 4203.06 4240.6 4268.4
4304.69 4318.82 4336.45 4360.14 4400.74 4462.33 4553.26 4560.63 4546.81 4505.63
4456.06 4378.56 4330.71 4312.72 4301.16 4297.76 4311.87 4320.59 4307.3 4317.46
4329.32

2999.04 3002 3005 3006.12 3009 3009.3 3011.02 3016.02 3017.85 3018.04
3020.21 3021.83 3024.56 3026 3026.74 3028 3029.65 3031.3 3034.99 3034.42
3038 3040.6 3039.44 3043 3046 3047 3046.02 3048.95 3051.7 3052.99
3054.33 3056.07 3057.01 3057.18 3059.04 3060 3061.1 3063.04 3062.58 3065.05
3066.19 3069.86 3068.99 3071.12 3073 3075.01 3078.13 3079.16 3081 3079.86
3083.89 3085.02 3089.01 3089.01 3089.99 3090.29 3095.97 3097.37 3100.19 3103.05
3107.07 3109.19 3113.43 3116.21 3122.75 3124.08 3127.18 3129.04 3134.92 3138.11
3143.91 3150.67 3156.6 3160.7 3165.95 3172.97 3182.49 3189.62 3195.42 3202.89
3214.34 3222.1 3232.76 3243.87 3256.48 3268.66 3279.44 3292.87 3295.27 3296.55
3309.54 3326.94 3342.76 3372.96 3395.95 3390.81 3374.54 3420.52 3466.86 3496.62
3502.54 3532.5 3549.57 3575.43 3582.03 3572.9 3567.9 3541.21 3546.61 3594.92
3597 3581.76 3613.59 3653.99 3709.54 3767.33 3813.01 3883.03 3903.43 3900.14
3886.79 3854.38 3825.51 3784.54 3734.09 3690.21 3641.63 3601.28 3558.21 3530.29
3501 3481.95 3435.7 3378.06 3383.15 3326.03 3283.77 3242.08 3229.84 3248.17
3279.69 3318.02 3361.16 3420.63 3476.49 3516.31 3577.71 3637.48 3643.36 3698.19
3757.37 3808 3829.29 3804.67 3772.75 3774.01 3837.77 3895.38 3907.54 3910.32
3911.62 3903.19 3868.83 3829.46 3788.94 3742.19 3704.95 3718.16 3739.2 3780.15
3844.61 3893.67 3941.6 3995.6 4043.38 4085.44 4147.87 4202.29 4253.28 4247.08
4239.97 4254.24 4270.45 4304.47 4311.38 4254.58 4206.12 4148.4 4090.08 4066.68
4073.15 4096.65 4155.13 4197.67 4208.67 4213.25 4244.7 4248.67 4213.33 4168.63
4136.93 4161 4191.64 4223.66 4249.61 4303.49 4342.66 4382.03 4412.28 4434.61
4481.28 4534.14 4542.96 4537.02 4515.81 4484.64 4462.86 4410.27 4356.66 4311.93
4262.66 4232.56 4202.46 4187.9 4173.34 4185.23 4218.61 4252.13 4258.58 4264.08
4267.31 4261.08 4241.79 4276.04 4336.71 4385.93 4458.56 4516.67 4522.4 4500.18
4462.81 4474.43 4478.88 4489.24 4460 4393.03 4345.73 4308.13 4291.95 4270.06
4249.5 4235.48 4216.86 4187.11 4178.73 4153.48 4136.56 4134.88 4131.13 4175.19
4215.64 4207.83 4185.63 4156.19 4119.93 4093.4 4066.92 4040.67 4018.69 4035.71
4061.92 4065.95 4089.13 4109.97 4135.94 4164.28 4189.55 4217.59 4248.8 4274.64
4315.48 4350.65 4362.3 4376.73 4382.46 4439.98 4508.13 4518.96 4492.19 4458.7
4419.45 4366.65 4356.2 4352.48 4335.88 4356.75 4382.74 4388.58 4351.83 4341.24
4340.98

3001.23 3002.43 3005.1 3008.71 3013.52 3012.07 3015.47 3018 3019.12 3020
3021.58 3025.62 3027.25 3030 3030.99 3031 3032.84 3033.84 3035.11 3040.19
3039.41 3042.1 3044.76 3047.57 3048 3049.99 3049.62 3053.12 3055.67 3057
3059.23 3059.5 3060.13 3063 3063.43 3064.1 3067.1 3065.93 3068.03 3069.41
3070.68 3072 3074.15 3073.89 3075.05 3076 3081.55 3083 3084.27 3085.74
3088.74 3090.78 3092.19 3092.39 3094.07 3094.96 3098.21 3101.38 3106.43 3106.85
3112.04 3113.27 3116.27 3121.03 3126.59 3129.52 3133.68 3137.36 3139.59 3146.42
3149.05 3156.84 3159.46 3162 3172.62 3177.38 3185.32 3193.33 3199.93 3210.09
3219.02 3226.06 3235.9 3246.98 3270.9 3279.52 3290.96 3302.13 3311.88 3319.46
3334.77 3352.53 3366.78 3397.33 3435.77 3435.85 3424.64 3409.22 3459.34 3499.81
3542.45 3575.03 3604.69 3631.8 3633.51 3631.92 3622.54 3589.19 3576.1 3611.31
3627.96 3611.93 3644.37 3676.71 3737.35 3798.67 3860.21 3912.32 3929.81 3921.43
3889.27 3840.3 3798.96 3749.87 3691.34 3632.66 3585.61 3545.77 3513.34 3482.01
3450.56 3436.84 3427.82 3432.3 3396.41 3343.33 3298.8 3278.75 3243.06 3236.13
3257.79 3296.07 3337.51 3378.98 3434.53 3496.16 3541.58 3571.62 3625.6 3693.81
3754.69 3790.46 3782.79 3763.76 3724.87 3741.61 3793.38 3834.2 3842.93 3837.94
3850.73 3842.45 3813.36 3776.33 3731.2 3692.16 3680.41 3697.02 3764.98 3822.59
3871.56 3938.5 3987.4 4042.87 4097 4134.62 4186.09 4233.39 4236.44 4202.29
4174.63 4198.28 4218.05 4250.45 4266.85 4261.4 4211.62 4157.42 4089.43 4052.62
4052.05 4070.35 4130.45 4176.87 4174.39 4168.9 4198.5 4197.36 4154.08 4117.33
4092.52 4117.31 4142.17 4176.42 4210.29 4257.09 4317.61 4366.71 4422.76 4453.32
4492.18 4538.93 4590.27 4580.92 4543.05 4492.38 4456.42 4391.82 4338.82 4307.71
4288.31 4254.35 4216.94 4162.9 4157.9 4175.72 4206.83 4235.14 4245.7 4254.5
4253.28 4230.36 4250.91 4308.73 4360.44 4411.78 4463.8 4514.82 4513.59 4446.21
4402.77 4401.72 4449.27 4486.24 4479.51 4454.61 4400.03 4346.35 4293.37 4254.5
4239.58 4228.34 4204.08 4172.75 4152.58 4128.09 4119.5 4117.27 4103.01 4116.29
4154.08 4136.61 4118.89 4083.11 4064.33 4040.69 4019.28 4003.89 4028.57 4050.35
4071.01 4095.14 4111.68 4126.76 4150.15 4176.57 4218.71 4238.26 4274.35 4304.25
4318.71 4356.18 4387.58 4391.85 4411.88 4420.82 4479.29 4519.07 4480.46 4428.83
4398.69 4378.49 4391.4 4388.63 4401.92 4423.68 4451.09 4449.04 4407.81 4382.21
4361.64

3005.41 3005.99 3009 3011.31 3013.98 3014.16 3016 3018.24 3022.97 3022
3024 3026.99 3028.07 3031.75 3036.14 3035.37 3038 3039.42 3039.97 3042.15
3043 3047.58 3048 3047.48 3049.57 3053.53 3055.74 3055.29 3059.22 3059.23
3061 3061.69 3062.71 3065.97 3069 3068.89 3070.64 3070.8 3071.01 3074.41
3074.61 3075.41 3078.49 3079.05 3081.47 3080.59 3084.78 3086.41 3087.16 3090.19
3091.69 3093.96 3095.21 3096.42 3097.58 3100.73 3100.91 3103.28 3108.99 3111.62
3116.48 3119.16 3120.68 3127.98 3129.68 3132.87 3138 3140.44 3149.32 3150.69
3156.04 3159.24 3163.59 3170.54 3177.66 3184.08 3193.03 3199.02 3209.51 3213.02
3226.3 3234.02 3243.24 3263.54 3280.57 3289.61 3298.49 3307.45 3315.36 3330.78
3345 3353.77 3377 3410.54 3442.03 3471.26 3464.06 3426.91 3455.83 3496.8
3539.29 3577.12 3623.83 3674.44 3692.44 3697.48 3662.73 3641.04 3622.04 3621.63
3662.49 3658.67 3667.93 3706.64 3765.37 3807.84 3867.24 3931.4 3950.81 3929.19
3879.62 3834.43 3781.16 3722.08 3680.99 3660.13 3625.65 3597.1 3562.91 3539.12
3515.51 3505.39 3504.24 3464.32 3395.04 3347.29 3320.31 3299.09 3258.94 3234.22
3241.66 3268.7 3320.52 3366.59 3416.79 3460.69 3504.79 3579.01 3627.85 3683.23
3727.79 3765.85 3760.61 3730.56 3686.91 3696.58 3742.72 3787.18 3772.88 3772.83
3795.61 3791.74 3749.55 3708.04 3682.03 3650.1 3668.45 3746.91 3813.02 3874.08
3924.79 3978.69 4028.73 4089.26 4146.13 4200.21 4240.02 4265.11 4252.8 4187.95
4139.78 4138.68 4164.61 4185.96 4240.26 4254.79 4213.22 4158.44 4092.81 4038.32
4033.52 4064.19 4131.76 4153.03 4145.66 4139.75 4161.77 4156.34 4107.41 4071.79
4077.69 4101.76 4117.65 4151.24 4186.49 4225.82 4292.02 4329.83 4387.81 4407.21
4466.1 4514.29 4587.94 4593.68 4552.86 4488.59 4433.89 4393.51 4360.75 4325.95
4287.83 4253.34 4215.55 4159.94 4155.79 4172.18 4200.86 4220.98 4234.08 4241.86
4248.34 4249.41 4275.13 4341.71 4402.38 4470.85 4520.39 4545.97 4495.49 4415.25
4360.53 4354.75 4384.44 4449.64 4486.43 4493.71 4465.62 4407.61 4336.73 4289.76
4247.39 4215.84 4193.58 4162.83 4140.35 4116.75 4096.67 4091.84 4072.45 4059.19
4062.35 4058 4041.04 4019.79 4009.15 3990.1 3990.48 4030.05 4061.33 4078.89
4093.5 4122.48 4145.46 4159.49 4193.26 4211.64 4234.53 4266.62 4297.54 4322.33
4332.93 4372.74 4423.3 4434.8 4435.03 4454.84 4492.35 4533.35 4509.75 4467.25
4421.98 4410.96 4419.72 4409.05 4448.46 4490.77 4518.22 4507.05 4445.82 4427.98
4418.36

3007.4 3010 3010.72 3013.91 3015.98 3018.31 3019 3022.01 3024 3025.01
3026.01 3029.83 3031.91 3034.12 3038.98 3038.25 3040.06 3041 3043.54 3046.09
3049 3049.03 3053.02 3055.31 3057.24 3056.12 3059.68 3060.88 3063 3064.22
3066.93 3066.11 3067.75 3069 3071.02 3070.08 3071.43 3075.02 3075.38 3077.45
3077.63 3079.09 3078.91 3082.1 3085.05 3084.07 3089.13 3091 3091.98 3096.05
3095.76 3097 3100.2 3100.96 3104.3 3104.33 3107.02 3109.01 3113.16 3115.09
3118.47 3123.41 3127.31 3129.83 3136.39 3141.72 3147.02 3146.33 3153.66 3155.98
3158.97 3162.46 3168.42 3174.02 3179.84 3188 3194.48 3203.01 3212 3219.96
3230.84 3239.24 3251.64 3267.55 3287.52 3296.57 3310.83 3318.98 3322.65 3335.27
3344.72 3360.61 3380.89 3410.45 3448.49 3484.91 3492.04 3474.57 3462.89 3474.81
3520.71 3565.53 3613.63 3669.89 3698.79 3718.43 3716.11 3700.99 3675.04 3636.74
3691.27 3697.95 3694.13 3742.02 3790.59 3844.67 3895.74 3954.83 3962.8 3935.31
3880.54 3822.72 3772.6 3737.69 3737.59 3720.26 3694.14 3663.91 3617.01 3620.63
3592.06 3564.85 3520.35 3450.47 3392.94 3385.52 3348.98 3325.52 3298.12 3240.29
3234.63 3266.14 3298.92 3354.14 3386.26 3435.05 3495.81 3547.57 3601.81 3657.91
3719.54 3742.83 3731.44 3701.47 3654.12 3658.92 3719.93 3743.17 3719.72 3725.96
3717.65 3716.71 3687.6 3641.02 3612.36 3661.78 3715.88 3784.95 3844.15 3903.37
3964.99 4018.62 4065.33 4128.91 4198.48 4258.07 4291.01 4300.59 4265.6 4189.29
4129.17 4098.21 4113.4 4151.14 4180.62 4217.85 4203.09 4145.43 4087.89 4031.19
4011.65 4041.07 4097.37 4116.78 4107.95 4109.6 4123.99 4104.33 4058.59 4027.31
4037.84 4065.03 4089.75 4127.25 4164.19 4201.05 4249.86 4274.86 4313.92 4363.39
4425.36 4489.31 4566.57 4608.21 4583.52 4526.08 4463.7 4408.67 4373.03 4322.25
4273.48 4236.62 4183.34 4147.25 4154.75 4170.8 4200.27 4224.14 4235.05 4253.42
4255.9 4278.49 4338.16 4387.89 4448.96 4518.76 4569.93 4566.92 4494.55 4414.45
4341.23 4305.35 4342.52 4401.76 4458.24 4483.89 4470.52 4435.3 4394.32 4332.7
4277.61 4223.96 4193.38 4166.91 4139.88 4101.12 4087.96 4061.99 4028.55 4023.6
4018.45 4009.25 3979.97 3966.51 3978.13 4001.41 4016.36 4039.97 4068.22 4096.83
4124.78 4156.81 4189.65 4221.59 4270.8 4278.04 4272.79 4294.61 4325.36 4342.44
4360.5 4391.47 4447.73 4481.59 4472.34 4498.45 4521.34 4559.35 4544.51 4504.97
4456.19 4433.06 4441.52 4433.73 4509.3 4553.17 4554.58 4508.59 4461.98 4449.59
4479.67

3009.98 3010.49 3015.62 3016.91 3017.95 3019.89 3022.34 3022.87 3027.45 3029.54
3031.65 3031.99 3035.79 3038.05 3042.2 3042.03 3044.93 3045.11 3047.31 3048
3048.99 3052.38 3055 3057 3060.03 3061.41 3062.56 3063.13 3066.75 3069.37
3069.04 3070.49 3072.39 3074.33 3075.66 3075.47 3076.11 3077.97 3080.24 3082.05
3082.04 3082.11 3083.1 3087 3089.52 3089.44 3091.94 3095.16 3097.35 3099.6
3101 3102.45 3104.6 3104.89 3106.64 3109.37 3111.01 3113.37 3117.27 3120.68
3123.26 3128.3 3133.03 3137.04 3139.69 3143.82 3148.11 3152.02 3156.96 3162.49
3164.52 3170.56 3176.78 3183.93 3187.48 3191.14 3194.44 3206.19 3212.39 3225.45
3236.33 3249.41 3259.93 3271.95 3298.33 3314.59 3327.04 3337.74 3345.52 3352.16
3358.38 3363.13 3381.43 3413.72 3453.41 3491.91 3517.66 3517.24 3509.82 3509.15
3523.42 3539.7 3585.63 3628.9 3671.47 3723.66 3756.43 3758.63 3722.22 3682.5
3721.78 3747.23 3742.41 3770.1 3821.26 3874.33 3939.76 3984.94 3979.26 3935.3
3881.17 3836.08 3808.91 3802.59 3799.91 3791.55 3750.09 3701.85 3680.72 3679.13
3639.53 3581.69 3515.33 3441.86 3445.17 3417.4 3364.32 3363.89 3328.84 3280.32
3240.68 3265.64 3296.25 3330.69 3369.79 3411.08 3475.01 3544.69 3583.36 3634.72
3685.82 3698.6 3699.82 3682.88 3626.71 3616.67 3670.73 3674.43 3653.45 3670.89
3666.48 3652.87 3611.98 3588.78 3645.98 3700.08 3764.84 3818.79 3877.95 3938.85
3996.84 4054.27 4107.09 4167.52 4224.29 4295.35 4306.36 4299.1 4242.97 4159.75
4098.5 4062.58 4073.81 4112.14 4163.9 4197.26 4187.74 4138.81 4069.91 4014.02
4000.72 4024.74 4087.8 4093.5 4072.87 4088 4087.07 4044 4001.47 4015.02
4049.81 4090.63 4123.57 4135.04 4150.49 4176.06 4209.28 4260.07 4323.83 4374.15
4418.34 4483.12 4550.04 4611.39 4609.15 4542.61 4471.72 4403.4 4351.53 4302.72
4245.58 4204.69 4155.48 4149.79 4155.22 4165.98 4192.81 4212.33 4230.73 4257.54
4292 4335.56 4387.17 4441.04 4496.11 4566.24 4583.5 4556.37 4487.77 4407.97
4335.76 4308.81 4319.48 4368.32 4396.02 4412.65 4413.77 4425.19 4412.37 4379.54
4317.7 4253.98 4204.37 4177.13 4146.13 4102.2 4068.61 4042.43 4003.59 3978.78
3968.97 3952.22 3950.57 3970.74 4003.48 4026.81 4044.53 4063.69 4089.46 4114.93
4152.25 4200.49 4244.73 4291.15 4341.08 4351.48 4342.08 4331.19 4364.08 4366
4378.28 4419.67 4462.37 4510.78 4523.26 4532.64 4541.11 4582.37 4583.31 4551.73
4489.28 4464.11 4451.26 4465.53 4515.39 4596.07 4591.01 4539.17 4474.88 4479.28
4528.32

3011.25 3014 3016.42 3019 3020.98 3022.31 3024.74 3026.56 3029.82 3030.88
3033.33 3035.5 3039 3040 3043.26 3046.33 3046.03 3047.07 3049.9 3052.23
3052.93 3055.93 3059.48 3059.13 3064.29 3064.24 3066.3 3070 3071.48 3071.14
3073.51 3073.19 3076.31 3077 3078.27 3079.55 3080.95 3081.19 3084.01 3085
3087.59 3086.74 3089.96 3089.33 3093.41 3094.65 3097.87 3099.9 3100.63 3100.99
3103.69 3105.9 3110 3111.09 3112.63 3112.73 3114.9 3115.35 3119.39 3124
3127.78 3132.1 3138.91 3143.14 3146.61 3150.96 3154.63 3158.93 3163.64 3169.25
3171.95 3174.68 3180.83 3189.28 3192.02 3200.18 3206.87 3208.22 3217.76 3227.92
3241.57 3263.18 3272.26 3293.82 3323.17 3334.19 3354.31 3372.52 3388.94 3386.77
3376.98 3377.98 3381.93 3412.78 3444.31 3480 3517.46 3545.88 3556.57 3552.59
3569.87 3586.52 3606.45 3630.9 3666.31 3709.83 3766.73 3783.73 3781.07 3747.54
3754.26 3791.9 3804.94 3811.44 3842.61 3903.17 3957.28 4007 4002.57 3959.7
3919.13 3899.81 3881.32 3872.65 3868.57 3835.53 3809.58 3748 3734.71 3701.28
3642.97 3586.35 3525.64 3499.99 3487.18 3434.04 3395.56 3398.2 3371.36 3326.1
3265.44 3259.56 3284.75 3311.1 3351.7 3393.41 3445.88 3506.03 3544.69 3602.09
3639.75 3650.52 3651.83 3644.4 3603.36 3579.33 3629.18 3617.84 3597.07 3620.61
3609.66 3583.93 3566.8 3614.5 3672.31 3737.69 3784.68 3857.62 3907.62 3970.94
4042.53 4104.53 4156.96 4215.94 4262.63 4307.77 4296.88 4245.92 4160.37 4110.76
4045.42 4026.14 4043.58 4093.85 4175.41 4183.15 4160.99 4106.69 4048.03 3987.08
3982.06 4022.68 4074.75 4074.67 4049.2 4034.17 4003.58 3971.39 4003.26 4016.95
4051.38 4092.03 4129.28 4159.26 4186.72 4205.84 4223.46 4259.03 4310.67 4357.04
4416.12 4471.28 4532.7 4596.47 4614.86 4554.71 4473.82 4399.13 4333.71 4301
4241.4 4193.18 4143.68 4141.98 4147.39 4154.15 4173.2 4191.76 4220.88 4283.27
4332.83 4375.72 4438.08 4498.2 4549.63 4587.41 4581.75 4542.11 4471.71 4389.35
4326.94 4316.94 4307.85 4312.63 4325.52 4329.76 4334.24 4371.35 4386.01 4379.96
4336.85 4276.93 4243.13 4211.47 4161.55 4103.8 4052.77 4012.06 3966.88 3944.85
3937.97 3944.18 3960.51 3976.11 4002.03 4035.53 4064.78 4094.8 4121.11 4140.53
4197.38 4252.03 4304.12 4346.01 4409.14 4422.96 4415.11 4378.95 4392.69 4386.46
4401.39 4448.77 4509.32 4536.03 4545.62 4553.05 4560.15 4588.14 4609.6 4598.41
4549.4 4518.95 4512.45 4520.04 4558.69 4613.83 4606.9 4571.35 4526.97 4527.43
4538.64

3016 3016.23 3018.04 3021.28 3022.35 3025.51 3028.46 3029.13 3033.06 3034.29
3034.22 3038.49 3039 3042.08 3045.15 3049.29 3050.43 3050.8 3054.15 3055
3057 3057.08 3062.02 3061.96 3064.85 3066.14 3070.76 3072.7 3072.33 3075.33
3076.07 3079.66 3079.86 3081.37 3084.32 3084.38 3083.98 3085.61 3086.02 3088.04
3090.08 3091.56 3094.99 3093.85 3097.19 3100.73 3100.15 3103.03 3105.07 3106.15
3108.73 3109.75 3114.01 3114.01 3116 3117 3118.07 3121.26 3125 3128.85
3133.07 3137.07 3142.31 3146.08 3150.81 3159.19 3162.12 3163.38 3170.54 3173.13
3180.03 3184.48 3186.2 3197.29 3201.77 3207.3 3213.57 3216.44 3223.88 3235.27
3256.38 3276.32 3289.61 3309.27 3338.76 3362.3 3372.73 3402.52 3424.63 3433.75
3420.83 3404.75 3398.45 3408.11 3433.68 3468.95 3504.35 3547.36 3576.85 3596.92
3623.2 3640.48 3667.69 3690.8 3691.51 3715.98 3775.14 3821.11 3836.99 3799.26
3794.46 3839.33 3870.69 3871.6 3886.57 3925.32 3973.99 4030.04 4033.28 3999.25
3976.61 3958.38 3931.98 3915.32 3887.98 3853.83 3817.87 3756.92 3728.03 3697.62
3649.84 3589.95 3553.06 3536.34 3496.12 3444.67 3411.05 3409.48 3390.19 3343.37
3282.55 3244.74 3260.63 3302.95 3336.15 3379.46 3438.56 3479.16 3519.86 3573.16
3601.31 3603.51 3602.89 3597.88 3566.55 3554.18 3578.09 3554.97 3532.76 3540.14
3543.06 3542 3604.5 3654.33 3712.58 3792.05 3831.08 3880.64 3943.61 4010.95
4081.45 4135.66 4180.01 4224.42 4270.58 4293.45 4271.8 4204.2 4126.81 4056.24
4001.08 4000.26 4020.38 4091.04 4172.45 4169.1 4110.66 4046.45 3988.27 3944.63
3961.96 4028.1 4057.29 4041.66 4014.39 3974.73 3952.94 3955.5 3994.94 4023.8
4074.86 4115.97 4147.88 4175.51 4202.94 4223.66 4252.95 4289.21 4347.02 4383.33
4409.79 4439.68 4509.19 4591.1 4622.37 4568.31 4484.98 4412.94 4346.04 4295.34
4234.35 4178.87 4136.94 4129.26 4134.92 4135.54 4145.58 4167.19 4243.96 4327.64
4377.41 4429.18 4484.26 4563.83 4602.11 4598.23 4554.28 4516.55 4472.68 4400.42
4346.72 4312.91 4307.63 4301.32 4291.3 4274.86 4271.62 4300.55 4311.78 4316.38
4312.62 4290.64 4272.96 4223.34 4158.55 4084.53 4040.83 3995.14 3956.83 3930.5
3932.87 3947.66 3973.8 3991.85 4016.94 4058.99 4082.92 4119.81 4143.87 4160.45
4224.03 4284.27 4350.63 4394.21 4458.21 4496.79 4485.04 4435.86 4427.69 4420.25
4409.59 4452.89 4517.8 4548.84 4564.99 4566.69 4576.32 4588.17 4619.37 4622.02
4603.47 4583.39 4584.94 4595.45 4616.92 4607.28 4585.01 4568.25 4537.07 4537.82
4532.66

3018.09 3019.34 3021.4 3022 3024.25 3027 3028.42 3031.63 3035 3038
3039.34 3039.44 3042.4 3045.01 3048.9 3052.5 3054 3055.77 3055.05 3057.02
3061.4 3061.67 3064.12 3067.28 3068.02 3068.57 3073.6 3075 3078.91 3078.93
3081 3081.99 3083.47 3086.15 3085.96 3086.56 3088.45 3090.62 3092 3091.02
3094 3097.91 3097.17 3097.44 3101.64 3103.13 3104.81 3106.23 3109.04 3109.48
3111.91 3113 3116.57 3119 3121.35 3122.06 3122.15 3125.84 3129.44 3134
3137.89 3140.12 3146.08 3148.96 3155.65 3163.91 3167.16 3171.5 3175.57 3182.43
3186.14 3190.92 3195.31 3202.71 3207.99 3214.73 3222.17 3226.31 3231.22 3244.68
3272.68 3292.77 3304.11 3317.77 3335.88 3375.56 3402.31 3424.66 3440.06 3473.43
3470.56 3445.78 3430.73 3420.07 3431.02 3454.35 3489.44 3526.39 3560.85 3599.91
3632.12 3652.27 3690 3727.44 3755.53 3761.71 3793.01 3841.07 3877.14 3842.69
3838.87 3879.42 3929.82 3924.75 3938.85 3969.33 4012.9 4051.82 4050.82 4040.72
4009.34 3966.38 3933.41 3907.55 3858.03 3824.03 3792.29 3735.06 3676.58 3644.75
3607.21 3553.67 3526.72 3525.91 3478.93 3433.76 3389.46 3376.46 3367.1 3335.36
3301.01 3273.27 3244.88 3285.58 3322.96 3358.06 3403.37 3446.9 3488.4 3545.13
3570.19 3555.63 3565.58 3563.53 3517.29 3529.48 3523.64 3487.59 3510.47 3523.92
3555.47 3601.88 3648.63 3692.04 3759.02 3818.18 3882.89 3930.36 3975.79 4023.57
4096.32 4140.01 4147.9 4159.95 4211.4 4228.77 4202.81 4146.88 4090.51 4026.24
3967.45 3975.5 4015.73 4074.52 4141.04 4131.88 4079.95 4013.36 3946.92 3909.89
3952.75 3998.54 4008.44 3994.24 3952.14 3920.63 3904.8 3926.09 3977.06 4050.63
4103.01 4156.92 4184.72 4209.45 4236.95 4267.67 4296.84 4330.89 4362.13 4385.71
4394.14 4452.84 4516.56 4595.94 4610.41 4564.38 4487.37 4413.44 4327.96 4273.91
4216.65 4169.96 4131.49 4109.65 4121.66 4123.99 4133.66 4184.45 4262.75 4342.09
4423.63 4478.43 4531.36 4590.79 4631.95 4598.55 4539.35 4513.17 4470.91 4404.11
4366.67 4313.85 4294.35 4289.32 4281.68 4271.32 4261.86 4244.48 4243.48 4241.79
4264.32 4286.05 4268.25 4201.77 4144.44 4069.05 4013.4 3973.66 3940.87 3923.33
3933.72 3951.72 3992.37 4015.11 4028.61 4068.56 4102.45 4140.94 4166.72 4173.33
4222.38 4289.12 4363.16 4429.09 4501.39 4562.25 4552.93 4495.14 4460.25 4449.23
4413.08 4449.37 4506.53 4559.85 4577.49 4581.79 4591.57 4605.92 4617.21 4643.47
4664.69 4667.47 4668.51 4671.33 4655.13 4591.22 4558.22 4546.5 4533.91 4506.12
4493.77

3019.13 3022 3023 3025.5 3028.98 3030.2 3032.84 3033.17 3038.92 3041.98
3041.97 3043 3044.03 3048.99 3052 3054.31 3057.97 3059.67 3058.67 3062.23
3065 3068.92 3067.86 3072.01 3072.16 3073.98 3075.65 3077.72 3082.15 3083
3084.41 3085.68 3088.85 3088.42 3089.39 3092.54 3093.68 3093.89 3096.22 3096
3097.93 3100.05 3102.94 3102.19 3104.96 3107.73 3109.81 3112.94 3113.36 3115.44
3116.68 3117.4 3120.09 3123 3125.58 3126.28 3129.39 3130.98 3133.27 3138.77
3146 3147 3150.58 3154 3161.81 3165.88 3174.05 3178.23 3181.49 3187.69
3190.68 3197.62 3201.97 3210.74 3215.28 3227.27 3230.63 3237.03 3239.74 3260.54
3284.02 3310.65 3331.14 3349.19 3357.29 3371.43 3410.07 3441.49 3469.85 3502.85
3513.25 3507.86 3478.67 3459.26 3446.63 3458.06 3479.48 3501.98 3532.79 3559.86
3599.58 3628.64 3686.76 3724.98 3759.17 3793.87 3832.38 3871.39 3915.73 3899.57
3900.61 3945.82 3984.37 3984.09 3988.11 4010.98 4035.06 4052.78 4046.69 4043.52
4008.27 3957.08 3905.71 3865.88 3816.35 3764.84 3749.54 3725.94 3651.85 3596.95
3546.45 3501.52 3487.18 3456.6 3430.48 3403.03 3381.41 3401.17 3380.23 3356.96
3329.42 3294.06 3250.32 3267.22 3316.32 3336.21 3375.22 3419.42 3459.01 3516.44
3529.34 3499.18 3509.69 3497.13 3488.13 3484.96 3452.96 3479.09 3554.46 3588.39
3636.08 3663.23 3704.8 3731.81 3791.79 3853.7 3910.98 3978.18 4021.74 4065.84
4095.09 4112.01 4091.36 4085.92 4140.33 4165.12 4138.51 4081.19 4038.91 3977.24
3947.41 3945.46 3976.06 4046.41 4104.27 4087.88 4044.03 3973.96 3913.11 3876.05
3943.69 3965.69 3944.85 3919.07 3895.93 3864.62 3866.25 3923.7 3992.93 4064.03
4116.8 4159.53 4192.61 4211.05 4237.81 4283.6 4325.95 4360.53 4365.71 4390.84
4434.24 4483.09 4544.43 4636.03 4611.44 4539.28 4474.68 4395.86 4321.92 4257.46
4207.65 4164.95 4110.57 4082.92 4091.42 4101.67 4133.07 4186.86 4285.31 4361.99
4446 4531.52 4583.92 4641.85 4656.88 4609.57 4540.64 4506.29 4464.61 4416.26
4360.84 4313.99 4278.37 4274.63 4265.61 4255.51 4255.52 4226.4 4208.52 4193.27
4188.77 4193.96 4195.17 4159.3 4109.87 4035.45 3988.77 3955.7 3921.19 3927.8
3936.76 3975.95 4025.23 4050.01 4050.72 4086.24 4112.28 4145.57 4175.9 4185.83
4215.9 4279.95 4358.81 4426.51 4507.43 4568.16 4579.28 4559.31 4502.16 4474.38
4439.34 4458.44 4533.69 4570.66 4594.06 4600.56 4611.48 4620.18 4632.27 4671.77
4722.68 4748.83 4752.52 4746.54 4676.51 4613.51 4565.12 4535.47 4519.74 4498.3
4484.32

3021.67 3024.05 3027.09 3028.43 3031 3032.03 3035.01 3038.37 3039.04 3042.44
3046.99 3047.45 3049 3051.84 3056.14 3056.07 3059.56 3061.21 3063.92 3065.97
3066.51 3068.93 3072.08 3073.98 3077.29 3076.14 3080.08 3082.39 3085.99 3085.54
3088.14 3090.77 3092.98 3092.06 3094.08 3097.99 3096 3099.13 3098.99 3100.34
3102.03 3102 3104.25 3106.31 3109.05 3111.4 3113.49 3117.99 3117.51 3120.07
3120.9 3123.23 3125.41 3128.04 3129.07 3129.93 3133.01 3136.01 3137.04 3143.95
3147 3148.95 3155 3157.45 3168.41 3172.34 3180.17 3186.35 3190.48 3195.13
3200.23 3204.18 3208.77 3215.89 3222.71 3234.31 3239.55 3247.09 3255.89 3277.89
3298.19 3325.96 3362.35 3393.35 3402.89 3396.87 3418.14 3460.48 3499.09 3529.49
3560.49 3557.43 3538.55 3499.11 3472.87 3467.18 3488.59 3508.74 3559.07 3587.47
3618.72 3632.16 3655.2 3683.33 3741.46 3790.44 3841.6 3889.36 3935.87 3949.28
3958.11 3999.73 4026.21 4024 4013.13 4013.7 4031.05 4031.01 4039.59 4032.32
3984.43 3943.45 3878.11 3827.99 3765.95 3717.37 3686.72 3674.96 3635.35 3583.65
3531.37 3486.98 3464.94 3438.76 3418.04 3397.05 3431.25 3448.5 3425 3384.79
3334.15 3298.07 3254.18 3254.97 3302 3320.66 3362.8 3406.27 3454.85 3483.71
3486.22 3464.4 3460.72 3447.81 3445.86 3426.07 3464.54 3532.04 3594 3642.57
3699.16 3729.24 3767.39 3790.7 3826.14 3885.87 3923.46 3993.05 4053.13 4066.59
4058.69 4052.97 4033.71 4023.64 4070.22 4111.53 4098.85 4044.93 3978.82 3929.04
3894.77 3910.13 3949.91 4018.96 4061.92 4050.02 4011.95 3938.87 3875.6 3845.65
3900.71 3919.46 3890.78 3855.69 3847.95 3830.88 3881.74 3947.36 3986 4035.8
4082.27 4130.36 4174.71 4219.55 4224.23 4266.24 4325.25 4389.98 4415.93 4430.57
4462.55 4517.23 4569.88 4631.47 4594.07 4526.59 4456.26 4396.1 4337.6 4278.69
4211.95 4146.72 4101.89 4067.94 4084.65 4094.8 4121.7 4195.4 4285.59 4353.19
4452.79 4538.24 4608.17 4671.98 4690.11 4645.07 4587.06 4543.82 4490.36 4430.25
4363.21 4322.04 4288.01 4256.04 4241.45 4235.33 4236.14 4221.85 4195.06 4160.29
4121.62 4124.29 4123.57 4116.21 4050.83 3996.96 3964.02 3924.7 3919.08 3925.37
3951.12 4000.43 4050.21 4083.46 4099.3 4105.55 4119.67 4153.13 4180.18 4203.38
4233.6 4261.57 4329.13 4420.67 4476.72 4552.52 4594.73 4593.46 4546.22 4514.7
4493.08 4496.13 4545.1 4600.91 4606.52 4615.95 4624.27 4636.77 4644.99 4689.55
4775.27 4823.04 4818.73 4777.68 4723.33 4646.69 4597.6 4566.91 4510.29 4495.58
4472.02

3022.01 3026.46 3029.03 3031 3033 3036 3035.64 3038.32 3042.12 3044.98
3047.3 3048.06 3051.72 3053.77 3057 3057.41 3060.7 3066.66 3065.54 3068.83
3070.24 3074.64 3076.28 3077.05 3079.53 3081.4 3082.85 3084.59 3086.41 3090.34
3091.08 3094.1 3096.12 3097.98 3098.37 3098.94 3101.67 3101.85 3104.16 3103.72
3105.67 3105.93 3109.46 3112 3113.02 3115 3118.88 3120.72 3123 3123.7
3125.68 3128.84 3131.19 3131.04 3134.5 3136.47 3137.14 3139.24 3143.05 3144.38
3149.21 3155.51 3158.04 3167.4 3171.41 3179.25 3185.04 3189.86 3195.65 3202.36
3208 3216.26 3216.01 3222.57 3229.04 3238 3248.16 3261.65 3270.64 3293.21
3315.23 3340.34 3384.87 3426.55 3447.85 3446.46 3431.52 3464.34 3511.52 3552.16
3577.1 3587.24 3574.15 3543.31 3506.33 3473.25 3517.08 3528.87 3560.75 3599.33
3640.43 3670.71 3694.66 3722.73 3742.41 3773.27 3818.53 3885.63 3936.14 3992.82
4022.49 4044.25 4045.22 4035.62 4021.96 3998.13 3999.82 4005.92 4014.3 4005.93
3982.72 3951.56 3911.54 3850.54 3795.43 3740.73 3682.01 3620.31 3584.27 3542.54
3518.64 3491.8 3473.76 3444.83 3422.29 3422.7 3472.63 3493.76 3445 3385.74
3320.86 3284.22 3276.28 3265.29 3275.53 3307.55 3344.58 3395.43 3412.21 3422.92
3416.93 3419.21 3419.79 3409.41 3415.18 3456.02 3515.92 3562.22 3633.87 3692.32
3743.25 3782.37 3803.47 3834.32 3859.62 3890.24 3914.39 3967.93 4016.6 4021.92
3994.37 3977.05 3967.07 3971.07 4012.36 4083.94 4067.69 4018.49 3944.13 3875.06
3841.53 3850.41 3907.4 3978.55 4012.05 4001.39 3969.09 3907.03 3843.34 3803.56
3843.08 3861.47 3841.24 3803.36 3820.29 3843.59 3887.45 3961.5 3985.88 4026.42
4087.71 4140.52 4176.63 4216.91 4224.98 4271.66 4338.07 4409.83 4437.5 4433.71
4442.51 4485.78 4546.38 4587.46 4574.45 4518.04 4447.71 4398.22 4345.81 4283.11
4212.12 4147.59 4083 4057.94 4075.1 4087.5 4127.55 4201.04 4280.14 4352.85
4440.93 4511.72 4605.49 4670.3 4694.53 4667.21 4637.97 4582.4 4510.46 4436.01
4379.33 4332.66 4303.74 4277.51 4251.2 4218.34 4212.87 4207.42 4176.71 4151.27
4109.54 4061.64 4046.34 4035.85 3994.28 3953.74 3928.04 3915.91 3927.56 3942.4
3976.41 4039.87 4095.4 4143.42 4169.4 4173.33 4166.54 4173.39 4197.71 4220.71
4256.19 4279.73 4322.81 4391.01 4451.34 4512.34 4562.11 4592.27 4598.91 4572.03
4549.39 4533.28 4578.61 4639.56 4643.31 4637.46 4647.34 4651.25 4658.76 4710.05
4802.74 4854.32 4874.9 4826.88 4756.15 4677.08 4630.42 4596.64 4522.5 4502.76
4481.99

3025.11 3028.64 3030.61 3032.78 3035.09 3039 3039.47 3042.57 3045.94 3047.85
3050.65 3053.99 3055.63 3058.77 3059.95 3063.98 3064.16 3068.33 3068.79 3073.5
3074.29 3076.68 3078.67 3081.93 3082.21 3084.05 3086.6 3088.76 3092.02 3093
3096.16 3098.38 3099.14 3101.76 3100.62 3103.92 3103.72 3105.09 3107.82 3107.04
3110 3112.23 3114.94 3114.29 3117.45 3119 3122.8 3124 3128.29 3130.46
3128.42 3131.85 3136.78 3137.26 3136.45 3140.31 3144.01 3144.11 3146.39 3151.92
3155.8 3156.94 3165.98 3170.21 3179.72 3183.02 3187.21 3196.71 3200.57 3207.05
3214.77 3220.1 3230.63 3233.26 3235.27 3245.13 3250.29 3264.15 3278.58 3298.8
3320.18 3342.72 3386.6 3427.23 3458.49 3474.62 3478.16 3484.13 3526.83 3566.15
3593.2 3605.57 3606.8 3579.05 3524.17 3492.11 3528.36 3553.68 3566.36 3583.99
3637.46 3672.72 3705.26 3746.69 3787.69 3819.86 3843.53 3880.04 3934.46 3997.45
4040.87 4057.61 4051.05 4042.2 4030.17 4004.2 3985.77 3970.98 3978.14 3975.93
3969.04 3946.69 3916.38 3854.53 3798.18 3746.19 3699.69 3666.61 3629.39 3593.23
3549.67 3520.67 3486.37 3452.75 3435.54 3499.38 3509.75 3496.63 3426.14 3335.92
3268.8 3293.04 3313.34 3324.36 3319.35 3277.6 3313.8 3343.48 3348.13 3344.37
3365.31 3378.04 3374.08 3425.97 3459.99 3512.07 3576.01 3617.63 3670.98 3711.1
3748.07 3771.22 3785.38 3810.43 3837.93 3827.46 3859.16 3893.08 3921.45 3937.24
3941 3910.1 3896.32 3922.73 3975.9 4018.15 4017.03 3966.17 3903.43 3831.6
3818.05 3831.68 3872.75 3932.37 3941.91 3930.02 3915.71 3863.84 3813.25 3767.76
3789.14 3802.64 3787.48 3801.54 3858.72 3896.96 3917.14 3955.21 3983.86 4018.18
4088.25 4138.58 4171.25 4201.92 4232.69 4297.13 4367.6 4419.4 4423.2 4396.62
4374.12 4420.21 4486.25 4546.91 4558.76 4492.38 4416.11 4352.49 4297.04 4248.9
4185.75 4117.85 4059.56 4039.07 4061.39 4091.52 4133.94 4197.64 4265.95 4336.64
4411.81 4483.29 4537.03 4592.95 4645.64 4659.98 4639.84 4582.85 4513.31 4440.4
4390.22 4343.14 4312.62 4280.11 4255.49 4232.08 4199.06 4188.49 4159.57 4101.84
4069.42 4055.8 3999.49 3975.35 3937.65 3907.63 3910.63 3934.82 3953.44 3970.53
4013.14 4071.9 4146.07 4208.53 4241.06 4244.84 4222.43 4216.77 4219.83 4248.65
4273.78 4295.28 4315.07 4358.64 4400.87 4461.67 4513.64 4578.95 4609.72 4599.53
4566.21 4567.65 4601.61 4670.75 4718.91 4700.07 4668.9 4666.59 4685.75 4726.99
4805.38 4851.32 4875.26 4852.55 4792.73 4723.29 4668.12 4604.68 4539.71 4516.65
4501.72

3028 3031 3033.57 3035.98 3038.93 3039.74 3042.27 3043.69 3048.01 3049.87
3052 3055.01 3058.29 3061.14 3062.18 3065 3067.26 3069.1 3073.99 3075.2
3078.96 3080.81 3081.71 3083.84 3084.92 3090.31 3090.59 3091.11 3094.65 3097.02
3098.07 3101.43 3104.13 3105.18 3105.13 3108.67 3111.55 3109.29 3110.23 3113
3116.05 3113.49 3116.12 3119.02 3122.4 3123.41 3127.87 3127.14 3132.58 3134.99
3135.8 3138.96 3140.12 3141 3141.92 3144.38 3150.03 3151.01 3154.74 3153.22
3162.93 3166.22 3169.3 3174.05 3182.62 3188.61 3194 3204.38 3207.88 3214.33
3222.58 3230.24 3236.14 3246.25 3247.65 3254.11 3257.8 3267.61 3289.3 3301.68
3321.46 3336.37 3373.45 3410.63 3444.21 3475.05 3495.87 3516.68 3549.01 3584.51
3605.6 3631.75 3626.23 3598.8 3550.8 3510.19 3535.8 3568.73 3593.8 3602.62
3611.22 3647.53 3692.25 3740.9 3788.97 3838.21 3896.2 3935.29 3980.6 4014.45
4045.26 4047.01 4048.61 4044.43 4033.29 4014.59 3991.73 3957.97 3925 3932.89
3928.48 3916.43 3903.75 3853.08 3794.72 3724.74 3687.31 3659.4 3625.07 3588.86
3535.63 3511.17 3474.86 3449.22 3491.24 3518.37 3506.55 3455.67 3365.83 3299.74
3287.1 3327.36 3334.97 3361.73 3383.35 3345.83 3291.02 3285.03 3310.37 3333.88
3361.07 3391.95 3441.54 3486.02 3516.83 3561.89 3598.87 3632.36 3674.43 3700.2
3689.36 3696.81 3716.11 3756.26 3758.12 3754.27 3803.74 3829.72 3851.07 3885.68
3884.18 3854.62 3845.33 3898.57 3940.17 3948.64 3943.19 3917.31 3856.18 3795.6
3780.4 3801.81 3820.48 3866.53 3877.33 3860.33 3839.36 3818.45 3778.08 3720.49
3723.97 3749.23 3802.96 3846.03 3895.74 3942.58 3983.45 4009.75 4039.72 4051.55
4092.77 4136.17 4175.37 4222.23 4267.65 4330.29 4393.58 4419.25 4402.33 4362.99
4345.56 4374.94 4438.74 4486.85 4512.69 4494.84 4431.15 4365.45 4313.2 4240.12
4174.3 4100.35 4059.5 4026.76 4051 4088.42 4133.01 4195.12 4248.77 4319.38
4391.19 4452.48 4524.26 4552.4 4581.18 4613.01 4619.62 4565.35 4496.65 4432.38
4386.57 4346.6 4315.07 4275.31 4249.17 4233.32 4202.19 4170.57 4154.88 4110.59
4035.61 3994.53 3958.41 3924.99 3907.78 3933.59 3945.44 3961.86 3982.13 4006.84
4053.26 4115.52 4180.89 4241.46 4291.88 4306.57 4300.99 4275.31 4271.03 4267.39
4285.6 4320.75 4323.69 4357.64 4384.12 4414.48 4464.57 4551.79 4609.77 4615.68
4587.27 4595.01 4632.64 4716.71 4756.2 4741.32 4687.74 4680.7 4677.01 4690.72
4724.55 4796.49 4828.54 4841.01 4825.38 4767.84 4708.1 4640.68 4567.66 4552.89
4568.5

3030.25 3032.01 3035.89 3038.12 3040 3043.45 3045.21 3049.78 3049.92 3054.13
3056.23 3058.39 3059.25 3062.1 3066.01 3069 3071.5 3071.69 3074.13 3079.24
3080.45 3082.67 3086.2 3089.93 3090.15 3093.71 3095.34 3097 3099.03 3100.34
3103.49 3105.94 3108.72 3107.17 3108.06 3113.57 3114 3114 3117.23 3118.38
3120.63 3120.84 3120.67 3123.69 3125.06 3126.69 3128.12 3132.33 3136.03 3138.99
3138.56 3143.24 3145 3145.24 3147.52 3148.71 3152.9 3155.17 3156.96 3161.94
3165.58 3170.44 3176.62 3182.06 3188.72 3191.86 3200 3208.36 3214.58 3220.39
3230.87 3236.45 3243.89 3248.94 3258.86 3261.08 3263.15 3279.48 3296.26 3319.41
3338.94 3354.86 3369.49 3389.84 3410.81 3451.3 3495.53 3522.38 3551.21 3588.28
3626.02 3651.61 3645.81 3609.88 3566.43 3519.72 3561.56 3602.49 3631.25 3651.19
3659.75 3676.98 3712.27 3749.72 3771.59 3835.72 3904.38 3960.13 4014.87 4024.52
4034.95 4034.33 4042.65 4043.04 4039.79 4024.94 4002.77 3962.31 3904.79 3869.92
3868.08 3856.99 3872.22 3849.22 3807.58 3747.3 3682.24 3621.85 3575.46 3544.12
3510.79 3494.68 3479.23 3506.4 3537.08 3523.54 3488.02 3426.24 3328.99 3269.82
3327.81 3338.76 3347.38 3369.91 3404.2 3388.3 3339.82 3287.74 3308.72 3332.19
3359.68 3401.99 3455.4 3492.09 3524.89 3566.2 3582.85 3613.93 3630.93 3634.59
3625.85 3642.26 3659.79 3692.96 3694.49 3712.57 3770.41 3778.91 3785.96 3817.17
3821.03 3790.54 3800.73 3861.25 3884.33 3880.73 3880.87 3868.84 3815.06 3759.51
3737.74 3745.08 3767.93 3808.78 3814.25 3789.43 3767.54 3748.99 3712.95 3684.16
3742.25 3791.17 3839.25 3873.71 3916.48 3947.66 4007.45 4036.99 4056.73 4087.37
4117.99 4155.06 4219.67 4272.57 4327.02 4371.31 4421.63 4416.81 4363.97 4316.26
4308.47 4337.36 4388.75 4445.93 4488.16 4476.72 4431.34 4364.67 4314.67 4246.78
4170.56 4094.92 4049.07 4017.98 4037.02 4075.06 4116.85 4192.03 4252.83 4343
4407.81 4454.59 4474.03 4485.86 4514.96 4537.65 4561.77 4527.58 4476.46 4426.02
4384.8 4344.05 4304.68 4262.7 4226.85 4198.85 4186.77 4157.2 4134.67 4086.08
4027 3959.64 3905.47 3899.76 3933.15 3955.62 3969.76 3993.78 4016.62 4027.71
4068.9 4141.54 4225.63 4275.1 4322.91 4369.63 4370.27 4365.15 4344.79 4303.86
4318.91 4329.05 4345.1 4344.68 4371.29 4395.77 4449.28 4521.08 4588.46 4642.54
4631.61 4617.84 4653.16 4730.03 4799.61 4776.12 4720.62 4694.55 4664.56 4630.79
4638.45 4690.33 4739.17 4789.03 4819.78 4788.67 4737.56 4674.96 4607.11 4608.67
4649.54

3033.26 3035.43 3036.95 3040.34 3044.92 3045.08 3047.18 3052 3054 3054.9
3059.05 3061.38 3064.4 3065.84 3070 3072.35 3074.53 3075.9 3079.88 3081.66
3084.18 3085.3 3087.86 3092 3094.47 3095.58 3096.18 3098.22 3104.96 3105.89
3106.5 3110.38 3113.89 3112.89 3114.37 3114.98 3116.78 3119.53 3121 3123.22
3125.25 3127 3126.93 3129.1 3131.29 3132.52 3135.04 3138.27 3140 3142.15
3143.81 3148.71 3151.17 3152.35 3153.3 3153.53 3154.84 3160.35 3160.45 3164.24
3169.36 3172.15 3177.06 3187.42 3194.32 3198.15 3204.22 3214.19 3219.21 3230.57
3236.93 3243.43 3251.37 3261.62 3266.61 3273.14 3275.27 3288.4 3309.34 3334.85
3357.12 3387.91 3413.34 3436.99 3440.98 3442.48 3468.68 3506.12 3548.56 3588.41
3638.85 3665.74 3667.96 3640.61 3600.15 3544 3571.54 3621.08 3663.48 3700.41
3716.65 3727.77 3745.28 3784.83 3826.93 3852.7 3917.62 3972.34 4016.85 4023.2
4016.63 4011.34 4020.59 4036.85 4035.34 4023.15 4007.83 3968.52 3910.18 3855.27
3812.96 3798.48 3807.31 3809.94 3799.93 3748.24 3686.16 3626.2 3558.88 3528.06
3508.43 3510.76 3540.23 3559.64 3553.98 3519.95 3464.26 3386.82 3296.69 3301.56
3339.22 3343 3356.21 3396.57 3433.96 3423.89 3396 3337.62 3306.16 3316.94
3337.71 3379.78 3418.85 3434.24 3499.97 3523.33 3532.22 3553.4 3562.07 3565.7
3561.13 3578.12 3592.61 3625.54 3620 3666.05 3723.19 3717.14 3745.26 3777.91
3770.35 3731.62 3757.24 3820.24 3828.7 3816.99 3797.57 3787.61 3768.32 3715.7
3701.88 3707.5 3721.84 3740.78 3731.9 3720.85 3699.35 3673.15 3676.46 3722.03
3770.37 3814.67 3852.27 3889.09 3916.82 3959.8 4017.77 4024.99 4056.5 4090.21
4116.17 4172.72 4241.29 4300.93 4379.17 4434.59 4455.74 4428.68 4353.18 4299.93
4290.74 4285.6 4340.38 4398.4 4455.33 4462.29 4413.43 4336.13 4277.63 4215.31
4153.95 4081.71 4028 3998.61 4014.02 4054.02 4109.09 4184.1 4262.35 4341.89
4388.49 4400.13 4395.85 4402.11 4434.37 4482.28 4505.59 4499.66 4452.76 4399.53
4361.54 4321.85 4283.97 4258.23 4205.9 4152.3 4119.31 4108.08 4069.47 4019.75
3957.15 3910.23 3886.6 3910.51 3940.9 3957.91 3979.76 4009.49 4036.25 4055.96
4075.6 4135.97 4233.86 4283.23 4348.56 4405.62 4443.26 4438.63 4423.51 4396.15
4357.02 4358.04 4355.28 4358.07 4363.66 4387.18 4429.11 4494.42 4573.95 4660.8
4685.18 4665.61 4704.63 4775.62 4838.82 4836.78 4782.18 4721.75 4641.66 4570.15
4577.1 4613.53 4665.35 4707.21 4755.87 4769.42 4754.3 4719.1 4678.04 4682.97
4703.61

3036.24 3038.05 3039.86 3041.19 3044.98 3047 3051.5 3054.06 3057.1 3058.16
3060.34 3065.01 3066.01 3070.46 3072.07 3074.65 3077.89 3080 3082.28 3084.45
3088.96 3090 3090.71 3094.92 3096.11 3099.06 3101.09 3103.1 3107.15 3108.98
3111 3111.99 3114.63 3116.18 3117.85 3120.5 3119.71 3124.81 3124.54 3129.75
3126.87 3129.02 3130.1 3131.04 3133.95 3135.97 3140.67 3141.17 3144.31 3150.05
3150.93 3151.55 3154.66 3156.73 3157.56 3159.72 3159.98 3164.39 3164.72 3168.65
3175.75 3179.19 3185.57 3190.62 3194.24 3200.97 3213.1 3216.99 3222.44 3237.87
3243.51 3250.81 3258.61 3267.41 3277.48 3282.57 3286.89 3299.12 3323.99 3349.59
3370.48 3405.94 3450.55 3484.21 3490.99 3481.31 3499.21 3505.38 3530.88 3587.84
3646.77 3682.75 3688.67 3662.4 3626.4 3578.47 3579.09 3635.72 3677.49 3719.9
3750.88 3774.14 3794.17 3824.42 3866.64 3908.53 3947.95 3992.93 4014.64 4016.99
4003.89 3989.63 4001.57 4010.01 4016.04 4014.91 4010.73 3971.6 3909.41 3862.09
3804.7 3756.97 3759.94 3764.67 3761.54 3716.42 3652.17 3608.33 3548.65 3539.46
3563.49 3563.27 3572.36 3579.04 3553.48 3495.44 3432.16 3357.01 3298.34 3316.05
3338.97 3342.92 3366.04 3411.69 3467.64 3491.58 3481.49 3414.78 3368.67 3333.11
3305.58 3336.25 3373.75 3395.87 3434.29 3436.42 3465.78 3479.56 3491.5 3497.01
3514.11 3520.33 3539.9 3566.69 3572.13 3621.58 3639.86 3640.98 3687.53 3732.81
3724.02 3673.82 3725.19 3784.24 3781.99 3763.35 3745.55 3718.28 3702.91 3681.83
3669.53 3679.6 3687.17 3672.91 3668.47 3653.89 3629.99 3666.17 3699.63 3742.1
3780.01 3827.22 3893.77 3923.55 3953.3 4003.52 4016.68 4030.66 4060.95 4078.46
4109.93 4179.56 4251.51 4317.31 4390.76 4449.21 4479.85 4462.12 4355.35 4297.04
4274.9 4263.67 4295.4 4352.74 4405.28 4440.93 4417 4342.23 4270.26 4190.73
4128.53 4061.03 4018.83 3982.74 3988.67 4035.62 4098.86 4179.48 4256.5 4305.35
4316.62 4318.68 4320.24 4344.23 4378.18 4434.22 4467.23 4464.45 4423.68 4394.28
4360.18 4313.58 4267.54 4231.75 4201.69 4167.11 4099.03 4051.21 4028.53 3978.73
3914.15 3867.12 3893.65 3908.61 3939.05 3964.01 3991.09 4018 4050.31 4080.09
4104.48 4132.62 4208.34 4277.56 4343.7 4408.24 4460.4 4501.57 4497.79 4455.43
4414 4395.21 4392.65 4387.15 4387.76 4385.81 4437.52 4506.35 4581.25 4645.11
4749.48 4765.82 4778 4830.71 4863.57 4860.69 4784.62 4714.33 4638.21 4555.76
4533.52 4560.11 4590 4611.79 4668.28 4716.03 4737.35 4729.72 4726.38 4739.24
4753.18

3038 3040.4 3041.96 3045.97 3048 3049.01 3055.62 3056 3059.11 3061.43
3063.59 3067.06 3069.54 3072.91 3075.39 3078.31 3079.6 3083.17 3085.19 3089
3089.32 3093.48 3095.52 3097.92 3100.29 3102.27 3106 3109.47 3111.12 3112.29
3116.23 3116.64 3121 3120 3121.52 3123 3123 3125.28 3130.02 3129.41
3133.09 3134 3136.97 3137.25 3139 3142.8 3146.48 3147.66 3149.35 3151.44
3155.8 3158.81 3159.83 3164.02 3166.06 3166.79 3168.02 3170.23 3171.4 3176.11
3179.87 3182.93 3189.22 3193.97 3203.79 3210.5 3215.25 3224.59 3231.6 3238.85
3247.43 3257.3 3265.84 3275.54 3285.14 3293.43 3298.29 3306.9 3329.05 3361.17
3388.28 3422.46 3468.87 3511.41 3530.59 3532.41 3555.75 3556.81 3564.91 3579.28
3643.64 3685.77 3698.45 3687.77 3650.09 3609.84 3585.76 3633.33 3676.2 3709.65
3751.92 3785.98 3818.58 3865.11 3905.6 3946.98 3996.25 4007.25 4004.65 4001.12
3988.3 3977.82 3977.34 3975.23 3989.83 4007.03 4002.35 3976.92 3933.92 3894.9
3845.44 3787.58 3726.11 3714.85 3705.73 3690.29 3631.23 3583.93 3549.44 3591.97
3620.27 3619.12 3593.48 3596.1 3545.77 3474.07 3405.85 3340.06 3287.67 3314.67
3346.86 3351.32 3376.61 3445.85 3507.87 3549.43 3540.82 3482.51 3432.83 3383.49
3342.84 3300.76 3343.05 3365.18 3376.43 3390.17 3399.04 3421.49 3430.26 3436.42
3452.44 3465.62 3485.83 3502.61 3522.99 3557.42 3573.39 3593.56 3644.9 3664.36
3664.44 3630.86 3691.89 3733.16 3729.17 3710.8 3698.21 3664 3633.44 3631.94
3634.5 3651.68 3658 3633.11 3594.12 3623.46 3661.83 3695.81 3726.77 3785.56
3810.94 3851.46 3912.86 3972.95 4009.74 4027.65 4017.1 4019.95 4041.38 4063.61
4104.96 4177.49 4258.58 4322.64 4382.76 4445.47 4473.52 4462.01 4381.12 4297.98
4260.89 4252.98 4261.46 4305.21 4377.83 4406.09 4383.83 4318.97 4238.38 4176.9
4102.34 4038.01 3997.87 3971.48 3973.58 4027.68 4094.61 4169.63 4215.62 4219.38
4244.03 4256.92 4259.36 4285.35 4338 4393.49 4421.85 4428.88 4425.92 4396.92
4363.13 4306.86 4266.66 4232.54 4196.42 4166.55 4101.85 4028.52 3996.76 3956.35
3906.87 3865.7 3883.42 3912.01 3941.12 3970.97 4000.1 4034.49 4063.64 4096.37
4123.93 4154.34 4193.02 4239.11 4302.94 4373.54 4449.34 4511.37 4546.12 4522.75
4488.4 4453.53 4439.79 4435.85 4430.08 4425.14 4461.71 4523.29 4601.12 4669.27
4771.52 4817.36 4821.15 4841.79 4867.68 4848.55 4785.17 4698.88 4633.47 4557.73
4510.4 4500.74 4514.94 4551.21 4588.18 4623.34 4681.4 4699.44 4717.95 4743.08
4755.24

3039.48 3041.64 3044.6 3046.87 3050.98 3052.12 3055 3057.09 3062.26 3064
3065.44 3070 3071.65 3075.77 3078.17 3081 3082.97 3086.68 3088.62 3091.83
3094 3095.57 3099.57 3100.8 3103.01 3107.43 3108.35 3112.09 3115.94 3116.97
3119.06 3121.28 3123.72 3124.06 3126.41 3127.07 3129.8 3129.74 3134.22 3133.05
3136.66 3140 3141.04 3141.51 3144.91 3147.84 3148.48 3152.12 3152.66 3155.96
3162 3161.96 3166.02 3167.1 3171.55 3172.79 3175.15 3177.93 3178.94 3179.66
3182 3187.05 3192.88 3200 3208.28 3216.28 3221.28 3230.59 3237.2 3245.28
3253.35 3264.72 3270.63 3281.21 3291.98 3301.15 3309.28 3319.86 3336.18 3358.24
3395.68 3435.46 3475.3 3517.09 3563.76 3576.46 3603.02 3611.32 3621.43 3626.06
3652.52 3704.67 3730.46 3716.67 3687.82 3650.34 3630.86 3614.59 3657.8 3700.12
3734.62 3779.29 3815.6 3879.32 3936.43 4003.74 4026.03 4022.27 4018.91 4011.06
4001.97 3990.71 3961.41 3953.35 3964.94 3970.87 3971.42 3958.6 3936.45 3900.17
3852.97 3787.44 3736.56 3681.42 3652.78 3634.84 3602.06 3578.37 3575.02 3614.51
3657 3665.61 3631.95 3615.97 3558.07 3476.93 3393.97 3314.74 3297.13 3324.49
3353.18 3364.93 3388.65 3458.8 3523.69 3574.94 3577.79 3541.07 3517.47 3466.14
3400.58 3335.98 3321.16 3351.43 3368.27 3386.5 3390.64 3387.84 3380.67 3381.3
3400.15 3407.08 3434.91 3467.08 3485.16 3500.98 3524.59 3552.64 3582.87 3604.9
3611.59 3587.84 3645.02 3674.33 3669.26 3647.91 3638.38 3610.66 3588.77 3600.01
3599.16 3607.16 3610.58 3583.45 3614.97 3650.82 3690.68 3728.26 3778.07 3819.42
3866.17 3908.23 3946.56 4003.58 4048.45 4046.91 4015.46 4012.92 4026.55 4054.79
4100.73 4163.16 4221.51 4288.43 4359.38 4426.47 4461.68 4455.88 4374.18 4290.18
4257.99 4224.19 4215.17 4266.14 4335.25 4383.14 4370.45 4291.12 4215.46 4148.86
4081.81 4018.33 3979.33 3955.3 3962.35 4017.21 4100.45 4157.27 4173.71 4205.22
4230.94 4263.84 4266.85 4270.38 4316.47 4377.02 4396.35 4392 4390.61 4373.52
4344.07 4289.58 4230.68 4209.81 4168.39 4123.09 4062 3986.16 3962.15 3913.12
3864.35 3859.29 3892.02 3923.11 3960.32 4010.89 4037.91 4072.22 4105.93 4114.89
4136.03 4169.63 4214.34 4269.28 4298.34 4348.29 4412.35 4498.55 4556.31 4582.09
4549.98 4542.09 4500.76 4477 4474.36 4473.71 4505.74 4543.15 4599.42 4659.64
4730.2 4812.88 4809.09 4792.65 4798.15 4821.77 4767.23 4678.38 4608.31 4528.76
4491.72 4486.81 4487.78 4521.05 4547.7 4574.74 4597.42 4603.85 4638.2 4667.61
4696.97

3043.54 3044.19 3047.79 3050.03 3052.14 3054.27 3058 3062 3062.79 3067.01
3069.03 3072 3073.97 3078.95 3081.09 3082.62 3086.05 3087.61 3091 3095
3098.66 3100.07 3101.07 3105.34 3106.49 3111.08 3112.61 3116.12 3117 3119.25
3122.07 3125.67 3124.86 3128 3131.65 3134.61 3135.58 3136.56 3138.01 3140
3142.94 3141.72 3145.36 3148.01 3148.57 3149.28 3152.34 3157.01 3161.34 3163.47
3164.7 3168.98 3170.94 3174.31 3176.12 3178.76 3181.62 3184.17 3183.91 3188.57
3187.79 3189.42 3195.28 3199.97 3209.95 3218 3225.29 3234.25 3243.24 3248.96
3259.84 3268.06 3274.42 3290.07 3299.72 3312.69 3320.11 3325.45 3343.79 3368.55
3395.68 3432.13 3471.16 3518.64 3563.07 3589.61 3633.64 3658.86 3673.46 3677.91
3691.01 3734.56 3761.01 3758.27 3728.73 3691.77 3679 3636.05 3677.34 3730.62
3771.27 3811.98 3853.49 3889.29 3938.21 4006.02 4040.65 4049.68 4052.62 4046.15
4034.94 4022.24 3991.22 3966.08 3941.23 3915.68 3914.19 3904.33 3903.46 3877.78
3826.86 3773.67 3731.79 3680.92 3638.46 3611.63 3624.33 3639.74 3638.17 3634.04
3684.78 3699.31 3688.7 3643.99 3566.78 3513.4 3429.56 3365 3303.08 3338.46
3358.18 3371.75 3398.57 3461.79 3534.18 3591.38 3620.05 3610.51 3578.6 3534.16
3456.93 3388.57 3343.18 3329.19 3349.16 3356.1 3363.98 3362.12 3331.52 3329.5
3355.44 3381.6 3411.47 3434.22 3439.09 3464.24 3479.89 3492.25 3517.74 3543.5
3545.51 3555.17 3600.12 3606.67 3601.15 3589.39 3571.87 3559.96 3560.67 3570.55
3574.2 3555.38 3550.7 3601.35 3636.97 3678.92 3721.3 3774.27 3828.52 3877.99
3921.02 3970.86 4010.95 4054.03 4068.89 4048.13 4005.45 3997.82 4012.52 4046.75
4099.21 4155.66 4211.46 4272.9 4340.77 4409.81 4455.36 4440.52 4373.76 4292.96
4247.63 4199.84 4182.3 4230.2 4300.71 4339.42 4325.61 4270.61 4205.06 4121.49
4049.99 3991.91 3970.49 3943.92 3954.18 4007.72 4074.73 4122.27 4139.97 4169.85
4216.38 4244.13 4254.19 4292.55 4348.44 4380.26 4382.26 4356.91 4328.5 4328.39
4305.25 4268.99 4209.78 4153.58 4117.85 4079.53 4032.09 3965.85 3913.19 3879.14
3834.56 3857.98 3894.67 3935.86 3977.64 4024.44 4067.17 4100.17 4129.92 4176.42
4173.21 4197.27 4236.56 4281.77 4309.43 4351.22 4416.21 4492.95 4564.13 4621.25
4625.58 4623.6 4585.93 4539.89 4527.27 4516.14 4552.24 4567.57 4595.39 4638.5
4688.17 4748.06 4742.03 4714.89 4713.07 4735.29 4738.38 4652.77 4583.02 4503.37
4477.55 4471.96 4468.18 4470.85 4501.84 4514.31 4523.57 4527.7 4543.19 4571.4
4630.04

3044.28 3049.23 3051.98 3053.16 3055.07 3057.96 3060.48 3062.02 3065.13 3069.15
3072.02 3075 3079.31 3081 3083.06 3087.03 3088.33 3091.06 3092.31 3096.2
3100.59 3104.15 3105.19 3108.14 3113.96 3113.47 3114.07 3118.79 3119 3122.65
3128.3 3129.61 3130.36 3132.7 3134.03 3135.61 3138.1 3139.82 3142.25 3143.38
3145.07 3148.13 3152.11 3153.31 3153.36 3157.24 3156.5 3163.85 3164.99 3170.43
3170.47 3171.96 3174.18 3178.16 3182.53 3184.65 3184.96 3188 3187.64 3189.02
3194.96 3195.91 3200.1 3207.08 3211.03 3220.88 3227.07 3235.96 3244.93 3256.62
3265.3 3274.34 3288.91 3296.38 3310.08 3320.46 3326.67 3337.97 3348.27 3368.5
3389.9 3428.23 3461.19 3501.27 3538.91 3581.82 3636.49 3667.08 3689.88 3700.6
3726.26 3760.17 3788.66 3792.74 3776.02 3748.45 3710.57 3677.5 3670.28 3723.13
3772.6 3821.5 3870.65 3927.3 3958.04 4005.46 4040.42 4071.8 4082.26 4073.07
4051.05 4026.91 4004.6 3988.44 3950.82 3905.49 3888.69 3854.37 3844.74 3829.6
3818.99 3765.07 3714.31 3678.16 3651.35 3688.85 3707.37 3704.4 3699.81 3676.58
3708.42 3724.59 3718.13 3690.47 3602.74 3541.52 3467.45 3401.7 3331.11 3341.12
3358.97 3373.14 3399.9 3465.4 3538.42 3596.08 3634.49 3636.76 3615.98 3582.46
3498.73 3433.38 3378.66 3330.91 3311.49 3310.95 3310.28 3332.15 3345.97 3347.9
3344.46 3339.55 3376.11 3403.86 3416.51 3435.6 3446.18 3446.26 3462.81 3482.93
3498.02 3512.69 3525.06 3527.86 3535.56 3538.21 3529.14 3530.64 3545.53 3551.68
3548.04 3530.83 3587.3 3627.98 3669.67 3721.49 3771.05 3826.09 3878.57 3927.22
3973.91 4027.66 4079.16 4097.31 4082.58 4036.58 3987.98 3977.43 3988.22 4029.99
4084.04 4131.15 4190.07 4261.49 4326.57 4394.32 4447.27 4434.96 4375.4 4285.31
4222.17 4166.63 4161.49 4197.29 4274.49 4312.35 4278.05 4222.66 4163.23 4095.45
4023.17 3977.15 3949.05 3922.29 3954 3990.44 4050.16 4076.17 4091 4156.45
4179.79 4218.13 4282.08 4344.09 4384.22 4388.62 4367.5 4309.36 4288.8 4267.2
4260.35 4243.95 4198.62 4128.47 4065.05 4014.96 3991.51 3944.21 3896.1 3846.75
3831.5 3875.55 3916.2 3956.19 4004.46 4051.73 4090.16 4114.79 4160.98 4215
4250.15 4250.29 4264.48 4296.98 4303.56 4341.93 4386 4447.39 4508.21 4611.6
4635.2 4678.91 4659.83 4608.84 4593.88 4584.55 4591.56 4591.79 4609.12 4623.41
4658.22 4715.23 4713.73 4678.62 4661.73 4650.66 4667.94 4637.8 4572.57 4505.39
4462.17 4452.29 4448.05 4445.55 4437.73 4435.56 4449.55 4453.56 4482.28 4496.79
4527

3047.65 3050.08 3053.58 3056.56 3056.73 3061.16 3064.41 3065.13 3067.41 3072.03
3076.39 3077 3079.43 3083.31 3087.32 3091.33 3092.5 3096 3096 3100.01
3103.36 3107.45 3109.88 3113.59 3117.15 3116.64 3119.16 3124.47 3124.45 3126.42
3129.94 3133.06 3136.95 3139.93 3138.33 3138.95 3143.06 3146 3147.9 3146.84
3148.07 3153.75 3154.76 3156.52 3159.52 3164.88 3166.99 3166.88 3166.38 3172.97
3177.01 3180.18 3182.22 3185.93 3186.51 3188.86 3191.02 3194.16 3192.84 3195.65
3200.71 3203.59 3204.39 3208.77 3213.65 3222.05 3231.07 3239.53 3250.74 3258.09
3269.38 3281.33 3290.42 3301.09 3312.37 3325.3 3333.21 3348.55 3356.86 3370.97
3390.55 3416.98 3449.54 3484.66 3524.61 3575.06 3612.32 3659.64 3678.31 3696.1
3725.73 3757.92 3787.71 3798.62 3809.45 3793.59 3749.67 3721.15 3698.22 3717.78
3740.47 3809.18 3866.58 3926.89 3964.82 3994.14 4030.93 4079.16 4095.8 4076.49
4048.4 4017.21 4001.79 3981.91 3963.76 3963.51 3939.39 3903.52 3841.85 3780.15
3761.16 3734.44 3699.28 3688.13 3682.54 3748.72 3786.29 3787.19 3743.38 3740.29
3754.76 3758.18 3752.82 3704.27 3627.77 3552.19 3478.83 3401.04 3341.61 3329.08
3366.74 3378.93 3412.57 3466.97 3534.58 3591.16 3636.49 3646.63 3634.15 3595.25
3535.58 3487.51 3442.4 3405.78 3342.38 3330.47 3339.95 3357.26 3367.21 3366.46
3368.62 3361.78 3347.82 3365.23 3384 3400.01 3410.53 3422.03 3434.44 3455.99
3471.35 3477.99 3477.43 3481.58 3488.06 3501.79 3504.1 3514.28 3522.35 3522
3509.36 3558.4 3600.36 3658.11 3713.73 3780.21 3824.71 3881.79 3932.45 3991.49
4038.4 4081.83 4103.9 4103.66 4082.72 4023.18 3977.46 3943.66 3965.01 4000.9
4055.6 4110.73 4175 4247.12 4314.08 4388.95 4435.79 4425.53 4362.81 4277.38
4206.99 4147.03 4147.39 4173.28 4245.43 4276.76 4247.74 4176.03 4121.65 4063.87
3994.74 3954.55 3924.07 3909.39 3945.63 3979.68 4024.63 4059.45 4103.44 4156.49
4214.47 4265.56 4329.4 4380.92 4414.9 4411.11 4360.56 4293.5 4242.77 4207.98
4203.8 4186.25 4144.33 4106.27 4044.37 3986.78 3943.05 3912.39 3864.82 3819.92
3850.44 3901.88 3940.2 3986.21 4060.15 4089.81 4119.11 4139.49 4173.96 4213.73
4289.24 4327.27 4312.63 4323.44 4312.37 4315.02 4343.17 4400.15 4476.74 4543.94
4614.32 4694.56 4715.03 4689.52 4682.67 4659.48 4667.06 4658.73 4638.55 4636.25
4679.87 4711.77 4695.72 4647.76 4632.31 4615.37 4616.42 4623.95 4597.25 4530.22
4452.94 4440.26 4427.37 4419.54 4407.77 4383.5 4370.82 4394.55 4419.41 4436.1
4457.34

3047.5 3053.46 3055.01 3059.44 3061.13 3063.53 3067.12 3070.09 3072.22 3073
3078.16 3079.46 3083.16 3086.08 3088.13 3093 3095.01 3098 3098.15 3102.57
3105.59 3109.32 3112.2 3115.99 3118 3118.83 3123.75 3125.26 3129.13 3129.02
3134.21 3135.93 3140 3143.3 3143.04 3146.48 3147 3150.02 3153.22 3153.01
3153.55 3154.66 3161.88 3161.27 3166.45 3168.05 3170.92 3171.41 3172.62 3179.99
3181.25 3186.94 3189.99 3189.44 3194.53 3193.77 3196.75 3199.9 3200.17 3202.64
3205.52 3209.6 3210.16 3212.74 3215 3223.49 3234 3239.27 3256.49 3262.31
3272.27 3284.13 3295.59 3309.67 3319.09 3332.06 3342.36 3352.88 3366.51 3377.74
3392.87 3414.03 3444.26 3476.77 3511.8 3554.82 3596.84 3612.36 3635.82 3653.45
3690.14 3722.06 3763.32 3799.6 3831.96 3819.12 3790.42 3786.67 3742.93 3741.95
3758.25 3793.71 3860.08 3889.61 3920.02 3952.28 4002.04 4066.39 4087.69 4075.37
4044.58 4034.74 4028.04 4014.21 4006.85 4005.16 3974.73 3921.3 3853.41 3794.77
3748.85 3738.33 3759.77 3742.21 3721.85 3765.12 3831.78 3837.66 3804.36 3800.31
3811.51 3802.98 3787.55 3728.29 3658.9 3583.26 3487.2 3425.44 3354.46 3332.04
3371.29 3387.69 3434.57 3470.53 3502.5 3555.99 3619.16 3674.75 3688.69 3651.56
3590.35 3553.42 3514.33 3461.54 3422.78 3402.12 3394.92 3391.65 3393.29 3376.52
3379 3375.48 3364.4 3349.81 3346.42 3350.3 3361.65 3390.88 3404.41 3421.47
3444.49 3456.29 3455.25 3470.45 3470.77 3479.75 3489.17 3499.65 3499.96 3488.59
3543.47 3576.04 3634.06 3697.62 3767.28 3838.14 3881.69 3931.82 3979.67 4023.9
4071.65 4104.06 4108.67 4092.15 4056.75 4002.66 3952.01 3923.7 3943.03 3985.62
4037.24 4094.3 4164.92 4238.21 4311 4382.32 4427.75 4407.99 4337.37 4261.93
4198.1 4136.37 4129.96 4156.13 4227.87 4258.52 4233.41 4165.6 4087.56 4025.02
3974.78 3941.69 3913.98 3907.91 3939.63 4002.85 4058.38 4107.35 4151.97 4213.84
4262.21 4316.67 4359.84 4403.26 4417.58 4403.72 4348.95 4290.81 4223.36 4176.14
4157.7 4142.76 4092.25 4057.55 4005.21 3962.61 3903.17 3863.68 3817.85 3825.46
3867.87 3926.97 3972.23 4031.01 4098.87 4144.13 4141.78 4158.52 4192.71 4225.37
4281.98 4351.68 4377.35 4357.89 4345.26 4318.81 4330.39 4368.23 4425.62 4507.42
4612.69 4699.04 4763.17 4800.36 4761.26 4748.72 4757.35 4738.47 4685.61 4662.85
4673.2 4684.98 4616.59 4577.39 4584.94 4585.12 4583.59 4588.85 4592.2 4552.42
4472.15 4424.6 4413.76 4398.45 4385 4359.68 4349.76 4346.56 4360.39 4368.35
4372.25

3050.01 3055.38 3056.08 3062 3062 3065.02 3068.09 3072 3072.17 3076.89
3079.03 3082.06 3085.97 3088.01 3092.08 3095 3097.5 3100.46 3103.43 3106.39
3110 3112.06 3116.25 3118.59 3120.37 3123.85 3126.01 3128.88 3131.11 3133
3135.52 3140 3142.99 3146 3146.58 3149.61 3151.29 3153.66 3155.61 3156.42
3158.58 3161.13 3163.87 3166.22 3171.26 3174.81 3173.89 3178 3179.1 3182.99
3186.53 3190 3194.08 3197 3201.13 3201.9 3203.56 3205.22 3208.45 3210.64
3213.11 3216 3216 3219.61 3220.38 3230.35 3236.09 3241.51 3255.82 3264.09
3275.9 3288.56 3303.4 3313.62 3325.6 3339.61 3350.45 3362.69 3378.73 3390.04
3400.34 3412.87 3438.64 3467.07 3497.53 3533.15 3557.27 3578.55 3601.88 3635.21
3676.72 3719.22 3769.2 3820.96 3858.54 3864.03 3852.88 3820.83 3800.84 3792.69
3782.77 3799.97 3820.27 3862.74 3924.96 3949.01 3988.71 4036.66 4079.56 4080.1
4074.4 4072.7 4059.04 4026.85 4013.36 4005.29 3969.29 3914.32 3846.38 3794.99
3757.34 3803.16 3810.17 3781.3 3779.72 3785.53 3837.09 3870.05 3866.01 3866.22
3836.38 3811.34 3786.86 3724.35 3648.46 3588.14 3489.32 3421.6 3373.84 3320.49
3368.95 3394.15 3436.62 3474.04 3518.05 3567.07 3623.22 3679.85 3692.65 3683.87
3658.54 3624.7 3591.63 3561.33 3498.08 3468.78 3451.38 3443.97 3414.13 3390.95
3399.72 3393.89 3393.29 3382.72 3374.78 3366.23 3356.63 3357.9 3363.32 3388.45
3411.56 3422.94 3449.12 3451.02 3459.09 3461.81 3457.96 3466.19 3471.72 3523.62
3555.98 3600.88 3665.58 3734.5 3806.87 3861.79 3914.91 3962.84 4004.75 4041.4
4076.92 4105.68 4098.05 4056.94 4011.56 3970.29 3921.16 3892.52 3928.4 3969.33
4029.9 4087.6 4152.26 4228.14 4298.45 4370.65 4408 4387.09 4325.54 4240.17
4184.26 4119.09 4112.89 4145.49 4215.81 4237.37 4199.09 4124.54 4048.53 3990.01
3944.77 3921.91 3885.34 3905.5 3979.96 4031.44 4084.21 4133.78 4189.54 4250.01
4302.87 4361.48 4395.33 4403.58 4403.64 4366.15 4312.54 4264.87 4209.32 4159.01
4117.79 4110.08 4070.01 4005.1 3950.61 3910.34 3869.14 3827.57 3811.44 3855.2
3897.19 3946.56 4015.84 4081.58 4147.34 4194.01 4189.87 4190.18 4209.85 4234.36
4288.47 4359.18 4423.13 4400.52 4368.04 4354.17 4326.82 4354.86 4384.35 4484.51
4578.27 4695.01 4782.31 4831.72 4841.36 4838.27 4827.58 4794.73 4735.33 4716.6
4694.31 4639.1 4570.45 4528.7 4549.7 4558.05 4559.59 4547.41 4557.65 4567.81
4496.41 4421.91 4403.88 4391.7 4377 4349.69 4333.85 4330.98 4315.65 4306.84
4309.33

3051.16 3054.18 3057.16 3060.73 3064 3067.95 3070.37 3075.67 3075.92 3078.51
3083.2 3084.54 3088.21 3092.74 3094.89 3097.32 3100.07 3104 3108.88 3111.9
3113.37 3115.01 3119 3120.78 3122.24 3125.25 3130.36 3133.99 3134.88 3141.58
3142.99 3144.91 3148.73 3150.41 3153.15 3152.93 3153.19 3158.03 3162 3161.29
3165.93 3167.72 3170 3172 3172.41 3175.54 3176 3183.65 3184.32 3187.05
3190.31 3193.99 3199.07 3201 3206.72 3208 3210.03 3212.21 3213.35 3217.02
3219.69 3220.95 3223.74 3227.39 3229.54 3234.9 3240.92 3252.87 3256.14 3268.14
3284.1 3288.15 3301.81 3317.42 3330.92 3347.71 3362.88 3376.35 3389.92 3402.68
3414.28 3418.06 3433.19 3456.31 3481.27 3504.65 3527.36 3575.91 3623.2 3663.94
3707.31 3743.98 3788.69 3826.28 3865.01 3898.82 3901.3 3877.33 3861.79 3859.42
3837.46 3854.4 3851.48 3868.21 3927.03 3976.52 3997.9 4039.88 4093.3 4112.48
4114.48 4098.58 4056.46 4011.87 3974.26 3975.45 3942.81 3893.84 3842.05 3798.27
3821.41 3866.69 3872.87 3826.88 3839.52 3849.14 3870.46 3900.6 3890.66 3871.72
3830.64 3780.47 3753.8 3714.31 3645.2 3576.57 3503.2 3421.04 3372.19 3313.26
3363.1 3409.36 3443.12 3485.13 3527.29 3580.93 3618.98 3638.61 3649.04 3686.59
3698.69 3695.2 3652.29 3621.83 3553.23 3531.77 3512.34 3469.94 3429.31 3406.37
3413.09 3416.22 3418.69 3411.42 3396.06 3385.84 3386.56 3380.77 3363.14 3359.8
3365.23 3379.89 3390.8 3403.32 3421.27 3418.51 3447.17 3465.87 3490.76 3528.99
3581.83 3630.19 3704.61 3766.24 3819.65 3858.17 3915.16 3960.31 3997.16 4022.3
4045.23 4061.9 4057.42 4015.81 3958.75 3916.59 3875.95 3869.33 3925.25 3985.87
4051.88 4124.52 4175.32 4225.54 4278.89 4340.88 4360.71 4351.1 4299.86 4229.72
4153.34 4096.23 4095.24 4129.25 4212.26 4211.43 4139.21 4084.62 4014.05 3958.38
3919.85 3890.54 3863.6 3900.07 3989.27 4070.51 4120.01 4173.09 4234.99 4291.71
4344.95 4395.68 4403.87 4387.92 4363.16 4322.03 4275.18 4220.6 4172.28 4126.4
4071.16 4069.3 4054.27 3997.33 3938.19 3871.92 3836.02 3798.41 3841.05 3881.96
3924.32 3981.9 4042.09 4113.86 4186.44 4237.47 4238.82 4238.76 4242.94 4267.18
4293.47 4373.43 4445.98 4471.72 4406.19 4384.05 4368.38 4364 4394.97 4456.74
4563.11 4650.99 4761.48 4845.64 4907.03 4906.44 4887.16 4844.53 4792.99 4768.74
4704.56 4626.89 4544.11 4497.19 4500.15 4502.17 4503.63 4505.41 4508.5 4551.81
4524.77 4465.11 4391.75 4381.06 4367.13 4340.64 4321.81 4323.11 4305.88 4299
4286

3053.97 3057.45 3058 3064.57 3065.64 3069.65 3074.21 3076.96 3079.01 3084.14
3084.35 3088.62 3091.91 3092.32 3096 3098.13 3103.08 3106.67 3109.15 3112
3115.34 3116.69 3121.5 3123.05 3127.13 3127.43 3132.68 3136.89 3139.98 3141.54
3146.01 3151.01 3151.03 3153.03 3156.33 3156.56 3158.85 3161.91 3165.96 3165.05
3168.05 3171.56 3174 3177.15 3179.61 3182.07 3183.41 3187.13 3190.01 3194.22
3198.18 3203.27 3205 3211.23 3212.04 3213.1 3215.99 3219.2 3222.41 3223.03
3226.86 3226.9 3231.63 3231.44 3235.56 3239 3245.67 3253.46 3259.97 3270.92
3284.89 3292.46 3306.94 3324.29 3340.26 3359.4 3370.72 3391.53 3398.17 3415.82
3429.07 3436.21 3451.71 3461.8 3475.97 3492.92 3524.54 3573.82 3619.49 3665.46
3708.42 3742.91 3773.63 3795.38 3847.43 3899.01 3941.59 3939.01 3934.21 3919.82
3886.59 3909.06 3911.84 3878.63 3935.03 3981.89 4006.01 4042.98 4091.22 4135.84
4139.56 4096.8 4043 3991.3 3958.73 3921.68 3897.74 3864.95 3846.27 3866.95
3886.52 3922.42 3913.48 3882.17 3902.83 3911.45 3926 3926.37 3883.78 3829.95
3787.77 3734.35 3708.78 3683.45 3638.39 3558.34 3507.29 3430.94 3371.69 3315.43
3371.96 3414.46 3449.46 3485.08 3517.68 3555.57 3570.29 3582.45 3621.29 3670.71
3726.45 3751.56 3722.6 3693.32 3622.41 3587.67 3570.94 3517.94 3455.23 3428.17
3433.46 3443.31 3450.56 3435.45 3427.41 3439.53 3431.11 3435.25 3419.6 3392.6
3373.84 3373.59 3377.58 3375.91 3388.09 3430.79 3449.39 3469.36 3487.52 3543.38
3621.22 3661.01 3709.12 3765.47 3806.26 3837.3 3870.71 3910.7 3947.63 3963.13
3984.51 4008.48 4014.01 3977.19 3920.95 3876.18 3840.68 3862.06 3931.74 3998.41
4071.08 4138.44 4197.89 4238.79 4279.91 4283.11 4301.83 4304.26 4258.84 4188.5
4120.65 4070.75 4074.43 4124.1 4167.71 4154.08 4099 4046.14 3977.61 3928.21
3889.32 3860.39 3847.28 3920.64 3990.86 4087.54 4145.17 4220.32 4284.11 4340.96
4383.87 4395.69 4387.92 4358.3 4334.88 4271.82 4221.82 4194.25 4170.96 4103.82
4050.49 3992.44 3983.57 3953.93 3895.74 3832.51 3792.19 3821.14 3857.62 3904.1
3962.74 4027.69 4081.64 4140.19 4213.12 4276.89 4297.75 4296.66 4289.58 4301.81
4313.46 4374.24 4446.31 4483.32 4476.34 4423.42 4414.22 4402.32 4429.19 4476.58
4553.01 4637.71 4719.86 4815.18 4908.17 4925.79 4935.84 4871.78 4829.8 4766.88
4684.38 4625.45 4540.31 4478.06 4459.48 4441.82 4438.08 4453.96 4459.33 4501.3
4518.2 4487.46 4425.68 4381.32 4364.81 4338.83 4309.54 4298.15 4293.74 4283.28
4274.81

3056.14 3060.57 3061.46 3065.55 3069 3073.58 3075.05 3077 3082.24 3086.24
3088.12 3090.98 3096.03 3097.03 3097.59 3103.9 3105.69 3108 3111.57 3114.09
3118.04 3120.57 3125.42 3126.78 3135.47 3135.32 3137.52 3139.53 3144.83 3145.01
3150 3151.96 3153.8 3158.09 3159.98 3161.05 3163.65 3166.75 3168.41 3169.23
3173.55 3175.61 3176.04 3180.08 3182.86 3186.47 3187.28 3194.15 3195.1 3199.2
3202.01 3207.1 3211.32 3213.02 3217.41 3223.32 3225.95 3226.1 3228.97 3229.5
3233.78 3236.43 3237.25 3240.85 3242.6 3250.07 3255.1 3258.8 3266.79 3278.03
3287.17 3297.1 3309.33 3329.63 3350.33 3378.82 3388.96 3410.08 3426.95 3434.36
3441.68 3461.09 3477.56 3487.06 3493.01 3504.97 3519.44 3555.63 3596.96 3644.08
3667.05 3693.33 3718.78 3769.66 3821.89 3882.9 3948.25 3981.06 3980.81 3971.66
3937.86 3954.39 3967.13 3930.33 3920.24 3940.6 3976.3 4018.06 4075.8 4133.07
4142.91 4109.84 4057.44 4027.79 4006.58 3961.14 3938.77 3937.76 3892.15 3932.37
3941.83 3974.51 3974.36 3946.27 3947.06 3949.71 3939.96 3918.1 3869.49 3802.63
3739.93 3677.13 3650.09 3626.47 3596.04 3548.79 3484.91 3414.59 3355.83 3335.22
3388.03 3421.31 3449.63 3474.27 3490.82 3508.6 3531.31 3566.42 3617.26 3677.51
3741.77 3793.88 3794.86 3755.23 3699.17 3652.79 3623.73 3571.04 3485.14 3458.43
3471.04 3458.6 3458.53 3457.22 3458.42 3452.66 3450.99 3484.42 3489.08 3462.31
3438.96 3411.72 3405.07 3410.55 3395.58 3431.9 3451.94 3455.07 3488.65 3564.14
3631.2 3664.65 3693.67 3739.08 3737.95 3762.09 3810.16 3863.16 3883.01 3890.41
3916.41 3957.77 3958.08 3944.52 3883.92 3836.81 3813.58 3851.14 3925.73 4005.2
4078.3 4131.73 4184.15 4227.5 4226.83 4204.32 4236.54 4242.23 4211.26 4148.62
4087.06 4046.69 4067.28 4123.31 4141.59 4104.52 4053.38 4007.52 3946.13 3896.56
3872.88 3838.06 3872.88 3956.2 3991.4 4086.86 4142.07 4215.31 4292.53 4364.82
4395.45 4388.58 4368.51 4325.74 4277.88 4229.81 4177.48 4123.28 4121.94 4089.54
4048.61 3980.19 3921.69 3901.31 3847.89 3804.18 3804.55 3834.9 3875.44 3927.03
3979.84 4049.19 4116.16 4177.49 4220.02 4280.77 4342.88 4359.79 4358.87 4342.53
4343.92 4369.23 4422.82 4477.44 4506.99 4496.72 4475.78 4448.04 4469.3 4498.06
4572.89 4635.27 4717.57 4784.99 4866.03 4918.99 4933.23 4859.81 4788.98 4735.07
4688.34 4636.17 4547.68 4463.84 4439.21 4426.57 4413.07 4411.93 4421.74 4438.64
4500.49 4498.69 4477.23 4429.33 4369.28 4319.37 4298.14 4280.89 4272.36 4270.78
4257.82

3058.91 3060.95 3066.19 3067.21 3071.05 3074.27 3079.92 3079.62 3084.89 3086.08
3089.28 3093.81 3097.61 3099.46 3101.61 3107.67 3111.23 3113.19 3112.53 3120.19
3121.13 3126.02 3125.52 3132.06 3137.21 3136.58 3139.16 3143.73 3144.96 3148.95
3153.83 3154.74 3157.82 3159.7 3162.86 3165 3168.72 3170.99 3172.97 3173.92
3177 3179.72 3181.69 3184.51 3187.59 3189.59 3195.15 3199.06 3199.97 3202.34
3209.16 3210.49 3217.75 3219.91 3220.65 3227.11 3229.76 3232 3238.14 3241.76
3243.7 3242.11 3242.11 3245.52 3247 3254.96 3261.06 3267.37 3274.92 3283.6
3295.86 3305.74 3320.64 3350.15 3387.56 3416.77 3429.92 3457.36 3468.52 3478.98
3479.02 3466.49 3488.48 3514.23 3543.05 3554.02 3546.11 3544.64 3567.65 3603.18
3633.28 3679.03 3734.68 3782.58 3822.74 3875.59 3933.86 3976.37 3983.31 3993.2
3984.05 3997.13 4001.35 3981.6 3961.46 3966.78 4003.68 4031.39 4072.26 4135.55
4162.77 4138.05 4106.53 4090.4 4048.77 4002.55 4005.6 3990.95 3939.62 3976
3994.92 3993.09 3978.35 3951.83 3948.71 3942.49 3922.93 3878.23 3827.71 3785.28
3729.47 3671.88 3618.4 3551.84 3518.54 3498.91 3458.32 3406.45 3346.27 3349.84
3396.89 3431.24 3467.37 3495 3523.01 3537.63 3565.62 3581.18 3621.24 3683.11
3750.71 3809.68 3825.64 3808.62 3744.17 3710.67 3668.06 3576.05 3500.63 3498.42
3513.99 3503.57 3496.27 3493.09 3498.37 3494.04 3486.76 3529.68 3540.43 3524.26
3494.25 3482.73 3460.02 3433.14 3427.2 3405.48 3407.87 3432.6 3475.35 3535.78
3595.57 3601.2 3645.33 3675.54 3683.57 3710.65 3769.7 3809.93 3815.18 3828.56
3875.63 3913.82 3909.24 3883.51 3843.9 3804.37 3785.55 3849.98 3920.43 3986.77
4039.93 4098.78 4161.32 4181.7 4159.76 4131.11 4174.01 4191.08 4157.27 4096.69
4048.03 4024.94 4053.26 4108.55 4109.03 4067.59 4007.57 3964.63 3914.75 3878.12
3851.32 3817.66 3904.1 3962.19 4024.89 4088.77 4157.47 4228.82 4288.57 4354.33
4392.77 4379.63 4347.06 4300.33 4225.7 4174.99 4124.58 4070.34 4038.64 4039.02
4013.53 3974.59 3896.35 3844.76 3813.99 3787.39 3820.51 3852.39 3895.77 3962.64
4020.64 4058.12 4117.49 4181.37 4225.47 4286.62 4349.74 4394.68 4406.17 4388.52
4363.77 4364.23 4392.23 4430.59 4510.7 4552.04 4547.54 4510.09 4497.55 4527.63
4574.99 4614.7 4666.24 4757.91 4808.92 4898.52 4897.49 4839.84 4759.54 4712.21
4692.32 4660.06 4577.22 4497.1 4427.9 4425.05 4408.83 4395.41 4386.77 4402.12
4435.43 4488.16 4481.52 4456.19 4411.49 4346.65 4294.64 4278.37 4257.25 4255.42
4238.6

3058.14 3060.09 3067 3069.89 3073.96 3079 3078.53 3081.74 3087 3089.48
3092.44 3096.06 3098.42 3103.41 3107 3108.29 3111.4 3116.75 3118.19 3124
3123.16 3125.67 3129.91 3132.1 3138.91 3142 3143 3144.51 3149.91 3152.53
3156.93 3158.05 3161.93 3164.14 3167.13 3170 3174.08 3175.8 3178.18 3179.4
3181.69 3183.92 3187.02 3190.22 3195.98 3200 3199.48 3203.04 3209.55 3212.4
3214.2 3218.81 3223.15 3224.62 3229.86 3234.04 3235.12 3241.15 3242.09 3243.67
3248.93 3249.1 3250.25 3255.39 3255.05 3262.51 3269.73 3279.03 3284.16 3294.03
3307.8 3320.29 3333.42 3365.94 3406.28 3452.95 3465.99 3503.52 3517.31 3535.07
3527.48 3496.67 3500.2 3526.89 3564.65 3604.36 3608.09 3607.2 3595.68 3588.67
3622.14 3671.21 3728.75 3751.2 3793.11 3843.83 3900.29 3933.42 3958.78 3995.39
4031.38 4033.37 4030.86 4011.61 3997.97 4006.76 4031.91 4075.04 4119.69 4157.29
4179.29 4171.31 4162.86 4139.57 4094.78 4060.7 4069.39 4027.53 3991.42 4015.34
4017.64 3991.4 3945.46 3911.76 3894.08 3881.29 3881.59 3838.69 3778.77 3723.34
3695.6 3661.92 3622.76 3566.32 3508.09 3458.14 3417.22 3372.96 3335.61 3355.9
3404.22 3445.75 3481.73 3517.76 3545.8 3572.86 3615.58 3634.08 3658.04 3702.89
3762.03 3818.28 3844.97 3828.45 3771.44 3735.45 3663.19 3573.4 3500.78 3542.16
3568.35 3573.31 3568.3 3563.61 3566.25 3527.69 3530.65 3588.01 3601.77 3586.91
3562.65 3550.21 3499.3 3464.97 3457.47 3439.34 3412.09 3401.38 3418.54 3461.13
3508.57 3531.39 3581.4 3595.75 3620.99 3684.21 3743.02 3737.74 3737.42 3784.59
3857.96 3883.73 3865.68 3844.57 3804.49 3765.6 3767.86 3822.65 3895.25 3957.09
4026.87 4076.34 4099.91 4117.28 4097.51 4064.79 4106.55 4136.4 4122.35 4061.19
4022.9 4006.68 4065.94 4111.75 4104.53 4058.22 3994.74 3942.48 3897.84 3848.33
3824.93 3802.08 3901.91 3974.37 4041.06 4096.06 4162.26 4224.64 4279.72 4325.31
4358.47 4332.21 4286.27 4242.18 4214.69 4157.59 4127.51 4076.31 4003.55 3948.99
3946.32 3928.36 3867.23 3821.61 3783.2 3786.45 3833.11 3869.84 3911.92 3987.97
4057.07 4090.06 4127.91 4173.5 4210.21 4254.6 4312.35 4394.82 4421.5 4419.09
4386.74 4388.08 4412.81 4424.33 4476.25 4550.16 4571.05 4552 4520.85 4534.26
4558.17 4599.56 4647.26 4719.82 4804.13 4872.74 4887.48 4838.8 4759.16 4700.23
4691.07 4668.35 4589.72 4526.09 4429.75 4403.95 4395.75 4380.42 4364.21 4365.5
4390.55 4396.53 4415.51 4438.98 4421.09 4384.73 4336.39 4271.85 4250.93 4240.12
4224.75

3059.87 3065 3067.88 3070.41 3075.96 3077.13 3081.55 3087.04 3088 3092.42
3096 3098 3100.91 3105.74 3110 3110.37 3112.17 3117.91 3122.82 3125
3127.56 3130.45 3136.34 3138.03 3140.6 3142.96 3146.01 3148.67 3154.34 3156.24
3158.05 3159 3163 3166.29 3171.43 3174.55 3176.92 3177.99 3182.96 3184.12
3185.9 3187.89 3190.72 3194 3198.75 3199.51 3202.88 3210.95 3211.3 3218.36
3220.98 3224.27 3228.14 3230.35 3236.16 3239.08 3242 3246.15 3249.73 3250.61
3257.84 3257.96 3256.27 3264 3265.48 3271.34 3274.41 3289 3292.88 3303.83
3318.43 3334.73 3350.52 3375.85 3418.92 3465.27 3508.75 3545.82 3574.46 3580.96
3560.78 3541.37 3544.51 3537.08 3572.82 3626.05 3664.7 3671.85 3663.9 3640.09
3628.12 3641.9 3676 3712.8 3763.29 3812.76 3841.91 3871.26 3921.08 3977.12
4044.57 4058.54 4051.6 4057.18 4041.41 4044.21 4078.19 4117.12 4162.61 4172.48
4173.28 4170.64 4170.44 4162.33 4141.93 4119.68 4123.57 4079.51 4044.49 4048.01
4014.43 3978.79 3922.28 3857.51 3816.23 3805.31 3814.95 3813.29 3770.4 3696.53
3650.02 3635.35 3596.55 3552.58 3508.41 3457.5 3419.92 3380.74 3346.92 3373.76
3414.23 3446.64 3486.38 3523.22 3552.53 3600.16 3649.83 3684.92 3721.42 3755.88
3794.01 3834.78 3857.16 3825.8 3769.35 3715.33 3642.32 3566.96 3517.59 3562.68
3619.84 3649.94 3649.46 3637.63 3623.37 3549.44 3585.21 3634.12 3638.79 3640.9
3633.26 3613.78 3554.25 3509.61 3512.71 3482.82 3452.01 3420.03 3406.72 3408.39
3427.42 3462.3 3504.23 3543.3 3605.04 3655.28 3675.51 3667.88 3714.55 3781.84
3826.64 3831.45 3812.38 3781.73 3766.51 3731.04 3751.62 3808.6 3881.28 3948.44
4009.76 4019.82 4030.69 4051.16 4031.21 4005.93 4045.11 4066.72 4072.65 4036.1
4012.84 4005.49 4080.5 4115.66 4102.06 4039.01 3965.36 3925.74 3870.78 3823.76
3801.32 3813.39 3890.79 3974.68 4022.25 4062.59 4106.02 4169.6 4223.25 4278.67
4306.23 4289.75 4235.06 4182.75 4162.47 4135.56 4128 4077.14 4014.98 3956.58
3883.86 3856.06 3825.61 3783.37 3757.54 3807.92 3853.94 3898.34 3950.13 3994.25
4040.8 4095.83 4133.85 4173.51 4204.77 4231.77 4282.75 4360.32 4413.85 4434.72
4426.14 4408.82 4425.13 4440.94 4461.21 4519.94 4578.99 4590.24 4550.93 4538.25
4550.35 4570.34 4632.79 4695.02 4757.35 4817.01 4819.42 4799.21 4751.72 4690.98
4677.66 4664.64 4609.8 4538.84 4465.33 4387.48 4382.01 4365.63 4350.84 4324.01
4318.34 4322.73 4321.36 4342.65 4382.58 4384.16 4369.5 4317.18 4248.47 4221.47
4210.01

3064.31 3068.82 3071.45 3074.2 3077.91 3079.16 3080.34 3087.92 3092.18 3096.84
3097.26 3099.07 3102.62 3108 3112.92 3114.12 3116.39 3118.69 3124.93 3126.18
3130.62 3132.05 3140.2 3142.89 3143.95 3147.01 3148.57 3151.23 3155.62 3160.03
3161.95 3164.62 3168.2 3170.9 3174 3178.76 3182.6 3184.47 3185.62 3189.31
3191.72 3193.18 3198 3198.56 3202.73 3204.38 3210.92 3213.09 3214.22 3222
3226.13 3231 3235.1 3236.27 3240.93 3244.79 3249.02 3255.74 3256.32 3259.42
3263.61 3265.37 3265.61 3269.26 3271.37 3277.82 3282.41 3293.05 3303.3 3315.88
3328.98 3348.03 3361.38 3382.42 3423.85 3476.83 3524.04 3573.09 3606.46 3608.76
3580.09 3588.28 3597.86 3584.36 3580.28 3630.54 3686.51 3723.85 3715.85 3685.64
3695.7 3698.02 3687.12 3699.49 3722.43 3767.16 3792.23 3854.98 3905.01 3978.01
4025.65 4058.96 4088.31 4100.68 4087.19 4081.25 4128.01 4156.98 4171.29 4174.24
4144.94 4119.21 4119.41 4144.27 4142.69 4135.11 4131.92 4094.72 4083.74 4052.72
4016.17 3977.65 3914.88 3859.96 3787.58 3735.11 3760.17 3770.35 3751.17 3697.25
3636.82 3575.66 3550 3520.96 3467.47 3430.1 3402.34 3349.29 3353.43 3382.15
3412.69 3451.14 3486.31 3534.89 3576.41 3613.71 3659.19 3710.53 3774.98 3807.13
3807.8 3840.06 3851.03 3820.34 3767.88 3694.93 3628.55 3547.83 3564.58 3595.87
3659.85 3712.68 3717.47 3700.21 3663.17 3579 3635.26 3691.11 3708.24 3707.86
3680.33 3658.14 3568.37 3542.5 3553.54 3525.74 3496.57 3459.61 3433.88 3427.47
3433.06 3429.6 3441.34 3495.41 3539.58 3586.92 3601.54 3641.34 3711.81 3748.44
3776.5 3784.68 3782.08 3729.02 3698.24 3700.67 3764.42 3833.03 3895.03 3926.2
3940.31 3944.89 3954.39 3984.9 3975.22 3944.29 3978.7 4005.11 4021.42 4008.52
3993.63 4011.33 4090.77 4119.96 4104.23 4044.75 3960.25 3894.26 3821.31 3786.81
3767.88 3819.48 3886.64 3951.44 3980.52 4019.24 4066.39 4118.91 4173.69 4232.3
4270.55 4257.26 4213.6 4147.43 4085.29 4060.36 4063.37 4034.1 3995.12 3935.81
3875.15 3822.89 3786.25 3755.5 3783.67 3822.94 3862.69 3912.83 3989.29 4054.61
4094.39 4123.32 4163.25 4202.46 4248.03 4265.49 4282.35 4336.94 4381.65 4416.07
4480.64 4479.63 4455.83 4447.22 4455.5 4494.99 4570.63 4602.19 4598.38 4558.31
4560.85 4572.32 4641.18 4689.63 4770.22 4795.95 4746.67 4717.59 4704.76 4681.82
4669.72 4655.5 4629.34 4550.5 4471.28 4412.41 4365.59 4349.49 4333.73 4314.26
4299.07 4288.82 4278.67 4271.61 4308.81 4350.52 4363.06 4340.19 4287.63 4217.98
4189.07

3065 3071 3074.26 3078.71 3078.21 3081.23 3084.44 3088.64 3095.97 3098.94
3101.69 3102.98 3108.28 3111.32 3113.64 3119 3120.44 3122.92 3125.27 3128.41
3133.3 3138 3138.26 3143 3143.84 3150.39 3152.57 3154.11 3159.02 3161.7
3165.48 3170.34 3171.56 3174 3176.35 3184.47 3186.91 3189.15 3190.3 3193
3195.51 3198.77 3201.16 3204 3208.4 3210.08 3214.86 3218.87 3219.56 3226.03
3230.8 3236.73 3239.14 3243.57 3247.03 3253.09 3256.94 3263.19 3266.11 3267.45
3270.93 3270.94 3276.28 3279.6 3280.51 3284.9 3294.1 3301.22 3309.59 3326.66
3336.32 3352.86 3372.5 3393.9 3426.53 3474.72 3517.59 3569.12 3607.63 3616.58
3611.59 3642.23 3647.23 3638.72 3602.05 3634.72 3687.81 3744.49 3755.97 3736.74
3750.58 3752.4 3727.11 3738.13 3768.03 3798.41 3827.69 3849.14 3885.47 3937.29
3979.98 4034.36 4097.99 4124.08 4117.6 4133.09 4164.87 4164.8 4164.6 4144.57
4101.6 4069.08 4070.1 4075.22 4084.13 4105.29 4112.29 4092.83 4080.21 4053.43
4003.81 3948.32 3893.2 3831.57 3787.94 3737.04 3687.05 3696.52 3690.81 3656.92
3604.02 3551.24 3506.45 3470.9 3432.56 3419.46 3401.81 3378.13 3355.92 3394.61
3409.02 3451.93 3486.45 3543.43 3615.52 3677.03 3706.19 3738.34 3779.19 3799.94
3797.31 3815.33 3818.67 3778.21 3718.03 3659.37 3608.25 3548.54 3609.64 3632.89
3669.42 3737.28 3784.69 3752.63 3696.49 3636.12 3688.69 3755.89 3766.12 3751.3
3712.94 3659.02 3587.14 3609.7 3609.54 3571.37 3534.13 3508.05 3484.26 3458.63
3463.8 3464.17 3447.71 3434.35 3477.8 3516.3 3563.43 3621.13 3667.15 3684.23
3714.92 3738.5 3748.59 3678.81 3658.51 3708.13 3780.53 3827.95 3885.3 3889.09
3885.98 3875.92 3891.05 3924.17 3922.14 3886.38 3906.48 3971.61 4006.63 3982.92
3959.58 3993.24 4098.54 4113.74 4072.82 3996.36 3931.81 3868.08 3801.96 3755.43
3771.24 3831.52 3906.75 3982.07 4045.37 4076.8 4124.75 4169.25 4220.61 4264.98
4265.9 4220.49 4161.74 4117.18 4076.7 4008.7 3979.56 3983.59 3950.54 3880.28
3839.94 3795.1 3756.48 3755.38 3801.86 3845.23 3891.81 3933.77 3975.58 4059.56
4130.8 4179 4210.24 4251.73 4279.25 4300.01 4310.91 4323.57 4345.31 4402.76
4482.66 4535.68 4524.84 4488.49 4462.24 4475.12 4542.35 4606.42 4643.26 4613.89
4581.13 4598.3 4651.87 4729.69 4794.12 4789.11 4715.41 4677.21 4656.38 4662.89
4661.54 4651.94 4627.97 4568.36 4493.95 4425.14 4364.31 4327.04 4313.86 4307.02
4296.76 4285.6 4253.95 4245.48 4243.57 4294.94 4326.47 4332.48 4304.06 4234.07
4169.84

3067.22 3070.42 3075 3078.24 3081 3084.15 3087.66 3093 3095.12 3100.65
3103 3104.91 3111 3113 3115.13 3117.36 3120.97 3127 3128.22 3134.08
3138 3142.66 3141.81 3143.7 3149.08 3151.76 3153.68 3160.58 3162 3165.51
3170.67 3172.99 3175.06 3176.43 3184.01 3184.5 3186.27 3194.22 3193.94 3193.44
3199.63 3202.48 3203.95 3207.1 3211.12 3213.08 3220.02 3225.56 3228.16 3231.73
3237.49 3240.37 3244.05 3250.32 3255.69 3258.02 3263.86 3268.3 3273 3275.2
3275.68 3282.98 3283.93 3286.43 3289.71 3294.95 3302.81 3307.1 3321.26 3337.29
3349.73 3364.95 3383.43 3408.62 3439.27 3468.03 3498.77 3539.48 3595.63 3623.95
3652.34 3678.24 3695.86 3681.57 3624.57 3652.8 3687.09 3747.08 3766.41 3778.07
3794.14 3792.49 3772.03 3758.18 3811.39 3837.3 3876.06 3908.35 3907.73 3928.42
3983.35 4032.84 4083.9 4125.85 4123.95 4156.02 4170.73 4158.4 4129.39 4113.62
4081.82 4044.55 4010.97 4011.85 4017.65 4042.24 4063.72 4046.5 4048.43 4024.33
3996.01 3947.95 3894.37 3853.08 3802.96 3757.6 3702.73 3637.4 3623.32 3619.23
3577.29 3529.39 3493 3453.88 3464.83 3468.66 3435.79 3380.45 3361.67 3406.49
3436.17 3452.27 3500.83 3550.93 3618.83 3677.37 3704.46 3729.37 3745.53 3746.75
3743.73 3771.66 3801.62 3784.24 3730.98 3679.36 3638.26 3559.42 3682.72 3687.83
3708.71 3751.14 3808.15 3807.09 3752.3 3683.73 3755.23 3819.28 3831.99 3801.24
3732.95 3660.76 3578.4 3646.43 3664.06 3625.33 3588.54 3545.16 3520.18 3503.05
3484.95 3476.98 3464.99 3436.25 3439.81 3476.92 3518.85 3564.37 3604.6 3623.14
3656.24 3689.01 3689.72 3640.05 3644.92 3710.6 3770.91 3815.15 3836.99 3839.39
3819 3806.9 3828.85 3865.8 3862.59 3837.23 3890.92 3971.12 3988.3 3961.67
3926.06 3978.27 4063.2 4075.52 4019.51 3963.66 3890.58 3835.91 3772.21 3726.43
3779.4 3829.49 3908.88 3983.72 4052.31 4116.16 4174.78 4212.57 4250.52 4271.08
4266.78 4226.15 4171.48 4121.86 4064.65 3996.74 3930.39 3906.93 3898.81 3837.76
3792.38 3753.51 3739.58 3766.28 3817.37 3867.35 3945.72 3981.06 4019.41 4047.96
4120.66 4198.3 4256.33 4290.63 4298.71 4311.96 4321.12 4331.87 4357.41 4412.41
4479.29 4558.5 4589.6 4571.85 4515.8 4479.18 4514.86 4592.46 4665.81 4673.8
4654.36 4650.33 4704.87 4760.33 4806.21 4783.1 4709.69 4652.52 4623.06 4625.86
4641.46 4647.03 4621 4579.93 4523.25 4435.42 4368.85 4315.54 4301.73 4296.45
4290.91 4272.38 4250.65 4225.9 4214.13 4213.64 4255.13 4286.16 4284.27 4231.18
4179.21

3074.62 3072.91 3076 3079.53 3083.95 3086.45 3091.27 3094.44 3098.32 3104.98
3103.53 3107.09 3112.67 3114.05 3119.96 3120.05 3123.03 3129 3133.74 3136.02
3139.99 3145 3145.78 3151.5 3154.01 3156.83 3157.99 3164.37 3165.4 3168.29
3172.83 3175.27 3178.59 3181 3188.3 3188 3191 3190.72 3198 3202
3202.62 3205.45 3207.55 3215.01 3216.86 3219.99 3225.04 3228.45 3233.49 3238.05
3240.29 3245.98 3249.24 3255.31 3261.54 3265.76 3269.8 3275.25 3278.26 3283.09
3288.82 3290.01 3292.5 3294.24 3299.85 3302.76 3311.38 3319.31 3328.29 3344.98
3361 3381.47 3399.4 3421.9 3466.25 3507.73 3534.51 3555.02 3588.55 3639.31
3689.9 3723.29 3723.99 3699.74 3649.75 3687.86 3706.24 3732.53 3785.54 3817
3830.13 3820.42 3798.16 3780.43 3861.69 3893.07 3924.87 3962.38 3956.69 3986.89
4006.59 4050.83 4101.76 4124.89 4119.31 4142.54 4156.26 4141.56 4102.46 4080.09
4054.74 4016.56 3969.17 3955.72 3966.76 3999.72 3997.88 3994.34 3963.09 3967.31
3950.09 3922.85 3880.52 3855.58 3816.81 3773.93 3728.15 3666.05 3627.25 3576.27
3544.24 3505.7 3471.26 3480.62 3532.35 3523.71 3465.47 3378.39 3376.35 3422.16
3463.82 3457.99 3485.14 3536.15 3581.21 3626.85 3648.92 3674.47 3691.23 3681.87
3713.16 3746.33 3781.44 3797.78 3766.01 3723 3647.17 3635.31 3703.73 3752.54
3777.53 3803.79 3832.52 3832.37 3761.31 3728.55 3796.02 3849.65 3865.02 3821.4
3746 3675.54 3614.87 3653.16 3695.14 3669.39 3630.82 3582.51 3577.49 3553.49
3526.54 3491.17 3485.67 3453.4 3436.92 3441.98 3474.69 3496.87 3531.1 3557.26
3613.39 3648.43 3648.85 3601.56 3639.79 3710.98 3756.4 3779.72 3786.84 3770.53
3751.74 3768.65 3827.16 3836.56 3808.19 3801.43 3876.48 3934.57 3968.7 3931.92
3889.66 3949.1 4038.25 4036.97 3979.52 3912.24 3834.24 3783.48 3734.38 3741
3797.04 3857.79 3915.6 3987.91 4049.45 4117.86 4188.08 4209.22 4232.31 4243.41
4249.62 4212.24 4159.57 4111.79 4074.14 4008.6 3946.91 3871.77 3841.52 3801.42
3756.89 3725.25 3764.02 3804.15 3828.4 3874.24 3956.88 4024.34 4077.71 4094.9
4138.02 4185.56 4262.65 4314.54 4339.06 4333.03 4334.25 4350.85 4383.76 4429.9
4483.14 4551.06 4655.25 4646.72 4576.52 4538.36 4554.43 4597.66 4693.2 4738.93
4738.87 4720.9 4704.5 4756.79 4778.2 4752.24 4719.25 4634.78 4603.65 4599.26
4602.43 4614.41 4608.98 4564.39 4520.02 4455.46 4387.06 4327.15 4293.2 4283.26
4276.51 4252.39 4234.36 4217.48 4204.73 4184.69 4187.52 4206.65 4215.24 4214.99
4185.74

3073.36 3078 3077.67 3080.97 3085.36 3088.29 3093.36 3097.72 3102 3103.23
3108.98 3107.16 3114.68 3115.08 3118.91 3124.94 3126.44 3130.9 3136.55 3138.91
3142.98 3147.03 3148.44 3154.82 3155 3156.99 3160.65 3167.11 3170.17 3174.02
3175.99 3176.57 3182 3185.12 3188.91 3189.84 3194.66 3198.97 3201.15 3208.8
3209.6 3211.81 3214.28 3216.16 3219.98 3222.19 3226.32 3232.19 3238.04 3241.1
3247.69 3250.1 3255.11 3258.26 3265.68 3271.64 3274.05 3279.86 3284.89 3291.34
3292.16 3296.22 3300.29 3301.71 3305.21 3312.92 3319.34 3327.11 3337.62 3349.48
3365.23 3389.91 3410.12 3436.54 3472.17 3513.02 3552.72 3595.87 3639.21 3685.88
3731.54 3756.17 3752.53 3722.59 3675.08 3725.86 3756.76 3770.77 3807.94 3857.49
3876.75 3857.92 3825.12 3815.24 3887.1 3942.8 3979.18 4022.37 4032.17 4030.05
4054.04 4071.82 4108.14 4119.03 4104.49 4112.5 4136.93 4125.45 4092.85 4047.06
4017.52 3991.58 3946.22 3912.38 3947.49 3960.17 3935.34 3939.76 3918.26 3911.13
3901.06 3861.16 3831.15 3818.83 3795.63 3771.88 3719.56 3673.22 3629.64 3580.83
3540.14 3491.77 3494.27 3510.63 3545.01 3550.5 3465.45 3368.85 3380.46 3423.56
3471.85 3500.45 3510.61 3509.23 3536.96 3562.63 3584.51 3621.55 3642.46 3655.59
3690.48 3740.63 3794.78 3821.56 3772.92 3722.47 3648.11 3654.8 3733.3 3808.2
3859.87 3869.57 3881.32 3857.56 3795.6 3779.98 3838 3885.74 3891.89 3829.8
3759.96 3675.06 3649.54 3724.83 3755.36 3724.48 3663.6 3652.05 3642.44 3601.47
3546.18 3529.11 3523.66 3490.99 3463.42 3437.96 3443.88 3456.41 3482.13 3504.89
3551.78 3581.49 3587.4 3571.49 3640.21 3683.09 3701.92 3705.86 3733.36 3715.12
3727.32 3750.01 3778.56 3779.59 3746.83 3805.18 3872.51 3924.26 3933.24 3900.07
3861.55 3921.4 3986.08 3998.29 3936.67 3875.92 3795.68 3752.54 3694.9 3742.68
3815.27 3892.66 3951.96 4020.18 4089.21 4134.7 4155.84 4154 4150.51 4178.7
4203.47 4193 4135.77 4068.32 4016.59 3970.05 3912.78 3860.93 3796.72 3762.9
3725.36 3741.84 3794.8 3828.82 3867.02 3907.36 3949.04 4004.22 4073.76 4137.1
4175.33 4221.02 4274.92 4340.36 4393.22 4394.96 4379.08 4392.87 4413.09 4445.16
4497.86 4554.28 4656.77 4680.75 4637.1 4607.12 4607.32 4642.02 4717.73 4783.88
4785.61 4734.65 4677.12 4634.44 4683.56 4701.17 4704.56 4644.87 4589.46 4581.74
4568.55 4568.02 4577.23 4562.64 4522.69 4488.32 4419.12 4343 4288.11 4270.87
4254.91 4233.63 4212.34 4213.39 4199.26 4164.33 4141.51 4143.28 4158.01 4160.36
4145.51

3074.16 3078.21 3081 3085.21 3086.89 3090.29 3094.01 3098.37 3099.26 3106.77
3110.61 3110.18 3116 3120.52 3123.16 3126.56 3129.19 3133.98 3138.34 3141.04
3142.13 3149.76 3151.61 3156.07 3158.24 3160.96 3164.07 3169.01 3171 3175
3179 3181.08 3184.54 3191 3192.6 3193.42 3198.52 3202 3207.26 3209.36
3213 3211.93 3217.01 3223 3224.96 3228 3231.94 3236.09 3240.96 3246.59
3252.39 3257.04 3261.06 3265.03 3273.42 3278.37 3281.01 3288 3290 3297.78
3302.7 3305.14 3307.28 3310.03 3312.55 3319.01 3327.92 3337.21 3349.47 3360.57
3377.08 3395.46 3419.18 3444.02 3473.09 3503.28 3553.75 3594.22 3655.2 3716.51
3764.62 3786.2 3777.97 3748.94 3717.41 3735.39 3800.88 3827.9 3852.73 3898.34
3909.57 3892.31 3859.63 3835.76 3892.03 3958.78 4027.98 4073.39 4082.19 4066.14
4109.72 4128.63 4138.72 4118.16 4079.9 4084.04 4107.47 4103.41 4075.1 4036.82
3997.07 3960.48 3926.72 3888.69 3912.19 3914.42 3886.26 3875.78 3871.03 3850.88
3853.72 3815.72 3775.5 3757.96 3748.87 3705.41 3668.03 3627.35 3576.09 3533.04
3516.21 3539.11 3551.74 3559.45 3536.84 3540.53 3444.97 3358.62 3386.51 3430.6
3483.13 3532.29 3554.61 3568.96 3572.41 3563.26 3571.01 3604.52 3647.62 3679.21
3704.13 3753.39 3811.83 3851.85 3851.3 3767.33 3711.75 3684.64 3777.92 3854.79
3914.12 3937.07 3942.7 3902.02 3838.28 3823.42 3888.79 3928.89 3906.77 3833.12
3758.62 3668.22 3722.73 3789.84 3800.64 3745.8 3711.24 3728.12 3687.34 3624.72
3562.13 3580.87 3578.78 3557.29 3527.92 3482.69 3452.82 3441.16 3449.02 3468.17
3498.48 3522.15 3529.68 3553.26 3588.17 3628.46 3635.44 3669.31 3674.78 3665.93
3698.17 3742.19 3742.26 3718.21 3736.74 3815.52 3873.14 3889.14 3881.99 3853.52
3810.07 3875.53 3933 3935.76 3918.48 3839.09 3775.34 3744.4 3684.36 3769.43
3828.82 3901.9 3977.08 4041.65 4090.66 4123.92 4109.65 4079.16 4077.16 4124.11
4145.83 4126.76 4109.04 4047.8 3975.97 3904.67 3857.71 3810.28 3770.93 3738.97
3710.02 3754.79 3800.81 3866.13 3903.59 3949.35 3996.08 4025.85 4065.35 4139.73
4211.82 4274.93 4330.52 4383.53 4442.37 4457.99 4448.71 4455.07 4458.76 4466.61
4511.12 4574.38 4655.43 4712.08 4704.37 4690.41 4707.57 4722.23 4762.46 4804.97
4788.06 4721.05 4630.51 4578.4 4593.26 4636.02 4662.61 4652.73 4583.81 4561.74
4539.15 4531.11 4532.62 4528.31 4521.51 4491.85 4426.72 4361.83 4293.08 4269.24
4231.48 4211.67 4200.35 4188.89 4167.19 4148.44 4139.08 4141.88 4145.89 4137.06
4116.29

3082.99 3081.62 3082.49 3088.71 3095.11 3096 3094.78 3101 3102.42 3107.45
3109.56 3113.19 3117.41 3121.23 3125 3129.59 3133.93 3135.23 3138.84 3141.19
3144.38 3151.46 3154.06 3158.74 3159.98 3162.63 3170.36 3173.48 3174.63 3179.44
3182.46 3185.69 3185.74 3190.91 3195.3 3198.14 3200.3 3205.82 3208.17 3211.76
3216.04 3218.08 3224.76 3223.23 3227.05 3233.82 3235.51 3240.52 3247.46 3252
3258.42 3263.89 3269.94 3273.4 3279.54 3281.91 3290.14 3295.18 3297.39 3303.89
3306.79 3310.16 3314.23 3317.3 3322.63 3326.54 3338.05 3344.14 3359.44 3369.03
3382.91 3400.51 3428.02 3453.57 3489.94 3523.51 3553.65 3585.03 3653.98 3716.68
3768.19 3803.97 3807.75 3787.67 3761.61 3756.45 3808.01 3868.02 3901.55 3940.94
3943 3931.74 3911.83 3885.23 3900.43 3956.02 4027.67 4095.13 4116.63 4111.06
4148.78 4169.66 4154.61 4113.27 4079.92 4056.46 4071.1 4080.48 4065.38 4033.1
3994.76 3947.71 3910.14 3878.72 3853.12 3854.91 3837.98 3825.75 3816.31 3800.88
3793.34 3761.82 3715.96 3695.32 3673.65 3641.84 3612.41 3588.04 3546.74 3549.96
3558.75 3588.45 3611.32 3613.9 3572.8 3503.74 3413.52 3386.37 3399.57 3446.08
3504.04 3553.82 3597.17 3633.4 3632.13 3606.56 3583.96 3627.95 3664.07 3701.58
3733.47 3776.51 3821.19 3876.5 3874.55 3817.13 3773.56 3730.67 3792.06 3857.43
3945.55 3990.01 4008.18 3950.79 3890.03 3899.51 3953.76 3966.18 3918.62 3837.95
3762.48 3716.44 3778.99 3828.29 3835.75 3784.87 3785.79 3778.08 3699.5 3618.87
3614.76 3635.42 3635.42 3610.79 3581.74 3559.19 3501 3473.11 3455.36 3453
3464.08 3487.27 3499.98 3511.79 3524.46 3554.21 3583.93 3622.73 3627.56 3627.26
3701.21 3728.31 3707.01 3679.61 3751.46 3792.56 3813.52 3817.17 3824.46 3820.11
3774.55 3820.99 3871.64 3876.03 3866.53 3820.5 3753.9 3701.36 3676.49 3773.78
3852.69 3923.23 3985 4041.37 4039.69 4060.42 4046.4 4013.45 4020.29 4066.9
4074.52 4069.83 4069.8 4025.52 3971.91 3898.89 3835.27 3776.69 3740.39 3705.7
3720.82 3784.03 3838.36 3868.04 3916.7 3995.01 4054.79 4099.94 4127.97 4154.63
4199.01 4274.54 4339.58 4411.41 4472.84 4486.35 4502.33 4514.22 4532.75 4541.13
4559.23 4607.66 4670.51 4715.67 4710.01 4733.45 4759.22 4774.35 4797.71 4811.59
4779.29 4703.93 4644.6 4554.84 4553.58 4575.95 4602.12 4616.64 4585.29 4546.28
4530.21 4521.31 4510.98 4501.88 4487.31 4468.38 4424.33 4356.29 4287.16 4262.33
4237.85 4190.24 4162.01 4162.87 4162.96 4150.68 4126.64 4115.07 4123.19 4114.54
4089.23

3081.33 3083.38 3085.05 3090.55 3096.57 3095.87 3101.67 3101.48 3108 3111.24
3114.99 3117.01 3119.15 3123.12 3124.95 3129 3133.02 3139.54 3141.97 3142.78
3146.63 3153 3156.6 3160 3161.76 3167.43 3171.48 3175.29 3176.87 3181.06
3184 3188.22 3191.21 3195.1 3197.37 3200.42 3203.93 3208.73 3214.18 3217.9
3218.8 3223.01 3227.62 3231.22 3233.93 3237 3240.67 3244.08 3247.52 3252.61
3259.67 3264.27 3272.06 3276.35 3282.97 3287.63 3296.01 3300 3305.26 3308.72
3316.39 3321.5 3324.33 3327.63 3329.53 3335.98 3344.44 3352.85 3367.73 3379.36
3397.25 3415.47 3439.18 3458.78 3498.63 3548.02 3593.13 3619.76 3652.13 3698.67
3770.7 3818.62 3840.38 3829.94 3796.97 3810.79 3810.39 3868.46 3937.65 3979.3
3983.47 3974.92 3963.03 3946.25 3956.47 3994.43 4041.62 4115.43 4143.65 4162.89
4180.45 4181.29 4153.54 4131.83 4114.26 4077.59 4031.28 4034.13 4028.01 4014
3976.73 3936.94 3893.24 3871.87 3847.17 3811.39 3788.63 3767.55 3758.7 3741.65
3728.52 3716.3 3680.2 3664.09 3642.81 3608.21 3588.07 3572.21 3593.83 3597.59
3611.2 3646.19 3656.86 3637.03 3565.76 3470.41 3376.81 3387.22 3419.67 3467.38
3521.74 3579.34 3624.99 3684.91 3691.99 3676.55 3641.46 3625.61 3666.05 3701.25
3747.17 3809.63 3864.03 3919.35 3916.37 3874.47 3829.7 3755.41 3822.54 3898.14
3965.1 4027.85 4046.39 4002.14 3949.85 3959.16 4002.96 3985.1 3915.14 3840.05
3760.33 3775.49 3832.16 3876.74 3885.09 3855.75 3847.82 3812.77 3724.28 3640.03
3640.72 3682.37 3700.92 3690.52 3649.48 3622.16 3572.89 3522.7 3481.94 3463.88
3455.45 3463.81 3467.24 3473.81 3483.15 3501.27 3530.03 3560.07 3571.83 3628.02
3685.78 3682.73 3658.06 3669.14 3714.83 3713.6 3737.37 3746.09 3761.17 3765.32
3729 3778.5 3808.28 3808.46 3785.43 3778.42 3721.95 3657.28 3692.46 3776.18
3857.19 3925.26 3971.87 3971.95 3960.83 3986.6 3977.26 3936.31 3968.03 4002.68
4006.73 4008.45 4011.92 3965.02 3913.23 3860.11 3794.55 3738.9 3715.06 3699.01
3745.66 3820.63 3894.87 3925.64 3943.59 3994.37 4061.16 4119.03 4167.37 4212.23
4255.11 4293.05 4351.35 4412.57 4466.99 4475.72 4498.28 4506.55 4541.43 4563.83
4602.84 4648.77 4671.56 4666.42 4668.87 4709.37 4756.12 4772.03 4779.84 4787.58
4778.17 4714.23 4638.87 4516.56 4511.68 4517.2 4528 4543.99 4538.92 4531.2
4522.46 4509.63 4498.87 4490.36 4485.49 4450.64 4424.13 4347.69 4285.57 4242.32
4233.08 4191.14 4152.7 4156.43 4151.16 4140.17 4125.08 4116.39 4110.6 4090.22
4080.98

3080.52 3084.8 3087.36 3093.71 3094.32 3100.19 3103 3106.55 3107.99 3111.19
3116.08 3118 3121.91 3125.1 3128.57 3131.6 3134.63 3141.76 3143.5 3146.46
3150 3154 3158.57 3164.32 3168.37 3169 3173.16 3177.97 3179.19 3185.01
3187.05 3194.55 3196.1 3196.86 3202.71 3204.57 3208.84 3211.96 3217.07 3217.78
3222.5 3226.9 3230.14 3236.38 3238.01 3241.64 3245.1 3250.08 3256.26 3259.53
3265.6 3273.77 3275.15 3279.91 3286.82 3293.29 3301.44 3308.08 3311.83 3316.96
3321.78 3329.01 3335.43 3336.26 3340.72 3344.2 3352.07 3362.37 3373.06 3390.26
3408.89 3430 3447.71 3473.14 3504.99 3557.72 3603.37 3638.96 3677.92 3726.49
3786.42 3848.58 3881.29 3874.84 3853.17 3867.8 3852.41 3883.53 3950.36 4011.72
4027.04 4019.19 4011.23 3996.75 3988.08 4048.43 4092.63 4142.98 4168.73 4176.98
4177.59 4169.94 4144.42 4134.96 4119.85 4081.67 4035.7 3986.94 3975.41 3967.19
3936.1 3893.93 3881.32 3884.21 3843.79 3822.47 3827.21 3815.09 3770.05 3748.23
3718.71 3691.9 3670.95 3649.36 3627.4 3632.84 3649.2 3634.04 3650.61 3659.02
3680.21 3697.27 3661.95 3595.6 3509.92 3413.88 3363.09 3397.49 3439.7 3486.71
3548.59 3607.77 3660.64 3718.53 3755.33 3741.19 3706.14 3676.48 3659.82 3706.02
3768.49 3843.63 3911.63 3977.95 3981.76 3932.37 3883.05 3824.82 3837.25 3924.64
4000.31 4049.89 4096.22 4059.5 4004.22 4030.54 4037.29 3990.29 3915.34 3833.69
3778.66 3834.75 3886.16 3931.92 3938.77 3937.95 3899.52 3821.78 3760.15 3678.74
3666.28 3713.3 3766.88 3740.57 3718.66 3672.35 3603.17 3529.61 3515.94 3505.93
3479.12 3479.95 3473.01 3468.47 3471.03 3475.39 3486.02 3510.49 3530.82 3580.24
3601.79 3606.14 3601.74 3627.32 3635.99 3638.78 3646.8 3657.8 3682.22 3688.27
3685.15 3708.98 3722.78 3714.89 3709.71 3707.19 3680.99 3623.54 3683.2 3750.9
3814.94 3863.21 3899.67 3897.93 3895.1 3912.55 3916.58 3873.74 3918.63 3952.75
3953.66 3955.78 3952.23 3912.75 3868.55 3815.42 3753.88 3713.38 3682.82 3720.31
3763.07 3846.71 3924.24 3981.03 4012.47 4033.34 4066.5 4103.52 4164.36 4224.9
4291.72 4345.8 4364.18 4406.48 4428.02 4424.84 4417.39 4437.63 4482.35 4531.31
4594.61 4652.08 4664.06 4623.64 4629.19 4664.39 4704.02 4739.35 4742.67 4741.72
4728.96 4698.42 4593.03 4509.09 4488.3 4470.64 4448.89 4459.11 4462.64 4472.74
4475.54 4470.77 4475.67 4476.43 4466.16 4435.86 4402.15 4331.19 4268.14 4223.43
4203.3 4184.49 4153.71 4160.85 4146.26 4122.09 4121.86 4117.23 4105.49 4082.35
4064.49

3086.17 3083.18 3088.67 3093.89 3096.87 3102.02 3103 3107.93 3109.07 3114.97
3117.15 3120.26 3125.27 3129.77 3131.51 3134.68 3137.35 3142.87 3147.06 3149.03
3151.54 3157.14 3161.97 3164.87 3168.8 3171.01 3175.43 3179.79 3183 3186
3189.64 3195 3198.31 3202.14 3206.11 3209.7 3212.93 3214.39 3223.15 3224.97
3228 3230.19 3234.91 3237.01 3241.91 3247.01 3248.07 3256.61 3260.86 3264.25
3268.49 3275.44 3281.94 3289.43 3296.34 3302.27 3304.5 3311.36 3321.23 3323.81
3328.47 3334.26 3340.8 3342.44 3348.61 3351.75 3358.91 3368.21 3382.34 3399.77
3415.68 3436.43 3458.62 3483.74 3510.84 3545.49 3588.36 3627.91 3679.44 3728.77
3789.75 3851.41 3904.02 3913.14 3900.77 3914.52 3903.71 3913.88 3966.44 4028.29
4070.58 4069.42 4061.78 4052.6 4029.49 4072.84 4130.84 4170.07 4166.25 4161.02
4153.17 4149.16 4118.08 4126.86 4115.51 4075.11 4020.9 3971.57 3943.82 3919.01
3919.85 3961.65 3970.31 3938.88 3906.37 3873.18 3856.46 3823.18 3783.32 3759.42
3730.46 3703.87 3682.87 3678.51 3696.82 3701.07 3717.87 3696.93 3713.75 3734.2
3747.34 3720.07 3648.01 3576.53 3481.77 3404.7 3368.29 3397.5 3454.29 3483.66
3562.32 3619.9 3675.84 3724.07 3770.03 3788.51 3773.12 3746.01 3726.81 3709.69
3779.81 3850.18 3921.29 3990.89 4018.15 3995.35 3922.57 3888.45 3852.99 3925.23
4012.55 4085.85 4131.45 4109.45 4071.07 4084.1 4054.89 3980.98 3906.64 3824.54
3845.03 3895.12 3930.49 3977.62 3990.34 3959.44 3904.76 3822.55 3764.05 3689.04
3695.84 3733.03 3780.29 3797.29 3760.51 3675.59 3592.97 3559.11 3584.03 3570.89
3538.18 3523.94 3509.58 3497.6 3483.9 3477.52 3481.76 3481.02 3490.23 3520.47
3545.05 3563.38 3573.5 3575.88 3565.84 3569.96 3583.8 3601.01 3615.92 3624.61
3635.87 3637.59 3644.19 3645.56 3642.91 3635.9 3619.03 3608.64 3658.33 3707.45
3735.93 3771.41 3794.25 3810.88 3814.7 3833.24 3829.52 3848.66 3885.02 3913.98
3899.57 3888.21 3890.47 3859.57 3817.45 3761.79 3715.04 3682.09 3708.43 3745.93
3791.19 3868.27 3941.42 4000.81 4061.5 4099.46 4131.33 4158.85 4208.83 4266.72
4324.57 4351.65 4354.49 4329.47 4372.64 4383.05 4381.15 4382.42 4411.08 4453.49
4521.81 4601.58 4610.55 4595.59 4599.48 4639.34 4678.12 4699.29 4706.06 4707.88
4690.81 4656.3 4598.36 4511.95 4468.1 4440.92 4410.77 4405.26 4399.38 4403.93
4394.18 4405.54 4425.79 4442.08 4437.49 4394.9 4376.53 4305.97 4237.82 4202.18
4180.12 4170.54 4150.59 4144.26 4134.23 4115.21 4112.23 4107.21 4078.62 4054.98
4041.55

3089.07 3090.02 3094 3095.93 3100.6 3103.12 3106.21 3107.27 3112.01 3115.87
3117.99 3121.95 3128.35 3131 3132.98 3137.24 3142.59 3144.72 3148 3151
3154.03 3161.89 3162 3166.04 3169.79 3172.65 3178.83 3182.01 3187.41 3189.09
3193.05 3197.11 3199.92 3204.32 3206.3 3212.54 3215.23 3221.94 3225 3225
3231.02 3233.73 3236.01 3242 3246 3247.49 3253.53 3260.06 3263.39 3266.79
3273.4 3278.38 3287.98 3292 3298.68 3304.3 3311.82 3317 3320.33 3329.05
3336.59 3342.7 3349.35 3353.04 3358.75 3364.73 3367.08 3375.83 3388.13 3401.87
3421.52 3439.94 3467.74 3489.09 3513.63 3542.17 3570.94 3609.77 3657.83 3725.04
3782.02 3848.56 3906.98 3934.86 3948.77 3961.18 3952.51 3956.78 4002.02 4047.92
4105.83 4114.49 4116.02 4115.54 4085.19 4107.23 4155.42 4181.03 4167.52 4136.45
4130.35 4119.34 4090.23 4090.42 4092.37 4053.95 4012.72 3972.18 3958.02 3972.61
4001.83 4013.73 4001.36 3956.51 3913.08 3879.17 3856.61 3837.83 3805.6 3764.63
3749.97 3734.41 3732.56 3753.31 3766.73 3752.67 3782.55 3766.47 3779.08 3790.13
3772.03 3725.71 3646.83 3556.85 3470.8 3411.59 3374.62 3398.02 3466.69 3516.16
3552.85 3608.54 3653.09 3703.33 3768.28 3816.13 3824.59 3817.24 3791.94 3751.32
3777.22 3843.83 3905.95 3973.27 4013.41 4024.42 3965.86 3949.89 3911.55 3946.04
4043.25 4110.63 4169.97 4166.37 4144.41 4116.12 4061.27 3987.82 3906.31 3900.32
3920.37 3950.66 3986.47 4014.12 4014.41 3957.56 3892.49 3822.88 3767.35 3693.64
3739.03 3773.18 3798.48 3800.99 3757.68 3693.03 3601.65 3619.01 3630.82 3649.98
3623.92 3591.66 3575.93 3556.31 3522.88 3501.62 3505.54 3493.24 3490.73 3504.43
3528.42 3541.67 3553.67 3558.62 3548 3543.11 3550.03 3568.34 3577.35 3593.6
3594.64 3572.32 3571.95 3564.53 3571.15 3579.16 3575.35 3587.37 3616.04 3634.73
3657.58 3682.52 3713.27 3726.4 3741.29 3758.63 3768.86 3800.37 3824.26 3816.3
3809.74 3818.64 3817.49 3792.92 3764.93 3721.79 3681.69 3685.92 3719.54 3762.58
3839.25 3914.21 3974.71 4028.47 4081.73 4146.31 4192.86 4220.78 4260.97 4302.08
4328.9 4340.13 4314.57 4269.39 4298.62 4340.04 4361.68 4353.97 4348.16 4397.07
4480.19 4545.17 4582.19 4576.91 4585.61 4620.69 4659.3 4673.23 4672.92 4669.75
4659.86 4637.32 4595.61 4536.27 4443.3 4422.89 4397.83 4384.12 4371.3 4362.34
4354.44 4363.27 4373.77 4376.96 4366.84 4356.6 4331.06 4273.97 4215.79 4200.87
4158.79 4158.86 4153.52 4137.08 4120.59 4098.89 4081.89 4076.48 4043.94 4035.36
4029.42

3089 3093.57 3094.27 3097.28 3101.54 3104.09 3107.04 3110.35 3113.11 3118.06
3121.25 3123.41 3128.25 3132.19 3135.15 3139.03 3143.08 3149 3147.19 3154.01
3157.89 3164.03 3167.46 3170 3175 3177.12 3182.16 3183.9 3190 3191.41
3196.1 3198.18 3202.13 3207.18 3213.26 3215.43 3217.09 3224.97 3225.75 3229.38
3232.8 3236.17 3242 3247.28 3250.97 3252.43 3258.83 3263.31 3268.24 3271.62
3277.7 3282.14 3291.01 3294.31 3307.34 3308.81 3318.06 3324.83 3329.16 3333.4
3343.43 3348.52 3355.6 3364.37 3366.37 3372.17 3375 3386.36 3396.72 3408.51
3425.22 3444.2 3472.37 3500.42 3520.51 3550.45 3580.22 3606.33 3652.16 3716.95
3762.79 3814.09 3886.54 3929.68 3961.2 4005.39 4002.13 4009.45 4043.06 4078.69
4139.26 4172.7 4186.99 4176.22 4136.47 4150.08 4187.13 4191.47 4164.41 4125.5
4105.88 4085.87 4065.32 4047.16 4046.7 4027.1 3996.51 3987.13 4015.64 4042.11
4064.86 4048.68 4005.45 3962.54 3926.64 3918.73 3896.28 3863.65 3817.26 3818.63
3798.76 3750.1 3790.17 3832.29 3836.7 3804.52 3830.61 3822.46 3805.8 3798.06
3758.58 3707.9 3619.14 3541.35 3469.52 3408.63 3382.51 3406.34 3485.65 3547.48
3586.68 3612.52 3666.25 3708.16 3760.88 3824.26 3884.03 3886.7 3854.07 3827.3
3777.87 3829.2 3893.02 3947.76 4012.45 4037.29 4019.07 4011.44 3986.33 3961.83
4039.82 4107.77 4179.85 4205.38 4189.42 4133.44 4060.2 3986.19 3949.84 3975.49
3987.14 3998.82 4028 4044.25 4009.16 3951.26 3896.69 3825.59 3775.99 3738.36
3785.79 3806.56 3811.19 3801.9 3751.57 3699.26 3629.97 3658.88 3700.27 3725.12
3705.01 3682.86 3653.91 3623.17 3586.69 3534.83 3519.4 3514.43 3505.18 3498.67
3507.91 3523.91 3524.25 3522.9 3518 3518.1 3519.78 3529.15 3540.22 3541.83
3540.28 3542.01 3545 3547.07 3551.46 3557.43 3568.15 3567.22 3574.79 3596.88
3606.74 3621.36 3640.59 3657.46 3666.17 3693.56 3711.39 3734.3 3743 3741.78
3744.2 3742.36 3735.3 3714.4 3711.83 3666.15 3671.2 3699.43 3739.51 3803.03
3870.59 3948.83 3995.77 4051.39 4106.39 4172.08 4221.64 4251.36 4269.25 4300.16
4310.64 4293.93 4245.76 4210.31 4235.48 4286.62 4335.23 4330.8 4315.29 4364.26
4434.46 4507.32 4554.48 4556.09 4563.31 4576.8 4589.76 4617.91 4636.58 4638.13
4629.49 4614.98 4594.28 4556.56 4455.2 4394.61 4385.96 4373.99 4355.22 4342.87
4342.61 4340.63 4342.58 4323.63 4301.08 4285.36 4270.95 4244.1 4199.74 4182.17
4151.01 4142.05 4144.87 4136.03 4112.36 4097.07 4066.49 4037.48 4018.52 4019.88
4008.85

3092.37 3094.35 3097.35 3099.68 3101.03 3106.84 3110.14 3113.55 3115.72 3121.87
3123.12 3128.93 3131.54 3134.27 3137.95 3140.72 3144.8 3147.1 3153.45 3157.12
3162.37 3164.19 3167.41 3172.85 3176.22 3179.09 3183.15 3187 3189.25 3194.97
3198 3201.6 3206.93 3209.98 3216.02 3219 3222.47 3227.93 3233.37 3237.23
3235.72 3241.34 3244.27 3249 3252.09 3258.13 3259.21 3263.9 3271.04 3276.02
3281.54 3288.83 3296.12 3301.06 3307.94 3314 3320.57 3328.06 3336.39 3340.96
3349.06 3354.89 3363.81 3368.57 3375.74 3379.91 3388.02 3395 3406.95 3418.37
3433.7 3456.23 3489.69 3513.53 3543.42 3579.89 3616.5 3644.96 3680.3 3711.84
3740.54 3777.78 3828.34 3882.42 3948.73 4016.01 4047.57 4060.06 4093.23 4135.78
4180.2 4223.75 4230.78 4201.16 4186.91 4196.44 4194.69 4188.48 4156.54 4125
4104.95 4101.58 4095.68 4090.38 4049.98 4018.28 4013.77 4024.97 4072.46 4093.8
4094.46 4048.85 4007.79 3996.55 3973.35 3963.85 3921.57 3867.18 3881.11 3879.92
3858.74 3804.39 3809.51 3852.39 3878.84 3870.13 3875.15 3857.1 3806.84 3766.74
3725.24 3680.04 3605.47 3543.07 3473.17 3415.78 3384.56 3422.39 3491.56 3546.84
3605.94 3679.04 3726.98 3772.26 3805.61 3846.33 3914.09 3941.8 3921.94 3889.93
3851.72 3855.43 3917 3978.73 4035.44 4072.98 4077.68 4066.27 4026.38 4006.54
4047.51 4116.89 4193.07 4228.62 4208.57 4145.47 4085.25 4037.34 4040.86 4054.11
4058.19 4054.48 4053.99 4043.3 4010.48 3952.37 3900.24 3844.96 3771.52 3773.88
3809.95 3835.85 3824.95 3753.81 3700.56 3677.83 3691.73 3713.74 3749.59 3802.44
3786.55 3758.97 3733.89 3701.94 3651.23 3583.85 3560.31 3531.85 3513.18 3508.93
3501.58 3506.67 3512.18 3518.37 3519.25 3525.73 3527.63 3528.71 3531.05 3541.22
3557.66 3566.78 3566 3562.29 3561.02 3573.15 3590.73 3595.65 3599.54 3592.92
3586.22 3592.09 3599.89 3615.52 3624.78 3635.68 3648.43 3664.37 3668.82 3676.46
3681.1 3673.42 3656.65 3658.57 3646.51 3656.75 3682.87 3727.11 3789.73 3838.32
3904.75 3959.63 3998.22 4052.99 4113.07 4171.94 4218.82 4242.53 4242.2 4249.84
4245.32 4226.49 4185.12 4189.21 4227.17 4262.64 4292.61 4279.92 4294.74 4334.04
4397.4 4474.16 4520.55 4519.68 4525.1 4522.17 4521.85 4528.86 4562.72 4593.64
4589.37 4584.78 4574.75 4543.62 4477.4 4411.37 4370.01 4361.85 4349.58 4323.76
4325.62 4318.19 4313.41 4286.36 4255.78 4230.91 4218.01 4193.75 4162.05 4145.28
4136.46 4124.74 4122.88 4118.18 4110.91 4093.38 4050.61 4021.39 4010.63 4006.42
3992

3093.32 3095.49 3098.94 3101 3106.84 3110 3113.03 3115.01 3120.89 3125.38
3125.8 3129.59 3133.91 3136.18 3139.08 3145 3148 3151 3155 3159.3
3163 3166.65 3169.07 3174.99 3176.95 3181.3 3185.59 3190.01 3191.67 3197.63
3201.46 3204.06 3209.05 3213.47 3218.38 3221.37 3227.23 3229.17 3236.18 3242
3243.11 3245.82 3247.08 3251.99 3256.35 3260.99 3266.11 3269.19 3274.82 3279.99
3284.59 3290.48 3301.38 3304.31 3311.94 3318.97 3323.94 3335 3339.26 3349.17
3357.06 3361.87 3369.95 3374.94 3385.32 3392.85 3395.37 3404.42 3414.65 3432.4
3446.74 3470.65 3494.49 3525.39 3548.17 3593.01 3635.85 3679.43 3716.88 3756.97
3792.64 3822.76 3866.2 3918.44 3979.7 4023.88 4072.26 4104.28 4141.04 4178.85
4199.89 4238.08 4239.02 4231.7 4215.03 4213.39 4196.28 4163.46 4146.39 4127.86
4128.63 4136.4 4137.7 4106.81 4054.52 4044.98 4053.54 4066.14 4112.11 4141.82
4124.65 4071.65 4049.3 4034.23 4023.71 3984.84 3922.24 3916.31 3927.51 3931.59
3906.81 3844.55 3829.28 3892.3 3925.99 3919.96 3882.04 3852.34 3791.82 3720.74
3658.28 3620.46 3577.79 3545.26 3472.76 3428.26 3394.57 3420.3 3516.37 3560.94
3620.88 3676.89 3745.31 3817.52 3871.7 3899.02 3962.93 3998.26 3986.58 3959.15
3924.77 3885.48 3947.16 4019.93 4076.36 4126.29 4152.09 4145.74 4087.28 4079.44
4071.95 4125.94 4198.91 4251.12 4239.76 4201.13 4136.7 4109.91 4110.54 4113.76
4110.35 4091.15 4059.07 4030.09 3987.44 3946.24 3903.66 3844.99 3785.44 3817.47
3831.5 3837.95 3816.86 3751.12 3721.57 3778.16 3785.98 3777.29 3825.33 3859.58
3856.62 3834.67 3805.85 3755.39 3690.83 3637.98 3606.23 3556.05 3531.86 3537.61
3544.55 3556.61 3563.15 3564.8 3558.9 3559.83 3563.69 3565.03 3556.56 3563.1
3570.75 3588.06 3591.05 3589.49 3589.39 3592.87 3608.38 3620.4 3620.54 3615.48
3604.53 3587.71 3590.38 3590.94 3597.44 3599.44 3612.48 3613.06 3617.19 3626.51
3634.79 3630.53 3634.96 3649.49 3654.93 3687.75 3720.7 3783.32 3826.69 3878.54
3924.91 3957.3 3992.96 4040.97 4087.77 4134.16 4164.39 4168.87 4154.77 4156.08
4162.77 4173.92 4188.53 4207.22 4227.59 4252.88 4257.22 4273.21 4296.56 4320.4
4392.16 4449.6 4505.36 4503.87 4506.39 4487.1 4473.49 4468.16 4469.46 4503.31
4534.79 4550.41 4549.45 4539.86 4502.57 4438.95 4380.41 4356 4344.09 4314.11
4302.67 4306.21 4290.36 4243.46 4217.46 4216.07 4178.83 4157.73 4130.34 4111.16
4106.35 4108.18 4087.76 4088.39 4100.25 4089.45 4040.6 4026.99 4015.99 4001.46
3978.65

3095.19 3098.33 3100.88 3103.07 3109.64 3111 3113.66 3117 3121 3123.63
3128.08 3130.46 3134.77 3137.83 3141.2 3145.2 3151.79 3151.92 3155.92 3162.11
3164.92 3169.95 3171.84 3174.94 3179.59 3184.99 3188.5 3192.83 3196.8 3198.43
3206 3207 3211.97 3216.29 3219.28 3224.15 3228.18 3229.62 3236.12 3241.7
3246.02 3250 3251.56 3256.65 3262.44 3264.46 3267 3272.48 3280.41 3285.06
3288.39 3296.79 3303.11 3309.15 3316 3321.16 3328.81 3336.02 3342.28 3352.33
3359.7 3368.53 3373.63 3380.48 3391.5 3397.28 3403.51 3407.91 3421.99 3443.25
3460.65 3478.63 3505.77 3525.28 3555.71 3592.02 3637.64 3683.33 3727.95 3778.1
3809.34 3848.22 3895.04 3939.68 3978.48 4009.52 4060.94 4104.15 4144.24 4179.86
4179.51 4194.68 4227.43 4229.36 4199.15 4184.64 4180.88 4151.87 4137.99 4131.8
4141.68 4147.3 4137.63 4101.82 4078.09 4092.75 4103.03 4098.38 4147.07 4169.28
4155.27 4109.96 4079.69 4070.27 4050.71 3998.5 3940.01 3952.79 3983.77 3978.58
3922.34 3859.35 3863.75 3922.21 3932.2 3925.35 3875.76 3822.35 3765.19 3699.63
3644.73 3613.72 3571.65 3527.37 3486.83 3440.94 3396.05 3437.3 3517.59 3592.97
3651.5 3724.45 3773.39 3835.83 3892.93 3937.78 3974.75 4007.51 4023.35 4030.52
3997.67 3959.54 3967.36 4035.16 4098.03 4167.07 4208.52 4212.95 4163.56 4139.24
4129.35 4143.74 4188.79 4252.97 4272.77 4243.73 4196.04 4188.29 4174.13 4170.61
4142.08 4098.97 4059.4 4011.9 3970.42 3934.68 3888.03 3829.27 3842.69 3861.24
3863.96 3842.77 3806.28 3759.92 3788.4 3852.81 3864.99 3849.37 3869.99 3916.41
3920.21 3895.93 3844.04 3776.78 3713.66 3684.67 3625.9 3550.86 3560.96 3601.59
3607.32 3623.88 3645.01 3642.98 3639.19 3641.45 3643.02 3638.5 3630.54 3633.04
3640.27 3639.99 3635.9 3632.1 3638.53 3654.19 3659.08 3654.46 3651.22 3646.98
3642.51 3627.7 3620.11 3613.69 3612.52 3613.4 3623.3 3626.65 3637.2 3642.32
3636.79 3641.12 3652.35 3673.15 3694.8 3718.17 3755.07 3801.7 3841.94 3889.56
3929.86 3961.39 3990.08 4014.85 4045.89 4086.27 4087.08 4096.29 4105.01 4113.75
4147.05 4172.32 4189.58 4209.15 4220.41 4253.25 4259.66 4275.34 4290.88 4335.98
4381.41 4473.57 4506.8 4496.49 4485.23 4468.78 4454.15 4445.61 4432.82 4437.92
4463.32 4497.77 4513.94 4516.53 4502.37 4480.23 4411.7 4355.03 4342.12 4322.5
4283.24 4280.54 4264.79 4222.6 4192.26 4206.38 4176.86 4138.62 4109.45 4086.53
4077.72 4070.52 4060.33 4058.57 4058.07 4048.75 4027.43 4023.44 4010.57 3992.13
3973.77

3099.84 3099.63 3107.58 3108.4 3111.92 3113.99 3116.31 3119.44 3123.71 3129.11
3131.01 3135.13 3137.92 3139.12 3145.88 3150.24 3153.97 3156.63 3158.47 3162.15
3166.86 3172 3173.76 3177.31 3180.06 3184.87 3189.5 3193.93 3198 3202.33
3205.46 3211.71 3214.12 3218.1 3221.95 3226.06 3230.68 3236.8 3238.6 3240.86
3246.23 3248.63 3253.96 3259.2 3266.76 3266.94 3271.04 3278.17 3281.01 3289.08
3294.58 3300.11 3307 3311.94 3318.41 3326.15 3332.54 3340.68 3350.54 3354.41
3363.5 3371.92 3384.41 3388.68 3395.3 3401.95 3412.12 3420.25 3427.64 3446.73
3475.64 3496.39 3507.93 3525.16 3555.76 3586.39 3628.07 3671.03 3704.55 3745.16
3785.49 3841.35 3891.53 3918.19 3933.48 3968.57 4023.21 4071.53 4121.68 4121.48
4108.19 4143.02 4154.76 4159.04 4134.94 4121.35 4108.37 4096.48 4099.82 4088.56
4114.21 4126.44 4142.22 4133.12 4120.59 4133.72 4144.92 4132.68 4165.31 4188.99
4165.48 4124.93 4094.08 4068.17 4057.41 4000.91 3976.81 3998.04 4010.98 3982.85
3928.69 3883.22 3899.23 3926.5 3944.02 3917.11 3848.38 3792.28 3763.83 3747.91
3715.27 3679.75 3625.79 3583.46 3511.44 3446.91 3398.16 3428.94 3518.79 3595.8
3644.8 3737.58 3770.26 3820.47 3854.69 3897.13 3929.96 3967.12 4024 4063.28
4061.84 4021.33 4027.36 4059.3 4119.39 4169.44 4247.24 4261.44 4237.47 4215.51
4196.78 4191.26 4200.98 4252.87 4296.29 4297.24 4261.74 4247.75 4226.28 4189.27
4141.51 4085.3 4038.13 3995.41 3951.19 3906.8 3900.77 3898.96 3899.12 3902.64
3892.41 3847.42 3804.33 3820.36 3846.95 3887.78 3914.83 3921.78 3938 3966.8
3970.68 3898.1 3838.2 3773.91 3760.02 3710.25 3633.3 3576.08 3583.15 3634.68
3684.76 3711.21 3722.4 3748.2 3736.98 3732.85 3722 3718.29 3714.43 3724.86
3734.85 3731.94 3692.07 3699.51 3709.75 3727.32 3741.99 3724.53 3708.13 3731.4
3730.4 3706.05 3687.94 3668.51 3656.59 3643.82 3653.63 3649.84 3653.15 3667.06
3658.62 3647.62 3666.87 3681.31 3700.03 3723.11 3755.55 3763.48 3827.65 3860.37
3904.03 3944.22 3978.62 3999.19 4000.53 4034.59 4051.78 4063.67 4079.75 4110.61
4147.97 4161.85 4177.58 4200.1 4221.7 4241.03 4252.25 4273.99 4321.37 4360.7
4401.3 4485.7 4511.76 4487.56 4463.38 4450.31 4442.13 4428.71 4413.13 4404.88
4410.56 4447.67 4470.89 4492.85 4492.16 4492.8 4457.9 4391.09 4350.76 4324.46
4282.58 4230.03 4205.38 4187.77 4174.74 4165.97 4167.75 4134.94 4096.27 4070.07
4063.36 4060.22 4047.75 4045.66 4055.42 4046.26 4029.65 4011.37 3993.21 3979.49
3956.26

3100.94 3104.39 3109.42 3110 3112.16 3117.23 3120.54 3123.05 3126 3129
3133 3137.35 3139.53 3143.76 3146.55 3150.72 3154.49 3157.43 3161.3 3165.4
3170 3172.26 3177.66 3180.89 3184.02 3188.39 3190 3197.98 3199.98 3204.04
3207.94 3213.73 3215.71 3221.59 3225.53 3227.71 3233.26 3235.99 3242.35 3246.32
3249.18 3254.31 3260.15 3265 3267.07 3270.66 3275.12 3279.98 3284.17 3290.9
3295.77 3304.64 3309.6 3318.67 3322.93 3329.52 3336.41 3344.76 3352.63 3359.52
3367.45 3378.02 3384.8 3393.1 3402.55 3409.82 3417.13 3427.94 3432.48 3449.82
3484.02 3513.63 3537.27 3544.14 3553.86 3579.23 3608.04 3639.6 3673.47 3714.29
3752.86 3795.64 3822.89 3860.59 3902.08 3957.06 4013.8 4061.93 4073.19 4057.68
4039.98 4083.31 4087.77 4084.89 4067.91 4056.74 4044.29 4030.99 4024.6 4036.46
4087.12 4144.34 4183.15 4177.05 4168.66 4185.03 4187.32 4172.44 4200.91 4205.5
4172.59 4129.06 4097.07 4069.24 4055.07 4010.72 4015.55 4043.4 4042.17 4006.13
3955.14 3904.13 3949.33 3982.26 3992.05 3951.25 3899.79 3849.13 3848.12 3822.68
3799.11 3738.83 3683.05 3601.33 3545.85 3467.38 3407.88 3436 3498.01 3572.13
3625.83 3680.63 3712.9 3755.83 3791.35 3829.66 3884.91 3942.18 4002.27 4062.09
4100.15 4094.08 4100.46 4115.07 4157.52 4204.99 4267.96 4314.83 4314.28 4296.49
4262.08 4240.78 4236.9 4278.74 4316.29 4328.25 4297.83 4264.77 4231.51 4183.45
4118.44 4066.8 4022.3 3979.59 3930.58 3950.65 3971.78 3959.94 3946.95 3949.47
3919.84 3861.37 3863.77 3888.85 3908.96 3933.38 3963.9 3994.98 4017.88 4018.02
3977.43 3899.74 3840.89 3832.95 3807.29 3733.74 3667.89 3608.17 3583.09 3633.27
3732.2 3785.94 3807.98 3840.33 3828.92 3827.37 3811.26 3775.58 3800.9 3828.95
3825.85 3810.31 3756.76 3752.9 3787.11 3797.25 3810.16 3801.01 3734.51 3816.53
3823.03 3808.19 3783.85 3761.15 3738.89 3697.35 3685.95 3684.34 3686.78 3688.95
3683.41 3668.64 3661.09 3673.94 3682.31 3702.06 3713.85 3738.23 3772.27 3818.64
3871.64 3914.03 3942.26 3968.03 3994.55 4027.58 4047.01 4068.71 4078.56 4110.4
4129.8 4141.25 4159.99 4203.05 4217.28 4244.64 4272.25 4313.06 4368.34 4402.43
4445.91 4516.87 4512.73 4470.9 4443.32 4426.22 4417.13 4400.63 4392.07 4391.47
4381.58 4384.92 4413.39 4460.74 4475.82 4495.45 4497.65 4446.14 4378.62 4314.75
4282.62 4232.61 4180.05 4157.37 4153.73 4152.98 4143.58 4120.04 4082.01 4051.55
4033.28 4040.77 4036.4 4028.16 4035.91 4034.8 4024.69 4010.31 3985.53 3966.01
3940.47

3103 3105.16 3110.09 3114 3116.04 3118.89 3124.99 3125.01 3126.62 3131.67
3137.23 3140.45 3144.01 3147.89 3150.12 3155.26 3154.21 3162 3164.19 3167
3171 3175.99 3178.42 3181.87 3186.96 3189.36 3193.37 3198 3204.46 3207.49
3210.71 3215.42 3221 3223.4 3228.99 3234.34 3233.37 3239.87 3244.26 3246.15
3251.51 3256.11 3262.77 3266.93 3270 3275.71 3280.78 3283.01 3288.22 3291.46
3297.55 3305.42 3310.74 3319.98 3323.4 3330.35 3341.09 3346.68 3357.25 3368.49
3372.45 3381.81 3391.1 3398.25 3408.66 3418.06 3425.66 3435.17 3442.96 3452.09
3475.51 3509.04 3542.19 3557.76 3576.13 3599.74 3628.49 3646.97 3669.71 3696.32
3731.1 3769.65 3817.82 3885.59 3936.06 3976.92 4019.96 4033.17 4021.07 3993.79
3985.69 4008.47 4011.94 4011.06 4000.58 3997.76 3985.59 3980.88 4006 4057.06
4122.73 4165.02 4220.19 4220.06 4227.53 4229.72 4240.19 4226.26 4239.31 4220.34
4177.97 4135.32 4107.25 4088.66 4050.31 4048.14 4061.69 4085.27 4081.83 4035.07
3970.28 3978.62 4015.8 4035.95 4026.32 3981.75 3936.51 3929.04 3916.13 3875.4
3821.69 3774.17 3707.71 3640.62 3562.81 3490 3434.76 3430.48 3483.12 3542.16
3573.96 3620.25 3662.08 3717.16 3767.71 3814.33 3874.73 3939.31 3993.46 4051.67
4112.08 4150.39 4170.5 4180.36 4207.24 4238.96 4282.74 4323.31 4340.94 4347.15
4308.5 4274.55 4283.98 4322.68 4336.98 4332.4 4287.4 4242.38 4209.73 4149.26
4102.79 4068.36 4025.35 3978.44 3976.87 3991.92 4002.84 3988.35 3981.39 3975.08
3948.56 3893.06 3913.66 3962.25 3994.88 3998.04 4009.76 4058.16 4084.87 4061.73
3985.16 3921.73 3914.1 3901.13 3858.48 3779.4 3729.01 3652.1 3600.1 3639.71
3726.86 3799.31 3871.89 3918.95 3905.71 3914.38 3876.39 3854.07 3873.18 3901.11
3907.23 3865.22 3796.31 3804.68 3855.87 3872.97 3876.94 3868.77 3772.45 3867.34
3900.39 3885.22 3857.22 3841.42 3828.87 3792.37 3753.93 3753.34 3733.2 3722.35
3706.16 3697.46 3693.96 3691.01 3679.23 3684.31 3691.95 3718.79 3751.32 3793.16
3835.32 3882.76 3911.73 3952.34 3996.81 4021.74 4043.1 4061.98 4072.46 4095.44
4119.19 4145.92 4171.11 4214.59 4253.24 4291.23 4329.24 4379.6 4425.37 4461.03
4495.22 4536.83 4518.95 4442.73 4417.32 4406.2 4397.94 4390.49 4368.52 4371.58
4361.76 4356.2 4372.26 4425 4446.91 4488.85 4507.46 4475.28 4403.66 4315.8
4267.99 4236.27 4195.71 4154.61 4139.92 4145.87 4142.54 4115.31 4078.44 4034.94
4001.72 3983.79 3983.57 3999.93 4017.15 4021.19 4009.54 3990.79 3969.78 3940.55
3906.16

3103.92 3106.66 3112.93 3114.73 3117.57 3121.51 3123.38 3125.82 3129.64 3134
3140.44 3141.96 3143.93 3147.7 3154.25 3155.99 3159 3163.04 3170.99 3170.75
3173.19 3176.28 3182.06 3185.02 3188.99 3192.04 3195.47 3200.82 3204.47 3208.36
3212.29 3218.65 3223.19 3229.05 3232.19 3235.16 3237.06 3242.75 3247.68 3252.17
3255.19 3262.73 3266.98 3268.64 3273 3277.45 3283.27 3288.33 3294.99 3294.51
3298.86 3306.16 3310.34 3320.02 3326.2 3334.72 3344.75 3348.01 3356.99 3370.16
3377.63 3387.79 3395.17 3403.84 3412.26 3424.48 3432.63 3440.27 3449.75 3457.56
3470.74 3497.68 3535.23 3554.22 3582.4 3611.88 3651.23 3684.25 3714.4 3740.49
3774.31 3811.23 3864.75 3908.81 3946.78 3957.46 3982.47 3979.5 3958.38 3944.18
3942.76 3941.39 3953.26 3955.13 3948.14 3944.25 3945.88 3961.4 4007.16 4066.44
4124.75 4154.82 4223.48 4261.28 4288.78 4286.09 4291.9 4283.12 4286.45 4250.66
4189.31 4145.07 4133.59 4118.72 4092.22 4104.38 4117.94 4137.04 4103.14 4043.83
4014.39 4037.04 4066.84 4072.65 4052.94 4014.05 3981.77 3960.38 3912.88 3860.87
3800.89 3765.12 3722.56 3640.29 3581.77 3508.49 3454.47 3417.05 3463.86 3526.92
3591.78 3651.32 3710.71 3764.73 3816.35 3852.11 3896.21 3965.41 4033.37 4078.02
4127.28 4169.37 4207.02 4210.01 4216.51 4240.31 4257.92 4269.42 4331.72 4347.64
4340.53 4311.84 4306.28 4335.39 4342.26 4311.91 4252.78 4206.16 4165.47 4123.5
4095.17 4062.86 4026.26 3987.36 4012.43 4024.51 4017.72 4014.69 4012.98 4002.57
3986.37 3934.85 3919.22 3997.2 4054.29 4066.19 4072.84 4112.52 4125.49 4081.83
4010.38 3968.8 3987.15 3983.07 3946.58 3861.03 3776.79 3697.51 3641.99 3626.28
3710.68 3801.58 3875.98 3937.08 3973.58 3982.72 3950.7 3918.43 3948.82 3967.12
3959.22 3903.92 3851.52 3862.59 3922.8 3948.81 3944.96 3892.78 3810.12 3880.39
3949.89 3965.25 3943.81 3925.99 3905.73 3876.88 3818.27 3836.48 3826.65 3781.18
3771.13 3771.91 3762.06 3763.24 3751.87 3736.57 3726.42 3701.95 3735.51 3765.53
3808.17 3840.6 3881.2 3928.99 3967.36 4004.36 4029.84 4060.64 4077.01 4107.6
4148.07 4177.73 4213.3 4270.16 4319.72 4363.44 4402.87 4444.04 4486.56 4519.32
4542.46 4554.06 4535.38 4449.4 4391.76 4371.07 4353.57 4342.22 4338.71 4345.27
4342.64 4331.73 4335.42 4362.82 4413.71 4474.1 4505.31 4474.75 4404.79 4340.16
4289.33 4237.01 4202.57 4164.31 4140.58 4128.31 4119.88 4107.97 4081.68 4037.21
3999.35 3971.27 3944.92 3957.06 3971.02 3972.83 3973.61 3967.57 3936.33 3913.39
3878.35

3105.17 3110.58 3112.03 3119.39 3121 3122.45 3127.12 3130.64 3131.31 3138.14
3139.99 3144 3147.96 3150 3154.86 3160 3159.68 3167.45 3169.37 3172.13
3175.67 3179.97 3184.35 3186.02 3192 3196.13 3199.59 3201.73 3207.18 3212.02
3216.49 3220.14 3224.68 3229.2 3233.01 3237.65 3240.68 3246.58 3251.01 3255.02
3257.97 3263.53 3271.17 3272.95 3275.52 3278.17 3284.11 3288.14 3292.81 3297.88
3302.99 3311.9 3319.13 3324.93 3329.62 3336.25 3347.1 3353.49 3361.82 3372.94
3380.37 3391.9 3400.33 3410.05 3416.97 3427.27 3436.16 3448.24 3458.1 3467.69
3476.85 3485.81 3532.25 3560.83 3578.88 3613.98 3668.35 3712.07 3733.95 3779.23
3813.1 3858.61 3869.32 3907.53 3921.03 3921.53 3909.12 3922.48 3900.37 3872.63
3875.16 3891.39 3901.37 3898.11 3893.45 3903.66 3942.47 3959.21 3985.71 4026.94
4082.34 4148.96 4215.15 4276.84 4334.53 4352.5 4357.22 4352.29 4332.89 4266.06
4208.93 4168.18 4173.4 4157.61 4151.26 4167.33 4197.16 4189.49 4129.76 4081.36
4084.7 4114.47 4120.03 4085.21 4042.46 4008.71 3971.31 3948.69 3884 3817.56
3745.97 3705.28 3653.46 3621.61 3574.31 3509.18 3466.19 3431.59 3459.74 3532.93
3598.18 3675.78 3742.7 3815.27 3871.69 3916.61 3944.54 3971.94 4029.82 4083.1
4126.09 4159.63 4188.22 4182.28 4168.29 4182.09 4190.8 4232.08 4288.4 4336.27
4339.86 4319.53 4320.99 4323.92 4308.35 4265.47 4216.48 4174.84 4143.45 4111.72
4081.27 4069.54 4039.85 4006.14 4033.52 4044.7 4054.67 4057.33 4059.97 4060.33
4029.68 3990.63 3944.68 4011.97 4079.39 4115.91 4126.26 4154.28 4153.4 4096.51
4052.45 4030.13 4057.27 4033.73 3986.03 3901.47 3815.31 3739.06 3673.79 3627.61
3706.65 3786.59 3861.46 3925.15 3982.6 4042.63 4019.7 3986.76 4023.83 4035.37
4011.53 3964.94 3887.13 3905.32 3968.05 4001.8 3978.95 3931.44 3851.54 3879.54
3966.54 4016.89 4012.49 4008.41 4011.96 3964.19 3898.69 3929.36 3894.62 3810.45
3815.36 3842.93 3833.23 3845.19 3836.61 3817.71 3782.92 3751.92 3725.31 3739.8
3781.89 3810.6 3853.93 3898.33 3929.29 3962.55 4007.91 4043.96 4081.53 4124.01
4177.45 4221.5 4266.17 4317.78 4372.23 4418.27 4435.71 4449.41 4490.54 4522.59
4558.29 4560.02 4536.92 4453.31 4382.81 4360.16 4327.98 4304.47 4302.44 4310.77
4315.68 4311.13 4299.09 4337.14 4376.44 4442.81 4499.79 4490.51 4431.84 4370.65
4322.62 4268.94 4227.45 4182.19 4157.34 4141.07 4119.38 4085.99 4053.49 4020.3
3995.73 3981.44 3954.21 3928.24 3905.7 3915.69 3934.89 3935.12 3917.88 3886.94
3855.28

3108.95 3110.89 3113.98 3118.53 3122 3124 3128.2 3131.02 3137.87 3139
3141.2 3145.03 3146.76 3149.6 3155.6 3160.13 3163.9 3168.54 3171 3174.35
3180.41 3181.39 3186.37 3189 3193 3198.16 3204.06 3204.9 3209 3213.02
3219 3224.19 3227.62 3232.63 3235.54 3238.51 3244 3249.82 3254 3256.6
3264.15 3267.82 3271.18 3277.12 3277.69 3282 3286 3290.13 3296.84 3300.62
3305.66 3314.56 3319.57 3327.14 3335 3338.75 3347 3351.82 3362.1 3371.4
3383.32 3394.01 3402.31 3411.51 3421.52 3432.61 3441.9 3449.62 3463.6 3472.23
3484.32 3494.02 3542.74 3564.26 3589.48 3614.84 3649.85 3702.82 3730.36 3783.38
3819.56 3850.61 3843.63 3838.07 3841.34 3838.56 3843.01 3857.94 3840.53 3833.72
3834.71 3841.79 3854.01 3851.74 3905.2 3952.02 4003.58 4018.84 4011.87 4032.24
4074.74 4131.03 4199.74 4278.01 4346.55 4405.22 4429.9 4407.07 4349.33 4278.91
4226.86 4199.26 4196.15 4193.43 4198.81 4233.3 4255.58 4235.97 4169.38 4142.76
4155.7 4171.12 4161.68 4098.36 4037.77 3971.9 3902.7 3865.4 3812.61 3759.65
3702.86 3650.59 3608.27 3561.65 3546.83 3520.95 3466.91 3437.61 3480.71 3528.66
3598.88 3673.06 3776.85 3851.61 3919.58 3938.6 3960.25 3970.03 3982.35 4018.2
4068.24 4104.04 4125.83 4110.77 4091.53 4102.21 4137.5 4192.23 4229.9 4256.16
4278.35 4302.81 4315.14 4297.66 4262.29 4220.54 4183.78 4155.04 4130.46 4111.39
4107.02 4091.05 4053.04 4024.26 4039.34 4068.36 4101.5 4104.99 4115.36 4107.55
4067.68 4024.32 3969.2 4048.97 4112.88 4166.46 4181.56 4204.6 4195.12 4153.16
4112.83 4094.27 4105.03 4083.33 4019.43 3925.91 3843.72 3760.41 3689.21 3646.37
3690.83 3766.39 3852.71 3925.28 3997.19 4065.84 4080.45 4062.11 4073.16 4087.13
4057.88 4006.54 3954.14 3960.79 4017.24 4044.04 4025.5 3965.88 3882.15 3893.85
3961.03 4029.97 4079.95 4079.99 4073.39 4034.57 3962.35 3974.71 3962.13 3855.34
3829.57 3921.26 3918.51 3930.33 3908.95 3883.21 3840.92 3818.79 3764.64 3732.68
3746.28 3789.78 3826.83 3869.71 3906.94 3948.49 3994.81 4038.49 4073.75 4132.79
4189.51 4249.77 4305.75 4358.56 4398.16 4425.03 4430.61 4430.54 4419.06 4446.76
4524.67 4558.75 4539.37 4450.9 4378.05 4356.14 4317.73 4276.68 4280.57 4286.85
4291.5 4290.4 4277.53 4298.88 4359.31 4440.8 4491.11 4487.98 4432.38 4380.83
4332.82 4282.52 4230.81 4194.35 4160.1 4145.16 4105.98 4060.18 4028.22 4002.52
3992.06 3977.33 3956.23 3931.35 3886.22 3881.4 3900.26 3901.22 3893.42 3870.05
3831.75

3111.17 3115.72 3116.08 3118.65 3122.84 3127.05 3131.67 3133.32 3136.68 3139.38
3143 3149.98 3150.59 3156.16 3159.08 3162 3164.73 3168.28 3172 3176.08
3182.19 3183.47 3187.35 3193 3195.16 3202.01 3206.12 3207.93 3211.95 3215.52
3221.91 3226.92 3230.25 3230.75 3239.99 3240.35 3245.25 3253.92 3256.18 3258.34
3264.01 3271.02 3273.75 3278.02 3281 3287.58 3291.02 3297.44 3299.45 3303.84
3308 3314.54 3320.48 3326.53 3335 3341.51 3350.82 3357.12 3367.09 3376.45
3383.94 3394.06 3408.64 3415.47 3422.48 3438.19 3443.59 3455.39 3467.01 3474.01
3486.99 3501.53 3515.03 3547.22 3572.28 3589.71 3619.65 3656.34 3684.95 3725.84
3762.62 3775.93 3775.26 3768.93 3774.12 3776.68 3774.84 3784.36 3786.33 3785.26
3798.63 3806.22 3834.44 3874.64 3913.2 3976.11 4025 4048.88 4077.64 4088
4089.5 4132.24 4195.98 4266.29 4340.85 4412.75 4452.02 4425.07 4364.26 4295.93
4246.12 4230.63 4213.01 4207.8 4230.19 4294.25 4313.91 4272.04 4215.56 4219.51
4220 4202.45 4160.9 4100.8 4047.85 3988.3 3924.17 3848.19 3764.02 3702.81
3661.58 3655.67 3645.69 3626.76 3592.87 3526.6 3462.21 3434.57 3479.39 3541.51
3643.44 3718.22 3788.46 3857.72 3915.57 3917.62 3917.61 3908.24 3926.9 3961.44
4008.6 4049.02 4066.9 4049.14 4035.5 4043.85 4087.88 4133.23 4149.09 4186.15
4207.59 4264.03 4283.62 4262.55 4228.49 4196.63 4179.93 4178.46 4152.93 4149.83
4137.73 4117.26 4072.37 4042.68 4046.18 4081.65 4132.47 4162.95 4168.13 4138.11
4093.97 4044.11 4023.17 4079.87 4150.94 4208.72 4249.95 4271.12 4254.51 4231.57
4183.9 4146.03 4136 4099.23 4022.86 3929.69 3837.08 3758.48 3701.76 3659.28
3686.08 3761.43 3828.53 3907.14 3984.69 4059.99 4117.07 4127.77 4142.68 4147.93
4091.99 4065.59 4020.84 4025.1 4081.65 4092.01 4062.23 3988.46 3916.32 3952.7
3976.88 4019.26 4085.2 4132.81 4121.23 4082.21 4052.77 4053.9 3977.52 3897.82
3935.78 3981.14 4003.59 4006.78 3973.79 3934.55 3931.62 3872.51 3827.44 3769.23
3744.24 3766.41 3797.61 3834.7 3884.99 3916.73 3951.32 3995.11 4060.31 4130.59
4184.49 4242.87 4303.94 4356.63 4386.54 4384.32 4385.39 4358.56 4360.11 4391.65
4475.71 4531.22 4536.09 4451.6 4375.02 4364.9 4335.45 4278.44 4256.91 4263.84
4262.38 4264.08 4257.58 4281.52 4348.59 4410.63 4440.03 4434.83 4387.1 4334.33
4303.52 4270.37 4230.03 4191.78 4154.72 4132.1 4092.73 4055.02 4018.61 3994.45
3973.04 3960.48 3937.19 3918.82 3886.1 3844.1 3857.7 3859.61 3858.07 3847.87
3814.95

3112.05 3115.34 3118 3121.34 3124.56 3128.01 3131.16 3134.7 3136.8 3142
3146.28 3149.34 3153.92 3156.74 3162.79 3163.83 3169 3172.57 3171.97 3178.98
3184.03 3186.01 3190.64 3196.81 3198.55 3203.54 3210 3209.31 3215 3218.46
3223.25 3227.73 3231.91 3235.06 3239.08 3242.97 3247.96 3253.27 3258.83 3263.95
3268 3272.53 3275.05 3279.59 3285.39 3290.42 3296.03 3299.05 3304.4 3310.52
3312 3315.96 3320.99 3328 3331.98 3336.59 3350.09 3358.71 3366.92 3377.74
3385.97 3395.59 3408.59 3417.45 3427.19 3441.32 3444.57 3456.57 3470.74 3478.97
3490.18 3503.87 3513.09 3525.52 3538.52 3545.91 3574.32 3604.04 3644.29 3674.37
3687.06 3706.76 3701.44 3697.41 3703.44 3709.24 3723.78 3733.41 3775.58 3807.49
3820.63 3840.17 3846.63 3877.13 3911.76 3982.22 4026.83 4079.99 4135.99 4168.51
4159.03 4181.66 4233.99 4290.74 4368.36 4435.93 4463.7 4441.1 4374.15 4303.33
4257.2 4237.69 4221.45 4220.73 4259.66 4327.57 4355.04 4317.17 4281.09 4276.2
4242.57 4194.24 4123.99 4070.81 4022.13 3970.32 3921.77 3848.98 3766.04 3711.71
3733.11 3742.48 3718.14 3663.69 3589.47 3513.05 3443.62 3463.31 3495.13 3562.39
3672.61 3728.02 3786.31 3826.37 3842.83 3843.69 3850.07 3853.65 3885.87 3933.37
3986.01 4016.69 4012.84 3995.28 3970.77 4001.79 4041.66 4062.58 4077.44 4125.07
4215.6 4296.98 4321.05 4276.23 4237.18 4236.5 4243.73 4232.38 4190.52 4185.32
4163.41 4139.7 4083.21 4054.81 4061.12 4095.76 4150.28 4198.33 4202.65 4160.77
4116.02 4078.1 4063.48 4093.72 4157.84 4231.4 4286.95 4341.56 4337.56 4290.86
4241.94 4169.27 4132.04 4082.8 4008.84 3917.11 3843.53 3820.43 3728.36 3676
3700.74 3769.13 3856.25 3941.9 4004.44 4071.11 4143.52 4191.58 4206.67 4203.56
4160.05 4118.52 4068.88 4089.6 4145.22 4144.34 4093.04 4022.37 3962.82 4016.76
4047.9 4054.66 4110.45 4183.71 4186.08 4156.2 4113.9 4065.32 4010.23 3955.01
4004.59 4042.56 4082.69 4072.35 4035.22 4011.71 3995.02 3943.9 3887.05 3814.31
3770.35 3750.36 3760.55 3806.94 3843.87 3873.8 3908.31 3968.5 4030.95 4089.13
4138.16 4207.83 4278.2 4338.33 4330.96 4327 4340.82 4328.03 4299.06 4338.84
4413.65 4486 4488.98 4435.04 4378.36 4360.77 4335.97 4272.1 4250.65 4251.17
4245.26 4235.94 4230.72 4269.4 4327.6 4389.29 4403.34 4379.43 4327.85 4280.39
4239.12 4205.56 4180.14 4147.67 4121.83 4090.13 4063.45 4040.53 4011.43 3986.49
3969.99 3953.47 3926.87 3898.58 3873.1 3855.5 3836.48 3817.21 3796.5 3804.55
3795.89

3113.56 3116.58 3120.97 3123.94 3127.93 3131 3134 3137.68 3139.01 3147.08
3148 3149 3152.59 3160.66 3165.06 3167.49 3171 3173 3178.86 3183.01
3184.99 3186.59 3192.99 3197.91 3200.3 3205.33 3209.5 3210.79 3217.11 3223.2
3227.04 3230.65 3236.64 3238.13 3241.21 3247.71 3252.54 3257.43 3262.79 3264.58
3270.89 3273.03 3280.48 3285.04 3289 3293.3 3298.63 3301.25 3309.08 3311.02
3315.61 3318.92 3323.03 3328.02 3335.45 3344.85 3349.88 3356.45 3366.66 3375.52
3385.81 3410.27 3415.39 3421.72 3430.56 3440.84 3449.05 3459.37 3470.89 3483.21
3498.57 3512.69 3519.3 3533.65 3542.29 3556.88 3567.66 3579.33 3591.74 3602.59
3624.92 3640.36 3654.27 3690.52 3718.71 3746.99 3794.07 3793.09 3821.36 3867.5
3898.29 3903.54 3904.81 3915.49 3936.63 3958.45 4012.38 4079.55 4150.69 4222.11
4233.44 4248.36 4270.4 4333.7 4407.29 4452.9 4482.3 4445.32 4376.41 4308.15
4261.79 4241.52 4234.35 4236.1 4273.33 4342.01 4394.34 4379.67 4338.51 4281
4227.68 4147.9 4083.38 4022.56 3960.17 3910.77 3856.56 3824.55 3753.98 3785.05
3816.47 3795.94 3740.71 3661.6 3583.16 3492.78 3464.41 3487.63 3503.74 3568.7
3670.73 3719.45 3743.38 3752.78 3771.39 3780.77 3801.25 3817.97 3869.85 3926.43
3971.04 3959.07 3940.1 3922.49 3919.22 3956.11 3972.77 4036.49 4109.13 4168.17
4247.28 4336.54 4337.98 4290.98 4291.16 4306.74 4308.56 4262.84 4243.94 4232.62
4194.86 4153.04 4098.98 4072.23 4062.88 4100.81 4165.96 4212.55 4222.29 4188.15
4151.07 4122.13 4110.34 4103.71 4174.22 4247.85 4360.12 4398.28 4379.36 4319.27
4241.58 4161.21 4105.38 4040.71 3986.16 3912.28 3921.92 3874.84 3783.05 3698.36
3701.64 3784.48 3871.91 3948.32 4009.34 4077.54 4155.77 4227.05 4258 4251.46
4226.4 4195.61 4127.18 4152.37 4193.85 4197.82 4124.2 4062.7 4023.69 4056.93
4102.84 4095.02 4125.52 4195.93 4237.72 4231.71 4181.26 4104.82 4071.58 4024.8
4072.66 4108.88 4133.18 4128.03 4100.63 4073 4060.15 4017.47 3968.8 3874.74
3816.19 3789.99 3775.82 3769.24 3805.97 3849.34 3892.57 3941.25 3994.66 4062.4
4120.45 4199.4 4272.23 4294.76 4276.26 4245.64 4289.24 4289.93 4260.45 4292.71
4364.25 4432.36 4455.25 4426.51 4352.98 4333.29 4296.88 4266.24 4241.68 4239.71
4236.25 4223.07 4211.93 4238.14 4295.7 4359.02 4378.21 4348.28 4291.13 4240.23
4206.84 4181.95 4154.67 4124.63 4107.03 4074.44 4043.89 4025.12 4013.18 4008.21
3986.72 3966.36 3948.38 3932.34 3908.08 3898.47 3873.6 3849.34 3821.77 3776.29
3775.17

3115.04 3117 3119.74 3123 3130.09 3133 3135 3139.09 3144 3148.75
3150.2 3150.9 3156.51 3163.24 3167 3168 3171.47 3173.01 3180.81 3183.99
3188 3193.09 3194.73 3199 3203.19 3205.72 3211.02 3214.02 3217.85 3224
3229.61 3233.98 3237 3241 3244.67 3249.97 3254.94 3261.06 3263 3268.26
3271.98 3278.27 3284.01 3288.06 3292.38 3297.49 3300.07 3305.99 3312.01 3314.05
3318.34 3324.34 3330.39 3335.23 3338.02 3342.19 3345.42 3354.22 3365.31 3373.27
3385.45 3411.19 3418.84 3426.02 3438.51 3450.39 3461.41 3473.99 3486.29 3501.1
3510.96 3522.26 3536.47 3544.53 3559.83 3568.84 3582.8 3592.01 3596.83 3609.67
3632.34 3662.19 3694.38 3737.22 3788.49 3831.13 3829.33 3830.02 3840.25 3912.93
3967.16 3978.73 3982.1 3978.76 3993.85 4011.83 4025.59 4074.19 4141.28 4215.71
4267.77 4305.05 4329.58 4371.22 4437.91 4490.91 4504.15 4445.96 4393.34 4327.01
4277.31 4256.62 4253.39 4247.83 4279.23 4346.17 4409.93 4412.01 4348.59 4282.65
4208.8 4133.75 4079.48 4025.76 3991.28 3944.75 3907.09 3847.82 3837.54 3856.07
3851.27 3798.55 3739.24 3660.3 3583.9 3479.81 3465.84 3490.65 3509.24 3573.91
3625.1 3652.42 3666.98 3690.29 3715.64 3727.05 3758.12 3803.41 3841.17 3864.41
3894.19 3893.21 3875.58 3874.31 3902.01 3954.26 4024.21 4075.09 4141.04 4193.28
4263.54 4359.39 4354.52 4322.81 4348.28 4364.91 4355.06 4313.22 4309.51 4277.07
4221.96 4162.17 4117.75 4088.84 4073.26 4103.41 4161.24 4224.81 4236.24 4229.15
4190.13 4157.85 4137.7 4126.58 4188.19 4263.2 4345.92 4404.2 4399.22 4317.58
4245.12 4166.63 4101.18 4026.03 4008.47 3990.78 3968.87 3914.13 3837.93 3723.31
3705.88 3792.5 3872.83 3936.87 4014.71 4069.46 4152.52 4214.36 4267.6 4301.05
4291.45 4247.41 4189.8 4217.56 4251.24 4222.42 4162.23 4122.79 4082.72 4098.21
4153.61 4150.69 4147.1 4205.52 4269.78 4276.39 4229.05 4179.9 4123.98 4081.16
4114.31 4166.57 4211.43 4206.93 4169.35 4134.72 4097.65 4039.99 3976.1 3915.33
3879.91 3822.34 3801.2 3766.91 3785.37 3825.56 3869.19 3925.9 3968.71 4030.08
4097.48 4174.55 4259.03 4272.09 4226.74 4203.7 4238.87 4251.7 4237.42 4260.77
4337.55 4404.49 4426.8 4396.51 4334.35 4312.42 4285.97 4266.61 4218.94 4217.73
4214.65 4207.98 4199.88 4212.78 4263.29 4327 4343.83 4319.49 4261.79 4217.74
4193.84 4163.62 4141.39 4119.84 4095.25 4073 4057.88 4049.56 4035.02 4032.56
4022.37 4010.12 3983.94 3962.76 3937.83 3916.49 3890.74 3881.01 3835.48 3784.59
3761.19

3117.21 3119.35 3123.49 3128.62 3129.88 3135 3139.01 3140.49 3145.52 3149.54
3152 3153.63 3159 3162.61 3166.32 3167.84 3174.65 3176.68 3182 3188.11
3189 3193.02 3197.03 3201.72 3206.68 3208.64 3213.58 3216.85 3222 3225.08
3230 3233.89 3241.1 3242.24 3247.45 3250.05 3256.07 3260.96 3266.03 3269.33
3273 3277.96 3285.79 3288.67 3296.01 3299.85 3304.82 3308.99 3315.52 3317.14
3321.4 3326.4 3331.68 3338 3339.63 3348.65 3349.96 3355.07 3360.02 3369.91
3382.78 3405.03 3418.7 3428.22 3445.58 3456.95 3468.94 3484.87 3496.46 3515.25
3529.02 3535.82 3549 3559.94 3575.85 3590.99 3598.75 3607.24 3615.22 3620.66
3654.58 3693.02 3754.67 3790.44 3820.83 3871 3898.46 3891.76 3853.93 3911.38
3975.88 4017.11 4061.38 4059.14 4057.63 4067.35 4087.87 4112.42 4154.8 4204.3
4262.81 4310.27 4378.52 4432.45 4489.47 4527.35 4509.58 4448.32 4395.01 4348.17
4305.28 4290.82 4288.54 4264.43 4285.1 4345.38 4410.24 4416.43 4348.01 4279.25
4210.93 4167.85 4139.69 4080.73 4045.6 4004.09 3981.21 3928.33 3912.91 3896.97
3855.6 3798.41 3723.71 3637.93 3560.35 3484.45 3461.4 3489.58 3508.38 3529.26
3556.24 3573.72 3597.22 3628.52 3666.19 3680.09 3719.66 3744.61 3768.58 3791.57
3834.74 3833.3 3828.48 3854.76 3937.17 4007.02 4065.64 4114.34 4170.25 4229.96
4286.97 4359.88 4389.38 4366.08 4390.54 4416.22 4392.13 4376.17 4359.94 4303.66
4233.06 4179.37 4135.12 4106.82 4089.82 4111.33 4179.64 4251.97 4295.87 4283.3
4244.51 4186.07 4156.69 4144.89 4183.92 4247.21 4321.52 4369.36 4387.36 4341.8
4267.55 4186.22 4129.75 4109.12 4081.72 4060.49 3995.06 3932.5 3852.82 3753.86
3706.98 3772.14 3866.64 3926.62 3994.43 4062.67 4110.9 4171.61 4245.8 4316.34
4337.03 4310.38 4264.77 4289.11 4300.02 4260.87 4221.26 4189.02 4139.3 4142.33
4203.55 4215.66 4202.74 4221.05 4274.32 4318.91 4285.17 4245.24 4191.24 4138.43
4146.5 4222.22 4272.49 4263.6 4230.7 4189.94 4127.3 4076.66 4007.03 3960.31
3933.27 3878.53 3827.65 3788.13 3774.91 3818.51 3853.96 3907.34 3944.28 4002.93
4088.68 4147.53 4235.95 4233.8 4190.73 4195.06 4227.7 4230.45 4234.02 4267.59
4336.62 4405.04 4418.96 4373.51 4314.38 4302.26 4281.97 4263.74 4220.06 4190.28
4193.24 4190.24 4194.67 4230.86 4248.22 4292.14 4289.01 4258.76 4216.03 4183.15
4164.85 4150.92 4146.3 4128.53 4117.21 4098.88 4086.58 4074.35 4064.38 4050.04
4042.04 4019.89 3998.68 3976.13 3950.38 3935.85 3912.58 3889.28 3853.95 3802.6
3768.37

3118.76 3122.66 3125.54 3129 3131.6 3136.6 3140.57 3142.94 3145.09 3149.09
3151.29 3158.37 3160.15 3162 3166.22 3173 3174.06 3179.01 3183.13 3187.58
3189.9 3194.62 3199.82 3203.38 3210.48 3212.99 3217.92 3219.74 3226.13 3228.25
3232 3236.75 3241.91 3247.05 3252.98 3254.89 3259.66 3263.71 3269.09 3274
3273.56 3282.23 3289.05 3291.88 3298.98 3302.59 3307.72 3314.09 3315.99 3320.1
3324.56 3331.04 3336.9 3338.23 3345.96 3356.2 3358.91 3359.09 3360.7 3367.01
3387.22 3408.12 3426.72 3436.51 3445.61 3461.3 3474.86 3495.88 3517.25 3539.33
3552.82 3564.31 3568.66 3584.08 3594.71 3612.19 3618.74 3632.18 3641.35 3648.5
3657.05 3706.58 3778.15 3828.51 3855.45 3908.57 3943.94 3946.93 3911.93 3899.88
3938.11 4016.76 4084.4 4117.6 4123.69 4130.74 4147.57 4182.55 4223.24 4257.23
4294.05 4355.01 4416.44 4472.05 4533.34 4537.48 4505.38 4441.62 4390.76 4366.09
4333.33 4326.48 4310.98 4278.58 4307.6 4367.63 4431.55 4432.04 4368.93 4312.83
4262.55 4237.29 4180.49 4120.94 4081.68 4048.23 4012.42 3967.85 3925.02 3899.9
3847.78 3775.31 3706.7 3636.07 3553.77 3483.35 3464.98 3480.3 3530.83 3576.77
3619.14 3634.51 3648.81 3638.23 3643.02 3668.02 3679.32 3697.27 3730.81 3743.44
3774.32 3791.17 3835.46 3905.12 3971 4028.29 4083.79 4137.86 4184.96 4238.62
4311.2 4378.76 4422.49 4419.98 4420.86 4446.42 4447.31 4427.01 4377.06 4303.86
4237.95 4193.03 4153.75 4116.82 4103.95 4118.73 4200.6 4299.93 4354.22 4324.7
4267.84 4212.14 4179.92 4164.55 4176.05 4217.12 4275.94 4331.8 4375.79 4342.09
4273.57 4211.58 4201.51 4183.09 4126.36 4068.85 3995.24 3937.85 3856.47 3767.08
3734.96 3766.65 3832.88 3917.8 3986.83 4056.49 4120.53 4181.55 4255.33 4330.22
4369.07 4355.25 4331.3 4351.63 4359.35 4313.09 4293.51 4265.08 4203.53 4173.16
4234.92 4281.26 4278.06 4254.51 4285.66 4354.79 4360.3 4297.27 4251.3 4201.7
4199.69 4266.34 4322.35 4321 4287.11 4220.64 4159.08 4121.08 4054.32 4009.27
3975.48 3915.86 3866.41 3819.68 3772.63 3796.76 3837.78 3894.51 3937.71 3989.76
4065.07 4129.6 4205.4 4196.33 4167.6 4175.37 4207.75 4222.28 4233.75 4292.91
4363.77 4407.59 4398.44 4339.8 4292.14 4290.41 4252.56 4237.15 4205.64 4166.55
4183.2 4177.65 4197.26 4238.17 4246.01 4251.88 4232.16 4210.43 4187.72 4182.59
4184.98 4193.53 4180.59 4176 4160.13 4161.94 4137.94 4119.67 4093.01 4077.49
4050.8 4024.03 4003.74 3981.81 3960.97 3948.56 3923.85 3900.96 3868.2 3817.94
3782.33

3119 3122.25 3125.01 3129.09 3132.36 3138.96 3137.8 3142.51 3145.82 3151.87
3155.2 3158.96 3161.61 3164.96 3169.91 3175.01 3176.63 3181.51 3184.88 3188.89
3192.45 3197.43 3201 3204.27 3207.9 3213 3219.29 3222 3229 3229.98
3232.33 3239 3242.03 3249.57 3254.58 3256 3262.51 3264.57 3270.5 3274.79
3280.21 3286.18 3288.99 3296.21 3299.3 3306.19 3309.53 3314.15 3321.97 3324.3
3327.46 3334.55 3339.58 3345.67 3350.25 3358.96 3361.42 3368.34 3369.59 3377.47
3389.45 3412.5 3432.83 3454.48 3465.91 3482.41 3494.35 3500.39 3525.61 3558.66
3575.87 3586.16 3602.68 3613.95 3622.5 3631.48 3642.48 3650.55 3660.25 3680.75
3686.61 3705.93 3780.89 3825.88 3875.27 3933.86 3976.07 3985.18 3967.95 3956.51
3953 4007.15 4079.47 4126.57 4165.61 4191.9 4205.36 4243.19 4281.48 4309.96
4344.77 4381.22 4421.4 4470.5 4523.99 4537.26 4495.3 4435.4 4400.21 4372.03
4346.94 4327.97 4309.05 4302.79 4338.84 4396.61 4438.96 4440.33 4406.15 4358.02
4314.27 4253.31 4194.97 4137.37 4089.47 4045.76 3999.92 3951.38 3909.98 3862.79
3829.18 3774.34 3707.58 3633.05 3557.27 3498.98 3474.53 3473.92 3532.73 3609.3
3657.21 3698.25 3712.57 3711.49 3718.83 3734.61 3751.14 3766.12 3787.07 3807.27
3785.63 3824.38 3870.86 3927.73 3978.49 4045.61 4104.81 4163.94 4216.57 4267.43
4330.45 4402.77 4445.41 4459.15 4467.84 4473.14 4477.91 4433.48 4369.7 4300.83
4255.7 4218.9 4176.27 4137.79 4134.19 4160.01 4249.38 4343.38 4362.49 4326
4284.39 4244.34 4214.79 4190.52 4188.1 4204.29 4247.87 4305.4 4354.03 4348.13
4314.04 4278.28 4270.35 4212.3 4129.96 4057.83 3972.76 3894 3848.3 3788.58
3747.47 3774.93 3842.09 3942.88 4000.65 4085.64 4139.7 4205.93 4266.33 4336.04
4365.79 4361.95 4380.45 4411.34 4408.93 4372.04 4358.95 4322.39 4267.73 4231.13
4246.89 4307.9 4334.46 4334.14 4322.55 4362.04 4380.18 4350.85 4289.12 4261.85
4250.29 4290.75 4341.88 4356.4 4319.53 4242.9 4200.91 4151.66 4109.68 4051.96
4020.32 3981.01 3913.17 3847.31 3787.56 3792.21 3831.85 3878.14 3928.36 3982.79
4053.82 4119.92 4174.09 4164.85 4140.04 4141.36 4172.31 4205.49 4233.68 4301.64
4364.46 4395.21 4371.24 4304.35 4270.37 4251.95 4195.21 4181.28 4173.87 4168.04
4169.3 4173.82 4197.19 4230.78 4232.98 4212.31 4202.77 4205.75 4208.17 4221.6
4242.57 4253.53 4251.19 4241.62 4218.43 4225.22 4205.18 4174.68 4139.39 4116.56
4091.39 4047.24 4018.67 3992.83 3968.34 3951.59 3930.81 3908.23 3871.2 3826.03
3780.39

3120.24 3124.52 3127 3133.93 3134.84 3140.09 3142 3145 3149 3153.04
3156.93 3159.7 3165.53 3167.52 3171.53 3176.46 3180.38 3182.72 3184.16 3191.32
3194 3199.45 3202.67 3208 3209.16 3216.96 3219.94 3224.97 3228.78 3232.77
3234.62 3241.35 3244.06 3249 3254.49 3260.58 3266.39 3269 3272.2 3277
3282.14 3286.23 3290.07 3297.12 3303.22 3309 3314.65 3319 3324 3327.63
3333.75 3339.6 3343.84 3348.26 3352.18 3357.9 3363.92 3373.23 3374.12 3378.47
3390.93 3420.22 3433.11 3454.83 3480.02 3518.87 3536.09 3532.21 3546.39 3569.95
3597.51 3613.19 3624.03 3648.11 3660.5 3667.67 3669.05 3678.84 3706.4 3735.64
3742.15 3732.52 3753.48 3816.2 3876.89 3931.86 3987.14 3994.79 4008.41 4011.35
4011.22 3993.59 4052.72 4108.71 4172.6 4216.88 4251.47 4263.99 4290.7 4311.77
4342.63 4364.33 4396.07 4432.44 4501.06 4530.28 4509.85 4453.54 4420.76 4382.78
4352.7 4328.68 4326.56 4342.16 4381.79 4424.33 4440.57 4429.32 4403.32 4364.05
4309.52 4234.59 4167.89 4107.6 4053.11 3982.3 3936.8 3894.65 3874.75 3811.9
3777.72 3733.78 3691.66 3620.23 3552.53 3506.44 3488.12 3473.85 3521.13 3597.73
3665.02 3727.32 3776.71 3782.6 3784.19 3814.79 3818.61 3831.6 3844.62 3861.21
3848.6 3836.36 3889.35 3928.81 3969.32 4028.22 4103.04 4170.67 4216.57 4269.64
4307.08 4408.36 4428.36 4465.15 4498 4501.22 4488.61 4438.16 4385.05 4338.17
4292.57 4241.7 4214.83 4169.64 4150.32 4192.12 4249.03 4332.69 4369.28 4364.69
4335.8 4293.32 4259.26 4229.2 4214.39 4212.74 4226.29 4270.6 4324.6 4369.56
4372.84 4320.88 4282.24 4212 4128.88 4060.13 3986.67 3910.24 3875.93 3817.02
3769.38 3786.79 3843.26 3932.01 3985.15 4072.52 4101.05 4169.59 4243.62 4274.75
4285.78 4321.67 4362.69 4415.79 4430.73 4430.66 4424.83 4362.59 4315.41 4291.16
4285.15 4299.43 4360.3 4381.32 4365.17 4376.68 4414.46 4401.76 4348.83 4316.43
4305.15 4322.34 4363.45 4381.36 4350.27 4289.38 4252.74 4210.81 4151.58 4104.02
4074.87 4004.77 3950.62 3867.34 3808.42 3792.85 3826.36 3864.6 3908.78 3974.45
4050.16 4111.71 4148.66 4131.26 4117.63 4147.83 4171.55 4201.35 4261.88 4315.22
4365.8 4364.22 4324.47 4276.66 4239.13 4204 4150.19 4153.31 4144.13 4161.98
4161.86 4170.73 4192.79 4194.68 4218.17 4232.86 4251.1 4255.69 4267.82 4286.3
4305.32 4326.5 4325.13 4297.12 4280.76 4284.79 4264.04 4228.04 4178.41 4155.18
4119.24 4069.33 4041.86 4009.5 3979.73 3951.9 3929.66 3907.25 3874.38 3825.6
3776.6

3122.12 3125.16 3128.55 3133.99 3137.05 3138.1 3141.73 3146 3152.68 3153.45
3157 3159.01 3166.32 3169 3173.31 3177.2 3179.49 3184.13 3191.16 3196
3196.27 3201.02 3203.95 3213.34 3213.9 3218.35 3220.31 3224.64 3231 3235.56
3240.41 3244.7 3248.26 3251.04 3259.14 3262.47 3264.36 3270.08 3277.01 3282.66
3284.01 3288.74 3296.47 3298.62 3307.69 3313.03 3313.84 3323.92 3329.28 3334.35
3340.66 3341.46 3347.92 3353.24 3356.47 3361.11 3374.68 3374.71 3380.58 3382.92
3393.63 3421.34 3445.19 3472.17 3500.25 3538.93 3574.32 3571.85 3563.84 3603.75
3621.32 3648.03 3668.98 3698.91 3705.79 3710.77 3718.12 3722.06 3750.53 3794.27
3795.84 3778.99 3768.39 3791.71 3852.27 3912.12 3952.73 3976.85 4010.55 4046.57
4057.19 4047.99 4061.19 4101.73 4167.86 4220.36 4258.9 4260.25 4260.98 4267.86
4282.77 4296.49 4348.96 4408.02 4465.65 4517.54 4510.49 4480.99 4436.77 4390.06
4363.07 4358.61 4369.5 4388 4411.08 4425.73 4410.56 4376.94 4338.65 4304.4
4270.33 4200.93 4152.5 4089.97 4030.13 3953.37 3882.99 3833.49 3798.46 3760.59
3708.76 3680.93 3651.45 3612.27 3548.75 3513.4 3489.68 3479.93 3528.71 3602.21
3656.58 3725.76 3787.63 3834.47 3866.66 3883.81 3895.11 3906.11 3908.96 3913.25
3912.51 3892.59 3899.23 3936.76 3958.34 4001.58 4062.81 4109.79 4165.11 4211.94
4278.51 4328.87 4374.39 4441.37 4496.93 4503.58 4500.56 4476.61 4430.56 4371
4317.23 4292.27 4262.44 4209.51 4181.76 4223.15 4249.93 4314.22 4391.08 4410.74
4387.38 4354.08 4307.31 4279.94 4256.4 4244.55 4232.99 4253.43 4302.23 4358.97
4376.06 4331.25 4260.63 4196.33 4144.94 4059.97 3987.03 3968.74 3952.76 3867.43
3803.44 3767.93 3822.24 3878.24 3938.34 4014.4 4082.67 4151.31 4192.85 4210.41
4231.77 4266.59 4314.65 4385.3 4435.12 4451.98 4445.27 4407.84 4383.8 4362.02
4335.45 4320.39 4372.31 4405.01 4391.83 4401.66 4451.38 4460.87 4411.75 4362.87
4338.61 4347.03 4399.13 4420.33 4394.31 4363.39 4316.51 4252.89 4198.26 4139.58
4074.84 4005.53 3950.15 3878.82 3826.21 3793.07 3822.92 3858.35 3891.99 3957.85
4027.72 4080.51 4099.39 4090.65 4115.38 4138.73 4179.96 4237.65 4285.34 4313.98
4334.4 4312.76 4274.93 4233.08 4187.35 4156.61 4118.2 4125.53 4135.05 4149.57
4148.07 4180.41 4195.53 4211.07 4243.59 4280.14 4305.25 4320.11 4342.32 4347.3
4367.77 4373.75 4355.3 4325.67 4304.35 4303.56 4285.86 4249.19 4208.61 4176.39
4133.01 4092.42 4052.32 4016.94 3987.46 3958.29 3939.7 3904.87 3886.7 3842.25
3784.14

3125.61 3127 3131.7 3133.15 3136.59 3143.39 3146.97 3149.66 3152.47 3154
3157.46 3161.36 3166.25 3169.06 3173.24 3178.07 3183.41 3185 3193 3197.9
3199.89 3202.03 3210.19 3212.83 3215.92 3220 3222.96 3229.23 3231.23 3237
3242.26 3245.24 3248.89 3253.08 3258.78 3265 3267.31 3272.61 3276.57 3281.67
3286.52 3294.94 3298.89 3304 3307.81 3313.17 3317 3325.94 3327.79 3336.07
3340 3346.74 3352.01 3358.22 3362.28 3365.06 3372.36 3376.49 3384.18 3392.93
3401.38 3423.01 3455.01 3493.81 3532.45 3564.93 3602.24 3604.43 3585.55 3619.48
3655.56 3688.12 3715.14 3738.61 3765.27 3774.68 3778.08 3771 3792.32 3835.44
3845.49 3824.75 3834.05 3829.48 3828.07 3863.25 3904.44 3936.85 3979.09 4036.79
4089.75 4109.25 4122.06 4149.04 4202.63 4243.49 4246.97 4227.51 4203.02 4209.71
4233.63 4283.72 4334.3 4375.49 4411.51 4481.4 4514.99 4505.28 4456.6 4403.63
4388.92 4405.77 4394.97 4391.53 4398.38 4392.28 4367.45 4323.86 4279.77 4237.91
4210.94 4184.93 4159.23 4117.25 4063.68 3997.18 3928.89 3861.7 3783.65 3725.7
3686.61 3665.16 3619.24 3578.38 3545.34 3520.17 3490.31 3490.26 3530.16 3588.8
3642.87 3697.37 3776.25 3839.35 3879.95 3917.04 3948.31 3966.69 3977.83 3980.13
3971.37 3963.88 3934.75 3948.05 3970.02 4005.26 4041.51 4060.99 4084.32 4142.69
4205.31 4265.6 4352.61 4379.2 4414.14 4462.27 4493.04 4482.63 4443.17 4390.08
4371.66 4352.81 4294.46 4235.34 4208.69 4239.79 4248.69 4283.27 4367.16 4422.21
4436.89 4401.66 4365.55 4338.47 4304.49 4285.73 4262.76 4261.7 4275.74 4322.08
4368.7 4338.45 4269.52 4197.22 4133.79 4053.33 4040.51 4049.62 3999.33 3915.51
3834.3 3801.79 3804.18 3871.49 3939.29 4026.85 4087.03 4123.81 4140.32 4153.84
4186.16 4229.21 4287.9 4348.5 4389.94 4415.16 4431.56 4425.24 4429.42 4398.4
4370.44 4360.05 4399.99 4452.54 4445.6 4424.46 4462.25 4490.27 4460.13 4416.38
4368.55 4391.04 4435.17 4474.64 4452.68 4398.33 4325.21 4261.26 4201.52 4135.49
4058.95 4003.29 3927.65 3875.28 3838.03 3802.3 3827.49 3852.12 3892.32 3941.05
3998.52 4033.49 4065.25 4075.06 4109.73 4158.81 4213.88 4256.64 4290.1 4301.12
4284.74 4251.52 4221.68 4178.13 4136.24 4118.78 4101.2 4094.74 4108.59 4121.65
4152.99 4184.15 4216.52 4244.4 4275.98 4318.21 4345.06 4356.79 4389.55 4407.93
4407.82 4379.93 4350.91 4307.04 4284.39 4277.05 4266.86 4240.69 4219.25 4194.54
4149.83 4102.21 4058.12 4024.57 3989.38 3959.08 3938.33 3920.36 3884.11 3841.64
3793.99

3126 3126.79 3131.34 3136 3140.78 3144 3146.08 3147.74 3151.76 3157.99
3159.95 3162.25 3168 3174 3176.6 3179.67 3185.65 3188.52 3193.76 3197.31
3200.35 3206.39 3215 3216.26 3219.02 3220.14 3225.98 3230.12 3232.15 3237.05
3240.66 3245.38 3252.68 3255.71 3258.99 3261.5 3272.46 3274.3 3280.38 3285
3289.73 3294 3299.28 3303.3 3308 3316 3322.01 3328.06 3332.01 3338.85
3342.71 3349.37 3356.41 3363.13 3364.74 3370.63 3375.34 3381.32 3387.33 3395.52
3402.22 3421.2 3456.84 3494.87 3549.58 3595.45 3629.71 3630.1 3623.21 3648.23
3684.6 3737.85 3768.41 3788.86 3817.56 3839.21 3847.67 3834.37 3840.35 3875.66
3889.74 3881.67 3890.96 3877.14 3875.78 3875.3 3890.7 3952.07 3996 4045.83
4114.22 4159.8 4183.16 4193.98 4240.11 4243.3 4237.32 4195.7 4166.41 4174.79
4214.24 4249.97 4284.58 4317.6 4362.05 4439.43 4498.47 4492.73 4442.11 4396.61
4399.94 4408.61 4382.88 4344.57 4337.4 4336.04 4323.3 4284.85 4225.91 4179.4
4148.32 4126.64 4139 4123.41 4061.49 3996.29 3937.35 3858.68 3813.97 3769.67
3758.11 3720.7 3655.81 3590.52 3540.39 3513.56 3481.63 3500.24 3538.51 3596.73
3638.17 3691.3 3746.96 3800.83 3851.09 3913.06 3953.99 3985.61 4029.19 4049.75
4042.7 4030.23 4009.17 3993.76 3980.73 3998.83 4041.45 4062.55 4079.85 4103.23
4172.74 4222.42 4247.22 4306 4346.4 4405.3 4439.05 4465.66 4464.6 4419.71
4421.28 4389.21 4327.93 4266.39 4239.53 4235.86 4248.9 4266.76 4344.2 4421.1
4467.58 4462.68 4423.26 4386.76 4358.46 4346.51 4305.97 4288.14 4287.04 4294.72
4320.38 4302.49 4239.07 4158.9 4110.41 4090.76 4108.74 4089.27 4023.22 3945.44
3886.78 3838.2 3817.12 3840.5 3925.51 4002.65 4039.06 4056.19 4083.96 4125.19
4153.76 4201.71 4252.1 4286.49 4308.95 4345.78 4366.12 4413.58 4439.27 4401.5
4377.62 4378.05 4411.26 4474.53 4494.1 4469.14 4484.55 4518.45 4518.85 4473.09
4436.96 4459.9 4485.22 4508.9 4468.49 4398.61 4324.03 4251.04 4167.87 4095.59
4046.33 3998.14 3927.96 3875.8 3842.63 3811.49 3829.67 3865.64 3887.19 3921.98
3966.75 4011.29 4048.71 4074.85 4116.16 4168.97 4218 4254.41 4263.55 4247.5
4223.33 4195.78 4159.59 4123.02 4107.13 4090.15 4081.19 4072.04 4093.86 4132.48
4165.46 4204.73 4252.14 4296.1 4308 4346.7 4369.02 4361.89 4413.8 4432.51
4422.39 4373.55 4324.26 4265 4235.62 4228.02 4205.99 4189.98 4203.25 4197.2
4148.39 4099.98 4054.54 4028.06 3997.12 3964.42 3944.34 3921.06 3891.55 3855.19
3802.48

3127.96 3128.22 3131.29 3135.9 3140.19 3143.98 3147 3154 3155.34 3159.96
3161 3163.34 3169.58 3173.89 3177.01 3181.93 3188 3190.99 3194 3198.91
3200.22 3207.05 3212.29 3217.13 3221.03 3222.29 3229.42 3234 3236.02 3238.11
3246.52 3253.03 3254 3259.04 3264 3265.15 3272.24 3276.72 3279.96 3286.11
3290.67 3295.73 3299.88 3306.95 3314.2 3318.05 3324.59 3329.41 3333 3341.97
3347.97 3353.38 3356 3363.87 3372.26 3379.65 3379 3384.26 3394.17 3403.04
3409.02 3413.48 3443.95 3497.38 3549.96 3600.29 3634.87 3637.23 3638.53 3667.15
3686.3 3743.09 3799.27 3842.48 3883.41 3897.83 3914.11 3909.35 3909.15 3930.49
3933.26 3931.59 3940.4 3919.67 3927.49 3926.03 3935.97 3985.11 4035.38 4079.11
4115.55 4166.85 4192.64 4234 4260.29 4252.04 4223.35 4187.45 4136.05 4140.55
4174.04 4203.2 4231.64 4290.53 4344.22 4418.43 4474.01 4466.25 4404.97 4352.42
4368.18 4367.05 4327.37 4277.84 4266.77 4269.3 4277.69 4260.52 4199.98 4129.2
4083.68 4073.34 4092.67 4098.83 4051.53 3985.85 3926.3 3869 3819.94 3778.88
3763.58 3723.88 3656.44 3585.78 3536.16 3505.25 3483.56 3505.51 3540.58 3588.84
3625.12 3670.47 3713.81 3770.4 3838.16 3868 3911.46 3959.47 4029.23 4067.36
4098.4 4096.55 4065.38 4053.98 4039.98 4022.02 4022.72 4047.68 4077.22 4100.77
4130.24 4161.2 4192.61 4229.73 4284.66 4323.68 4374.07 4427.54 4452.52 4477.34
4470.76 4435.06 4362.52 4303.76 4260.78 4247.6 4254.49 4277.04 4328.52 4389.15
4474.76 4501.88 4486.94 4442.05 4424.63 4410.84 4365.28 4333.01 4325.28 4325.93
4303.23 4261.13 4214.54 4157.47 4149.52 4154.46 4155.95 4093.08 4026.82 3983.47
3936.59 3883.68 3840.6 3817.21 3875.84 3942.15 3966.6 4019.69 4066.34 4102.43
4134.55 4166.65 4195.72 4221.32 4256.76 4282.51 4320.7 4388.74 4456.85 4455.02
4404.64 4395.44 4412.05 4464.06 4516.96 4540.08 4542.96 4555.93 4558.15 4524.52
4481.51 4472.02 4493.88 4509.62 4458.32 4391.16 4314.69 4242.91 4195.45 4128.36
4084.65 4033.11 3958.89 3882.22 3838.21 3823.43 3829.14 3869.84 3888.13 3926.58
3963.63 4002.15 4040.39 4082.01 4128.1 4173.63 4197.65 4201.73 4194.99 4184.7
4161.71 4134.76 4108.74 4085.98 4071.48 4071.99 4073.21 4087.38 4107.41 4153.73
4196.98 4244.47 4294.75 4329.93 4337.89 4372.75 4397.22 4383.91 4410.52 4424.3
4408.55 4365.16 4308.49 4266.41 4232.21 4208.8 4194.92 4160.2 4161.27 4156.52
4124.42 4103.54 4079.04 4039.63 3999.08 3965.13 3948.69 3923.81 3898.31 3860.93
3817.4

3128.94 3130.15 3134.46 3137.95 3143.68 3148.6 3149.02 3153.94 3157 3159.38
3164.82 3166.38 3169.81 3173.02 3178.18 3182.04 3186.97 3193 3197.74 3201.59
3203.12 3206.07 3211.86 3217.97 3220.65 3225.17 3229.93 3233.47 3242.85 3245.44
3247.13 3253.6 3255.25 3261 3267 3270.42 3274.6 3278.48 3283.98 3286.93
3292.67 3298.7 3302.34 3309.5 3316.53 3321.01 3324.13 3332 3335.39 3340.3
3348.32 3356.57 3359.24 3366.29 3376.41 3382 3380.67 3388.85 3394.87 3406.62
3412.95 3417.87 3434.22 3481.17 3526.24 3576.83 3618.6 3618.75 3630.79 3650.67
3670.45 3732.48 3793.31 3848.02 3889.18 3916.42 3932.99 3950.79 3966.69 3970.23
3965.21 3981.36 3985.91 3977.9 3980.96 3980.54 3980.06 4031.77 4065.37 4085.08
4107.03 4133.91 4172.81 4211.68 4255.53 4248.72 4212.87 4170.04 4124.74 4103.82
4133.69 4160.38 4211.4 4263.69 4318.62 4385.76 4435.39 4428.39 4373.3 4327.54
4327.65 4330.12 4296.19 4249.64 4222.4 4209.49 4217.88 4216 4177.09 4125.21
4069.88 4024.26 4032.33 4048.17 4015.16 3963.37 3911.7 3854.34 3810.11 3760.48
3720.06 3668.15 3631.5 3577.41 3525.17 3505.7 3493.05 3496.96 3564.79 3629.83
3674.88 3681.82 3704.47 3755.14 3785.96 3830.27 3874.36 3935.75 3996.69 4062.75
4115.43 4137.76 4131.28 4113.72 4095.04 4087.27 4064.85 4054.08 4081.04 4096.81
4126.87 4138.9 4166.56 4200.58 4240.11 4277.88 4313.55 4371.77 4441.67 4498.05
4503.85 4448.95 4397.59 4344.52 4293.1 4271.61 4269.39 4282.39 4309.21 4368.87
4438.85 4503.65 4511.16 4503.11 4493.84 4463.62 4428.36 4376.7 4353.11 4344.45
4315.95 4281.14 4223.03 4189.75 4192.08 4201.43 4170.52 4113.04 4061.18 4017.03
3961.02 3918.6 3869.27 3854.69 3851.42 3907.71 3961.38 4004.96 4052.83 4088.6
4114.93 4130.26 4152.96 4181.86 4207.89 4236.81 4292.6 4356.52 4442.28 4478.17
4479.99 4421.79 4417.21 4439.37 4511.63 4574.88 4603.04 4597.59 4567.39 4523.75
4472.99 4443.93 4431.29 4451.58 4451.9 4409.15 4342.95 4283.57 4225.71 4177.29
4109.62 4037.31 3966.99 3892.79 3839.35 3846.45 3838.71 3854.43 3884.95 3920.65
3959.93 4002.52 4038.26 4073.78 4108.48 4138.31 4143.44 4145.08 4142.12 4126.25
4107.2 4086.87 4068.04 4060.42 4050.14 4064.84 4079.89 4104.09 4131.56 4158.6
4211.39 4270.56 4328.82 4350.79 4352.81 4385.06 4414.53 4409.35 4399.06 4383.66
4339.52 4315.97 4294.69 4260.75 4225.71 4203.99 4195.93 4155.26 4137.7 4151.59
4143.22 4121.08 4083.98 4043.33 4004.03 3975.09 3951.88 3923.22 3903.25 3866.16
3820.47

3130 3133 3135.98 3141.2 3143 3147.42 3150.49 3154.96 3157.94 3160.13
3166.23 3169.7 3171.07 3174.95 3180 3184.03 3187.01 3192.8 3197.98 3202.96
3204.66 3208.28 3212.77 3218.93 3221.43 3228.01 3232.62 3234.02 3242.06 3246.85
3250.03 3253.95 3263.6 3263.97 3268 3274.98 3279.67 3282.42 3286.01 3290.13
3293.44 3299.48 3304.27 3311 3316.32 3326.09 3327.99 3332.25 3338.26 3344.96
3350.52 3358.84 3363.81 3369 3376.99 3381.63 3387.47 3393 3398.49 3405.34
3415.44 3425.19 3430.3 3462.98 3508.45 3541 3564.93 3560.64 3583.6 3606.35
3648.31 3695.73 3746.6 3806.28 3874.25 3889.95 3905.32 3954.9 3971.58 3967.43
3962.35 3980.98 4001.12 4015.67 4018.77 4018.6 4028.52 4057.46 4065.78 4058.72
4066.35 4087.3 4111.04 4173.86 4235.1 4234.17 4197.19 4153.56 4113.42 4073.35
4117.09 4148 4199.39 4253.52 4312.71 4377.84 4418.46 4402.7 4347.69 4298.39
4291.62 4290.42 4264.82 4225.52 4196.37 4181.51 4174.79 4181.48 4154.66 4100.36
4067.2 4019.61 3987.04 3994.43 3963.08 3921.02 3860.65 3823.74 3801.14 3753.73
3720.93 3687.24 3641.56 3574.98 3530.46 3524.12 3507.75 3493.97 3604.97 3658.38
3730.93 3757.81 3754.25 3743.25 3781.04 3814.4 3876.22 3922.06 3979.56 4046.44
4108.9 4143.21 4165.56 4165.24 4154.05 4133.68 4123.89 4092.59 4075.26 4087.52
4101.11 4131.43 4150.07 4176.45 4204.51 4241.49 4284.86 4339.34 4421.88 4475.17
4506.81 4482.7 4438.65 4389.41 4342.31 4300.11 4287.76 4286.87 4303.55 4340.7
4408.8 4471.71 4522.3 4533.62 4515.71 4474.43 4424.76 4371.43 4349.64 4334.75
4321.82 4286.79 4242.86 4219.81 4225.63 4240.11 4209.73 4161.84 4101 4044.67
4002.51 3963.71 3905.44 3876.51 3851.88 3906.84 3954.7 3996.17 4037.66 4075.83
4100.17 4118.51 4146.3 4180.54 4199.64 4217.55 4264.55 4343.74 4421.7 4491.13
4517.22 4482.26 4458.85 4479.95 4525.69 4592.4 4618.68 4611.51 4563.16 4497.85
4420.61 4375.23 4358.07 4377.94 4416.61 4410.35 4367.46 4324.28 4264.26 4184.07
4114.44 4038.13 3979.36 3882.34 3836.04 3853.21 3865.72 3835.54 3875.56 3914.19
3956.76 3987.34 4017.68 4048.13 4083.85 4111.92 4120.85 4117.97 4091.32 4070.94
4051.39 4048.1 4041.73 4031.94 4044.69 4065.72 4092.64 4125.51 4161.91 4189.35
4235.19 4292 4340.82 4359.73 4366.01 4397.86 4415.74 4409.3 4374.45 4324.03
4281.81 4248.1 4234.62 4231.8 4204.64 4187.71 4176.77 4124.91 4107.17 4142.15
4141.69 4117.94 4078.62 4041.47 4008.38 3983.51 3957.71 3928.14 3902.77 3862.68
3815.25

3129.14 3130.43 3137.3 3143.29 3144 3146 3148.77 3152.18 3156.11 3161
3164.08 3168.98 3173.53 3175.67 3181.57 3183.01 3191.92 3193.57 3196 3197.36
3204.6 3209.32 3215.27 3220.19 3225 3228.24 3234.46 3237.85 3243.78 3247.98
3251.4 3258.24 3262.1 3270.49 3272.49 3278.65 3282.07 3284.39 3288.38 3293
3294.77 3303.37 3307.21 3311.2 3316 3325.52 3327.27 3335.75 3340.92 3344.63
3352.69 3359.01 3365.61 3370.53 3375.44 3384.37 3391.16 3395.09 3404.24 3410.13
3415 3423.29 3430.08 3441.08 3469.84 3494.85 3513.34 3534.57 3556.63 3583.02
3633.37 3693.05 3750.03 3807.91 3836.08 3836.6 3858.36 3899.95 3904.51 3894.23
3898.72 3927.85 3984.03 4012.16 4015.16 4038.32 4063.41 4065.53 4038.3 4011.85
4005.12 4027.89 4093.77 4166.53 4215.53 4212.23 4184.66 4141.35 4091.57 4052.04
4081.56 4125.57 4179.73 4243.69 4288.06 4336.68 4391.81 4379.58 4317.52 4280.16
4280.02 4282.85 4255.85 4215.22 4168.93 4136.94 4142.09 4166.65 4156.46 4109.87
4045.67 3991.69 3950.81 3953.09 3922.24 3873.81 3820.03 3779.44 3749.85 3730.07
3704 3681.18 3639.41 3575.8 3545.74 3532.01 3510.96 3495.37 3602.54 3664.57
3747.33 3822.42 3815.75 3799.73 3790.56 3812.43 3853.12 3893.74 3940.14 4003.18
4060.06 4110.82 4166.37 4187.18 4201.43 4192.85 4169.67 4150.16 4144.78 4109.84
4108.74 4130.99 4153.47 4171.09 4194.57 4222.66 4257.04 4309.36 4366.03 4445.46
4496.38 4519.48 4498.67 4450.96 4383.88 4339.51 4313.65 4297.71 4315.87 4331.57
4380.57 4440.22 4511.62 4526.27 4500.37 4447.12 4396.47 4358.69 4351.75 4334.89
4311.42 4283.84 4268.93 4242.59 4266.67 4290.46 4272.03 4197.19 4140.78 4090.18
4052.57 3993.94 3942.72 3907.62 3877.9 3893.43 3942.11 3977.69 4021.56 4050.46
4112.38 4146.37 4162.3 4180.24 4195.8 4209.26 4263.39 4336.64 4398.39 4491.35
4526.8 4543.65 4533.95 4533.24 4565.32 4622.68 4622.48 4604.52 4544.7 4474.22
4401.05 4339.86 4306.15 4315.44 4366.75 4393.47 4365.65 4323.08 4256.98 4187.94
4117.24 4051.64 3983.65 3908.01 3847.8 3861.72 3879.42 3848.83 3865.75 3903.98
3940.73 3977.14 4011 4047.33 4076.99 4081.04 4081.83 4065.11 4045.27 4031.35
4026.94 4027.61 4001.3 4018.92 4056.33 4080.61 4105.65 4151.54 4202.81 4236.41
4279.66 4314.8 4345.7 4353.62 4369.26 4400.52 4399.23 4363.14 4311.93 4269.43
4232.3 4200.37 4178.26 4173.42 4177.29 4169.63 4152.53 4106.44 4063.18 4094.42
4102.96 4083.32 4054.62 4029.02 4011.45 3983.21 3955.35 3925.23 3895.88 3864.01
3821.93

3134 3136 3139.15 3143 3143.97 3145.84 3150 3151 3156.79 3161.01
3163.96 3169.65 3173.94 3176.77 3182.51 3189 3193.19 3194.19 3198.97 3201.92
3208.38 3214.06 3217.06 3219.1 3225 3231.9 3235.01 3244.99 3245.55 3250.57
3255.2 3261.94 3265.68 3269.96 3278.43 3280.32 3288.55 3290.24 3296.01 3297.3
3304.2 3305.74 3310.71 3317.23 3317.99 3326.71 3333 3337 3342.5 3345
3353.91 3360 3365.27 3371.36 3378.61 3388.14 3393.96 3400.08 3405.3 3412.04
3421.64 3429.6 3436.03 3442.25 3451.93 3466.86 3492.91 3510.35 3534.28 3571.34
3631.66 3687.91 3735.49 3748.26 3767.96 3771.49 3808.45 3849.12 3843.27 3827.75
3857.37 3913.53 3928.85 3938.89 3975.74 4021.02 4049.87 4041.88 3996.7 3956.76
3971.28 4041.65 4097.95 4165.91 4186.72 4173.82 4150.55 4114.67 4063.46 4029.43
4067.54 4101.66 4138.83 4189.66 4242.82 4317.79 4383.68 4371.63 4313.34 4265.04
4246.98 4243.34 4232.28 4184.11 4142.09 4105.3 4098.65 4148.36 4157.12 4108.63
4044.3 3973.09 3901.64 3894.8 3856.04 3821.31 3803.9 3761.15 3716.81 3677.24
3662.36 3621.39 3609.32 3566.6 3552.41 3531.6 3506.46 3524.84 3613.51 3676.25
3767.06 3841.07 3884.43 3875.93 3879.88 3882.58 3876.81 3887.62 3903.62 3953.58
4002.89 4067.56 4122.61 4179.73 4207.63 4227.95 4221.36 4212.45 4198.87 4159.77
4151.96 4151.97 4170.77 4179.75 4191.89 4210.95 4239.49 4280.93 4345.86 4417.97
4481.92 4536.9 4547.25 4490.65 4434.52 4370.26 4336.02 4317.77 4323.58 4324.49
4371.13 4407.76 4457.21 4475.3 4462.19 4415.31 4382.58 4368.74 4358.21 4347.83
4320.72 4288.86 4282.3 4291.16 4324.85 4338.16 4307.92 4246.8 4189.91 4146.25
4079.51 4009.11 3968.29 3935.61 3915.55 3888.56 3920.06 3959.83 4000.23 4056.64
4129.29 4185.46 4212.87 4208.63 4201.06 4215.88 4239.88 4306.7 4382.06 4447.02
4499.18 4547.89 4575.7 4593.84 4616.81 4623.15 4624.98 4603.05 4562.1 4493.18
4408.21 4335.1 4296.07 4285.71 4319.32 4352.01 4350.88 4315.94 4262.88 4198.09
4124.73 4063.31 3996.09 3926.17 3865.34 3865.03 3883.65 3863.77 3868.75 3903.55
3933.94 3972.08 4005.74 4026.67 4040.47 4042.32 4033.76 4027.92 4011.14 4000.86
3998.16 3983.76 4011.6 4050.52 4087.08 4114.99 4140.27 4166.86 4233.21 4265.87
4293.31 4318.74 4335.43 4349.96 4380.41 4377.81 4355.01 4321.01 4274.11 4225.32
4192.97 4160.1 4140.51 4124.19 4121.5 4134.52 4140.04 4107.75 4052.98 4044.2
4053.47 4042.82 4029.15 4010.03 4009.87 3982.4 3954.7 3923.25 3893.89 3861.19
3822

3135 3138.97 3142 3144.66 3144.99 3148.14 3151.04 3154.22 3158.51 3163.96
3167.39 3168.43 3173.27 3176.93 3181.02 3188.78 3189.49 3196.5 3200 3205.16
3210.02 3212.95 3219.41 3223.04 3228.6 3235.13 3239.71 3242.43 3247.76 3256.04
3260.25 3263.95 3267.26 3274.15 3278.82 3282.03 3291 3296.69 3300.88 3303.59
3311 3314.48 3320.49 3324.16 3324.67 3330.93 3334 3336.05 3341.2 3345.68
3354.95 3359.92 3365.22 3368.31 3378.71 3387.47 3395 3402.77 3408.43 3418.47
3424.27 3431.5 3438.54 3444.75 3450.24 3456.32 3475.93 3500.32 3516.33 3553.82
3594.35 3632.73 3658.92 3703.12 3719.6 3729.5 3765.72 3788.23 3788.12 3784.8
3830.74 3868.27 3879.13 3877.78 3927.58 3978.24 4004.55 3981.88 3945.5 3909.74
3981.96 4050.16 4089.18 4113.98 4136.82 4122.85 4104.01 4062.04 4020.05 4015.15
4027.9 4070.04 4117.1 4177.31 4238.42 4302.91 4348.31 4337.8 4302.17 4253.22
4226.04 4219.29 4197.63 4154.78 4121.17 4079.78 4064.15 4089.19 4104.26 4093.45
4038.62 3977.8 3932.11 3870.27 3838.21 3828.55 3796.25 3793.67 3766.6 3773.05
3737.74 3681.65 3618.33 3566.67 3547.64 3512.21 3514.73 3565.21 3631.21 3693.97
3772.5 3843.71 3928.14 3966.6 3962.14 3966.48 3959.29 3958.66 3960.86 3971.76
3991.28 4036.64 4086.04 4129.3 4177.83 4229.09 4241.06 4253.18 4245.88 4212.81
4216.87 4196.71 4198.98 4200.34 4199.26 4208.51 4230.87 4258.82 4319.25 4375.45
4456.71 4524.18 4543.1 4508.47 4463.71 4412.32 4377.44 4335.81 4329.73 4332.75
4347.25 4382.45 4441.24 4487.38 4480.04 4413.27 4386.27 4376.94 4376.23 4373.74
4356.34 4337.56 4334.63 4354.64 4387.86 4392.3 4359.82 4299.52 4248.5 4182.27
4098.33 4060.81 4006.82 3974.97 3953.53 3925.16 3920.67 3950.43 3988.98 4045.59
4111.62 4181.48 4235.99 4255.97 4249.77 4227.07 4237.88 4271.66 4334.47 4390.56
4451.8 4512.96 4571.56 4605.14 4619.41 4613.11 4586.1 4559.51 4544.79 4500.25
4427.09 4353.16 4296.39 4267.94 4268.38 4296.06 4300.7 4254.2 4235.37 4200
4152.78 4093.42 4034.28 3935.87 3884.26 3872.69 3878.96 3869.2 3866.87 3897.59
3923.02 3961.71 3984.07 4006.98 4020.4 4012.94 4007.91 3998.13 3986.16 3977.9
3976.79 4008.15 4049.82 4086.56 4118.99 4146.43 4186.19 4213.05 4224.41 4256.02
4297.11 4317.06 4333.06 4370.04 4388.67 4369.67 4320.61 4277.31 4236.96 4205.56
4185.72 4147.23 4116.08 4099.75 4092.46 4096.43 4117.94 4106.38 4041.61 4006.94
4021.56 4008.31 3994.17 3984.96 3985.41 3968.1 3945.96 3912.9 3890.33 3857.94
3803.44

3138.15 3141.66 3142.22 3144.23 3146 3151.02 3152 3158.36 3161.45 3166
3168 3169 3174.99 3180 3182.08 3187 3195.3 3195.65 3202.55 3206
3211 3214.71 3220.35 3226.34 3233 3236.49 3241.54 3246.56 3251.11 3258.39
3260.36 3268.5 3272 3278.78 3286.72 3288.06 3294.24 3298.61 3304.03 3310.46
3315.44 3319.36 3324.12 3331.33 3335.8 3340.62 3344.21 3345.96 3348.17 3348.04
3353.54 3360.7 3365.18 3370.83 3378.62 3385.81 3395 3400.9 3407.3 3416.41
3435.13 3454.46 3465.5 3457.04 3453.56 3460.86 3469.19 3476.19 3490.27 3516.23
3545.16 3577.39 3611.08 3654.48 3663.31 3683.86 3744.78 3747.48 3729.82 3752.84
3811.18 3834.96 3825.5 3828.21 3890.92 3921.48 3960.69 3949.64 3900.89 3902.13
3980.01 4028.35 4033.69 4067.81 4088.87 4080.91 4056.67 4031.62 3984.87 3984.36
4037.03 4094.93 4145.16 4196.86 4249.49 4310.7 4343.87 4327.36 4283.39 4241.29
4215.7 4204.68 4180.79 4143.05 4111.47 4079.42 4046.57 4036.15 4040.77 4056.47
4042.53 4024.98 3989.17 3956.94 3930.98 3900.67 3856.21 3826.75 3811.2 3809.58
3768.75 3698.32 3620.7 3553.97 3513.49 3515.04 3532.31 3597.65 3668.86 3728.31
3782.6 3880.72 3960.36 4010.5 4021.14 4040.38 4039.01 4032.21 4034.31 4024.23
4019.37 4032.15 4068.23 4094.33 4139.89 4198.17 4242.36 4280.06 4284.67 4257.55
4257.67 4260.92 4255.71 4230.16 4218.99 4219.52 4227.37 4254.39 4295.32 4348.49
4411.55 4481.04 4522.88 4528.17 4494.24 4469.47 4404.8 4361.39 4341.25 4349.58
4369.73 4381.22 4444.13 4496.41 4493.47 4425.51 4400.21 4404.17 4421.67 4444.39
4445.4 4425.32 4402.98 4405.95 4434 4446.93 4409.35 4335.84 4276.67 4188.59
4137.76 4094.09 4049.28 4023.58 3989.14 3964.18 3934.29 3934.91 3965.41 4018.04
4081.65 4162.67 4226.06 4274.63 4303.2 4292.41 4276.59 4284.53 4301.98 4362.96
4416.18 4473.5 4530.97 4576.57 4590.47 4557.9 4528.05 4510.09 4499.33 4481.65
4446.96 4372.38 4309.63 4254.2 4250.18 4252.14 4253.4 4223.99 4188.91 4171.27
4144.38 4085.12 4022.89 3948.96 3900.81 3876.01 3885.9 3883.96 3872.07 3890.61
3916.65 3938.3 3967.64 3982.04 3979.23 3991.9 3973.88 3972.93 3960.07 3976.15
4005.98 4036.59 4076.22 4120.68 4150.96 4178.77 4205.92 4239.98 4251.32 4289.4
4312.48 4324.1 4361.97 4388.53 4384.71 4358.34 4306 4263.89 4233.91 4209.33
4185.21 4150.63 4123.86 4094.19 4075.5 4077.09 4076.4 4077.44 4038.57 3980.05
3983.52 3975.72 3952.63 3940.02 3946.36 3940.74 3918.87 3894.17 3876.05 3842.96
3788.7

3140 3141.99 3142.4 3147.42 3149.13 3153 3155.93 3158.15 3163 3165
3167.84 3171 3175.57 3178.7 3182.45 3189.51 3197.11 3198.23 3202.38 3206.15
3211 3215.35 3221.2 3225 3233.11 3238.18 3244.98 3251.04 3254.85 3263.01
3267.78 3272.57 3277.71 3279.96 3289.97 3295 3301.75 3303.41 3308.37 3318
3320.73 3327.16 3331.91 3337.15 3345.63 3347.94 3352.46 3354.82 3361.25 3359.26
3367.07 3372.3 3379.82 3381.47 3385.11 3393.87 3397.6 3410.4 3416.2 3434.25
3456.02 3487.9 3506.34 3500.8 3488.16 3470.97 3484.48 3489.42 3490.12 3500.32
3524 3545.4 3556.99 3607.36 3625.41 3674.85 3696.72 3702.84 3692.16 3744.56
3797.19 3801.51 3772.22 3791.2 3836.14 3899.75 3916.33 3912.4 3855.14 3879.25
3957.23 3987.91 3981.92 4013.6 4047.33 4036.29 4019.32 3992.37 3955.56 4005.51
4057.25 4119.2 4166.61 4208.8 4251.99 4315.45 4338.98 4320.66 4285.94 4244.01
4210.18 4190.52 4170.03 4144.36 4117.56 4081.17 4041.77 4001.78 4006.92 4033.57
4044.48 4021.07 3995.08 3979.23 3935.7 3899.56 3842.78 3808.9 3796.7 3790.64
3754.23 3677.84 3611.19 3537.25 3519.31 3527.14 3553.64 3615.71 3683.72 3766.09
3844.12 3915.5 3971.78 4038.05 4073.45 4105.09 4109.84 4111.75 4105.83 4093.96
4065.47 4061.29 4078.87 4093.19 4117.03 4165.94 4222.27 4280.5 4308.18 4318.89
4318.86 4311.35 4307.9 4275.36 4245.4 4234.14 4235.06 4248.78 4273.37 4321.84
4383.08 4442.53 4501.36 4538.22 4544.1 4487.86 4414.36 4380.79 4349.88 4362.09
4374.34 4378.87 4423.8 4493.94 4511.55 4460.22 4406.79 4416.48 4440.57 4495.73
4512.98 4494.41 4482.94 4456.12 4462.29 4479.42 4437.95 4349.66 4288.49 4240.29
4184.86 4131.77 4105.49 4097.55 4042.59 4002.84 3967.14 3939.07 3964.3 4000.12
4067.24 4137.54 4211.79 4284.04 4338.21 4351.48 4338.45 4320.79 4327.65 4344.16
4370.2 4426.93 4485.43 4536.84 4536.73 4493.16 4455.43 4430.47 4427.18 4447.3
4445.12 4399.46 4317.11 4252.72 4225.06 4237.26 4235.54 4209.56 4160.05 4134.42
4129.53 4081.17 4018.4 3958.89 3896.81 3886.7 3898.47 3895.85 3887.79 3883.85
3900.26 3927.48 3938.71 3951.09 3955.77 3962.27 3956.84 3955.64 3981.21 3998.28
4027.52 4056.47 4089.13 4129.39 4153.24 4178.92 4206.22 4251.65 4273.74 4292.83
4320.1 4365.1 4409.37 4410.52 4368.91 4327.9 4297.34 4272.7 4248.06 4209.58
4173.3 4150.18 4119.73 4090.12 4054.09 4059.19 4053.05 4051.5 4026.06 3996.13
3977.66 3976.57 3958.14 3916.06 3882.19 3890.15 3892.66 3873.55 3858.38 3824.92
3771.28

3141.13 3142.77 3144 3148.05 3150.12 3152.94 3157.34 3160 3162.64 3164.88
3168.63 3171.99 3175.07 3181.22 3183.86 3189 3193.77 3200.26 3200.68 3209.05
3213.98 3219.07 3222.09 3227.81 3233.95 3241.6 3245.95 3252.59 3259.47 3265
3270.47 3276.72 3281.54 3287.37 3291.48 3298.51 3302.3 3308.94 3310.33 3318.07
3325.4 3331.56 3339.89 3345.83 3352.96 3354.38 3357.27 3366.01 3369.18 3369.28
3371.62 3380.02 3387.04 3392.39 3401.02 3410.96 3414.97 3430.4 3440.09 3459.84
3472.29 3497.79 3523.35 3534.24 3522.05 3494.15 3522.29 3545.11 3534.52 3518.85
3512.99 3517.21 3543.27 3563.14 3591.55 3614.83 3640.63 3646.28 3668.29 3713.93
3746.31 3744.81 3726.84 3755.88 3796.13 3836.86 3876.02 3864.26 3825.92 3869.91
3916.12 3936.42 3932.65 3965.67 3993.67 3994.34 3977.97 3945.29 3949.58 4012.31
4076.45 4119.89 4141.23 4162.75 4204.6 4254.72 4295.35 4302.13 4272.97 4239.56
4211.26 4193.14 4177.66 4156.17 4137.18 4119.55 4075.83 4019.78 3964.28 3980.33
3968.22 3960.17 3956.96 3959.17 3899.11 3839.26 3782.45 3736.93 3723.66 3739.64
3718.94 3647.33 3582.64 3517.27 3537.23 3546.41 3579.5 3643.55 3731.9 3805.78
3854.97 3911.82 3969.81 4026.82 4073.34 4124.63 4172.91 4176.4 4163.27 4165.26
4135.56 4120.27 4104.06 4100.8 4117.69 4141.83 4184.11 4236.67 4303.1 4345.76
4366.19 4370.28 4353.44 4319.02 4277.87 4259.26 4246.17 4250.2 4273.12 4299.91
4354.08 4418.42 4467.68 4542.25 4553.65 4505.72 4427.89 4392.54 4354.54 4362.08
4376.61 4388.7 4416.45 4493.5 4541.08 4518.2 4448.54 4416.71 4436.5 4502.89
4534.8 4522.48 4521.07 4483.58 4502.11 4506.11 4452.09 4391.37 4336.69 4288.25
4215.28 4176.49 4184.51 4168.01 4107.79 4063.29 4005.11 3973.73 3964.13 3998.79
4056.98 4142.08 4217.1 4281.22 4357.89 4400.15 4414.89 4399.41 4375.07 4377.69
4393.76 4401.41 4433.87 4503.65 4497.94 4438.05 4396.9 4364.16 4362.08 4395.79
4418.59 4392.61 4327.32 4263.91 4219.88 4217.4 4210.04 4193.84 4154.99 4106.09
4072.13 4036.24 4008.92 3961.81 3896.89 3903.87 3920.07 3918.9 3909.46 3904.15
3911.67 3910.28 3917.9 3928.21 3931.07 3942.24 3958.84 3978.97 4006.59 4024.94
4042.38 4065.79 4090.94 4113.86 4136.8 4167.42 4191.44 4237.39 4277.71 4302.82
4359.35 4406.52 4415.43 4408.86 4355.18 4310.21 4279.39 4269.48 4253.09 4216.26
4173.32 4141.85 4108.18 4068.18 4045.74 4038.42 4039.59 4036.92 4051.18 4051.04
4044.84 4029.28 4007.01 3967.55 3909.98 3849.52 3821.97 3831.75 3830.15 3793.6
3753.26

3142.96 3145 3148.09 3149.41 3153 3157.01 3161.01 3163.43 3163.75 3166.9
3169 3173.58 3177.16 3181.92 3185.96 3188.08 3194.39 3201.14 3203.8 3208.89
3213.94 3219.05 3225.87 3231.28 3238.57 3243.73 3249.23 3255.13 3260 3268.39
3274.37 3277.31 3288.05 3291.66 3300.21 3301.06 3310.96 3311.71 3321.01 3323.55
3330.82 3335.53 3343.36 3353.94 3359 3366.76 3372.56 3376.88 3379.17 3378.64
3384.65 3390.66 3395.03 3400.86 3413.17 3429.79 3442.07 3460.4 3477.42 3496.22
3502.54 3509.6 3528.84 3552.19 3533.42 3510.02 3546.88 3578.96 3579.22 3566.77
3545.65 3533.78 3525.57 3535.83 3554.63 3575.68 3594.38 3615.88 3658.61 3681.12
3693.25 3691.62 3689.35 3715.53 3756.47 3794.84 3833.21 3824.58 3788.51 3842.87
3871.88 3896.83 3900.88 3928.93 3942.04 3943.06 3918.15 3905.5 3953.89 4002.08
4036.01 4056.62 4079.2 4101.05 4145.09 4183.34 4240.27 4273.68 4282.9 4271.6
4243.44 4225.63 4213.2 4202.72 4189.63 4146.82 4086.17 4025.48 3971.54 3926.44
3901.47 3895.66 3871.02 3881.28 3873.2 3806.23 3734.18 3673.26 3659.15 3679.86
3664.69 3617.98 3553.02 3530.73 3549.15 3566.19 3588.69 3643.64 3730.43 3797.96
3823.55 3897.39 3941.92 3991.76 4040.08 4120.48 4178.3 4215.51 4217.77 4225
4203.42 4186.56 4156.33 4128.69 4121.83 4134.07 4159.82 4205.23 4259.13 4332.2
4384.92 4414.37 4395.27 4360.87 4322.07 4292.51 4271.72 4260.81 4267.7 4293.48
4335.04 4394.24 4454.21 4533.09 4554.66 4524.64 4445.05 4411.98 4376.32 4381.87
4392.71 4396.32 4409.42 4481.49 4552.23 4565.36 4506.54 4459.37 4447.07 4480.33
4534.84 4540.32 4529.64 4533.57 4560.96 4542.01 4494.73 4445.03 4382.75 4310.19
4253.08 4247.39 4256.68 4231.52 4167.15 4123.55 4035.89 4001.71 3967.95 3999.58
4049.84 4125.49 4197.33 4270.99 4336.36 4402.03 4463.73 4469.85 4459.46 4450.86
4458.29 4465.3 4464.56 4475.63 4469.18 4412.69 4357.61 4327.05 4319.6 4334.14
4344.24 4332.07 4306.81 4268.15 4220.28 4199.95 4196.27 4174.87 4148.47 4105.5
4053.97 4009.65 3983.12 3941.51 3904.88 3916.45 3931.83 3932.6 3924.91 3914.86
3927.84 3929.35 3931.39 3941.7 3952.76 3956.77 3977.14 4003.95 4025.72 4057.74
4079.86 4108.11 4125.28 4145.18 4154.96 4169.26 4203.54 4227.05 4257.89 4302.95
4370.39 4428.95 4421.02 4368.92 4317.23 4271.51 4239.17 4245.91 4241.51 4222.29
4191.42 4158.11 4110.97 4069.76 4026.82 4011.5 4010.48 4028.32 4055.48 4073.77
4080.21 4072.07 4051.02 4008.22 3928 3880.68 3806.68 3794.01 3802.44 3775.77
3729.21

3145.01 3147.28 3150 3155.01 3155.34 3157.39 3162.27 3164 3169.64 3174
3173.96 3176.01 3179.05 3185.85 3188.79 3194 3197.01 3202.56 3203.93 3209.23
3218.53 3221.55 3226.13 3234.15 3239.72 3245.34 3251 3257.23 3264.19 3272.18
3277.33 3283.52 3288.58 3297.01 3304.81 3307.74 3311.59 3321.34 3323.53 3328.42
3337.39 3343.16 3350.18 3360.26 3368.05 3375.23 3383.83 3385.22 3390.28 3392.34
3395.9 3404.9 3412.01 3419 3431.44 3454.31 3470.83 3489.97 3501.31 3526.55
3540.07 3543.19 3548.07 3569.42 3560.18 3521.95 3555.68 3591.33 3611.48 3607.61
3579.33 3571.85 3559.32 3556.77 3556.58 3562.03 3576.38 3582.67 3603.89 3616.37
3632.93 3648.93 3663.13 3676.37 3719.33 3741.79 3771.58 3761.63 3778.82 3809.52
3825.38 3837.75 3862.36 3882.04 3885.32 3876.41 3872.93 3893.32 3926.99 3948.63
3978.14 4003.57 4038.77 4078.69 4119.45 4175.65 4243.29 4304.88 4340.76 4322.91
4293.41 4282.67 4271.3 4251.57 4198.32 4135.73 4077.52 4035.82 3997.91 3952.32
3926.24 3880.91 3837.73 3806.17 3801.34 3768.37 3714.01 3719.74 3666.78 3611.18
3609.41 3587.95 3545.68 3532.66 3555.51 3576.34 3600.84 3645.47 3707.43 3743.89
3817.32 3872.85 3925.89 3990.38 4050.7 4119.36 4179.61 4242.65 4279.85 4291.3
4268.63 4242 4210.07 4181.61 4158.71 4146.81 4158.69 4186.6 4232.3 4296.59
4372.37 4416.67 4417.87 4408.93 4370.53 4335.07 4309.35 4291.83 4270.57 4286.2
4313.69 4370.07 4430.04 4506.01 4551.62 4532.92 4453.12 4431.67 4406.82 4407.3
4411.72 4410.22 4418.92 4465.91 4539.1 4580.38 4580.33 4521.47 4487.27 4483.42
4553.02 4562.83 4550.99 4565.18 4614.98 4610.12 4548 4464.56 4400.55 4326.7
4303.04 4324.04 4323.28 4262.66 4211.46 4141.02 4075.3 4027.72 3986.32 4001.27
4042.11 4104.08 4177.59 4243.95 4310.67 4384.55 4469.68 4502.41 4517.45 4518.56
4526.49 4525.43 4517.1 4492.33 4479.19 4426.01 4354.76 4311.31 4302.59 4312.45
4307.98 4276.07 4260 4246.15 4210.8 4194.25 4175.61 4151.69 4111.48 4087.68
4041.01 4003.91 3968.54 3933.54 3922.13 3934.5 3947.29 3949.87 3946.04 3939.13
3939.87 3942.46 3950.33 3963.13 3971.33 3984.55 4007.67 4030.68 4055.46 4085.28
4106.62 4141.23 4165.97 4184.19 4193.71 4206.38 4237.73 4240.31 4249.98 4298.23
4364.51 4424.57 4407.84 4338.82 4288.23 4235.08 4198.09 4190.6 4216.34 4223.41
4198.37 4187.97 4142.05 4085.81 4027.51 3978.91 3978.37 3992.35 4007.87 4047.06
4082.4 4089.64 4078.36 4020.31 3960.61 3900.76 3834.71 3757.69 3753.28 3746.6
3694.14

3147 3150.25 3154.23 3157.7 3159.78 3160.96 3162 3164.11 3170 3173.88
3177.17 3178.24 3184.45 3187.21 3192.01 3194.07 3198.5 3203.73 3208 3212.26
3217.26 3224.08 3227.15 3237 3239.18 3246.31 3253 3260.96 3267 3277.36
3280.64 3291.34 3295.95 3302.8 3308.3 3314.4 3321.57 3324.98 3333.94 3336.26
3341.55 3346.92 3356.06 3366.14 3374.29 3380.44 3393.41 3401.69 3403.05 3400.77
3413.73 3426.14 3437.33 3447.43 3461.26 3484.1 3499.65 3517.37 3536.61 3570.51
3587.59 3588.26 3579.92 3605.26 3590.05 3546.18 3570.8 3599.66 3639.11 3636.77
3607 3626.02 3613.3 3599.88 3584 3587.49 3605.93 3603.13 3599.32 3611.89
3626.13 3635.18 3651.39 3670.89 3698.74 3709.24 3723.86 3731.75 3742.67 3764.35
3789.71 3796.92 3820.91 3828.23 3836.16 3876.58 3899.48 3927.8 3959.11 3988.32
4020.86 4042.77 4065.88 4095.53 4144.98 4212.18 4270.29 4329.99 4389.89 4366.72
4345.87 4343.87 4329.35 4274.13 4200.09 4155.37 4107.84 4082.86 4024.34 4001.89
3959.81 3919.79 3899.48 3840.7 3787.95 3778.33 3769.9 3738.09 3689.24 3628.94
3589.05 3571.16 3535.58 3536.01 3562.9 3580.11 3626.27 3673 3708.24 3738.57
3793.04 3867.43 3912.38 3967.79 4030.77 4096.64 4166.64 4245.32 4307.57 4342.45
4327.74 4294.59 4262.47 4248.08 4216.39 4179.29 4172.38 4184.72 4218.22 4265.36
4328.4 4383.92 4424.81 4439.23 4433.27 4387.18 4347.29 4310.48 4289.52 4286.8
4306.02 4334.93 4389.1 4468.05 4515.84 4518.76 4472.39 4433.68 4424.08 4426.74
4421.99 4422.92 4424.01 4438.07 4493.88 4573.67 4615.42 4607.11 4553.9 4541.54
4586.85 4595.29 4583.17 4596.94 4636.12 4641.75 4563.68 4492.39 4432.72 4367.57
4347.06 4365.32 4361.47 4306.43 4249.06 4176 4115.11 4054.59 4009.6 3995.43
4050.49 4112.58 4177.42 4227.93 4283.43 4365.02 4432.98 4487.38 4520.66 4550.13
4574.11 4573.56 4554.45 4511.87 4465.24 4404.62 4348.06 4291.33 4282 4282.54
4269.61 4227.44 4203.55 4203.25 4188.25 4173.53 4148.11 4114.47 4077.83 4055.08
4021.82 3984.72 3955.19 3934.46 3949.19 3963.72 3967.28 3968.74 3970 3961.35
3958.84 3967.51 3972.14 3983.34 3990.64 4001.92 4028.28 4058.53 4083.39 4129.7
4141.23 4170.05 4206.94 4239.38 4246.56 4259.86 4268.34 4254.74 4257.01 4311.01
4373.18 4380.72 4377.06 4333.24 4274.22 4214.45 4178.01 4162.99 4177.34 4181.59
4180.9 4174.3 4143.73 4104.64 4043.01 3958.27 3949.58 3960.04 3965.88 4001.47
4042.42 4076.33 4076.97 4024.26 3966.49 3905.23 3834.62 3759.25 3711.7 3701.96
3669.56

3150 3151.98 3154.06 3160.95 3161.83 3163 3167.67 3169 3173 3175.43
3178.54 3181.37 3185.49 3187.43 3191.89 3198.25 3201 3207 3208 3214.95
3220.24 3227.05 3232.47 3237.08 3242.71 3249.48 3256.59 3264.23 3272.38 3279.55
3287.99 3294.53 3301.55 3311 3313.17 3319.17 3327.21 3334.15 3339.9 3344.25
3349.42 3355.48 3357.57 3370.64 3380.84 3390.25 3401.38 3411.45 3416.56 3418.44
3430.64 3442.75 3458.37 3475.98 3503.93 3527.13 3529.21 3544.81 3576.29 3630.65
3643.64 3628.32 3631.42 3638.21 3617.23 3567.97 3595.47 3623.93 3658.76 3664.53
3644.53 3657.54 3654.17 3641.96 3601.68 3622.5 3652.26 3653.63 3631.57 3658.44
3686.03 3693.58 3696.34 3683.81 3687.21 3698.41 3703.99 3724.62 3731.23 3749.95
3762.23 3781.64 3821.24 3854.88 3881.84 3918.66 3952.11 3985.79 4011.45 4046.59
4071.87 4089.97 4118.18 4130.61 4160.04 4214.13 4301.21 4363.88 4429.2 4418.9
4405.01 4400.44 4365.72 4287.35 4239.93 4193.96 4149.17 4092.92 4086.83 4048.95
3996.35 3967.26 3914.78 3853.02 3834.43 3842.47 3816.97 3767.22 3689.85 3629.23
3589.55 3557.51 3531.51 3541.78 3561.55 3593.7 3666.55 3725.64 3775.93 3814.61
3842.38 3871.35 3907.99 3964.67 4023.13 4086.52 4156.76 4225.77 4304.74 4347.54
4361.12 4349.11 4330.78 4309.12 4280.37 4232.25 4210.73 4207.24 4214.99 4245
4288.91 4339.24 4379.93 4435.98 4459.24 4440.81 4394.38 4339.53 4304.83 4298.45
4311.33 4326.48 4358.49 4428.19 4498.39 4521.54 4501.5 4442.94 4439.94 4427.86
4422.85 4428.85 4433.1 4447.62 4468.12 4533.6 4620.33 4649.22 4630.98 4608.03
4630.49 4634.29 4613.9 4620.54 4672.72 4657.71 4595.74 4537.67 4481.49 4426.96
4417.33 4427.99 4405.63 4364.45 4278.95 4206.81 4131.65 4066.94 4032.3 3997.02
4047.38 4108.98 4165.73 4213.19 4272.91 4337.52 4385.54 4433.55 4488.64 4546.48
4574.33 4576.04 4549.42 4496.62 4435.51 4376.17 4321.32 4283.49 4271.73 4255.59
4227.76 4195.54 4167.29 4148.9 4133.53 4124.03 4106.49 4077.56 4050 4020.94
3998.57 3965.44 3941.2 3949.63 3970.78 3979.04 3989.65 3988.21 3987.59 3986.79
3991.56 4002.46 4005.16 4012.44 4021.07 4029.45 4038.34 4061.38 4098.91 4148.37
4179.44 4206.75 4243.16 4288.67 4312.13 4306.01 4292.04 4270.48 4280.94 4315.44
4337.66 4323.38 4315.91 4306.28 4275.75 4212.57 4163.82 4143.22 4123.28 4122.74
4113.75 4101.3 4105.87 4102.34 4061.97 3991.22 3918.57 3915.95 3929.36 3944.94
3985.55 4032.59 4045.67 4013.04 3964.7 3887.57 3810.92 3762.6 3692.49 3654.17
3636.53

3152 3154.9 3155.33 3160.99 3163.63 3165.97 3169 3169.67 3174 3176.86
3179.98 3184 3188.19 3193.87 3196.85 3198.01 3203.04 3206.52 3210.81 3218.01
3224 3229.27 3233.24 3239.01 3252.41 3253.07 3262 3266.71 3278.09 3283.2
3292.05 3296.19 3306.74 3313.07 3320.41 3326.34 3331.5 3339.02 3345.01 3350.03
3355.29 3363.7 3366.55 3372.02 3384.17 3393.59 3406.67 3418.45 3431.56 3441.17
3458.71 3468.14 3480.84 3500.52 3535.22 3571.96 3579.06 3588.39 3626.93 3666.01
3668.9 3659.05 3670.17 3649.04 3615.05 3591 3612.57 3651.16 3676.18 3690.78
3686.61 3680.89 3680.92 3648.24 3630.98 3660.99 3703.12 3710.01 3683.19 3699.72
3745.22 3772.19 3771.2 3737.21 3747.26 3764.52 3746.87 3767.91 3782.5 3770.86
3796.23 3821.65 3868.18 3902.64 3938.59 3984.69 4014.24 4052.81 4074.37 4095.84
4128.03 4152.83 4177.05 4203.04 4217.31 4241.55 4320.92 4395.7 4435.81 4428.58
4409.71 4404.96 4383.55 4345.03 4286.67 4233.76 4175.19 4145.48 4126.5 4071.26
4021.32 3967.12 3917.15 3910.42 3908.21 3881.79 3828.59 3760.94 3689.04 3623.98
3566.42 3538.02 3540.01 3548.34 3564.63 3618.05 3709.43 3767.17 3824.17 3865.31
3895.9 3920.24 3973.24 4017.24 4060.74 4111.66 4159.67 4216.68 4277.61 4325.64
4363.24 4384.52 4386.31 4368.86 4338.56 4301.58 4261.97 4234.02 4231.66 4236.37
4256.61 4292.85 4333.92 4390.38 4456.54 4457.28 4425.78 4373.64 4327.93 4311.98
4322.14 4345.59 4356.23 4395.4 4483.23 4532.08 4543.11 4485.59 4470.12 4459.25
4421.85 4431.38 4447.77 4476.9 4477.68 4528.96 4612.61 4677.79 4693.2 4669.11
4672.95 4669.45 4672.11 4677.8 4697.57 4686.42 4643.71 4592.4 4545.87 4494.6
4492 4492.88 4436.92 4364.44 4309.36 4228.74 4144.85 4088.01 4046.08 4007.08
4037.24 4084.42 4146.08 4210.09 4275.13 4332.24 4346.7 4391.37 4461.31 4515.44
4523.96 4521.86 4487.24 4441.76 4393.68 4340.91 4300.16 4268.37 4250 4216.87
4186.78 4157.71 4124.19 4103.35 4093.38 4077.9 4065.89 4043.86 4024.16 4002.22
3975.14 3955.2 3958.75 3972.67 3989.22 3992.74 4003.14 4011.98 4014.81 4014.6
4008.98 4031.87 4040.75 4044.06 4051.14 4061.37 4061.47 4066.13 4102.14 4156.07
4198.92 4240.42 4266.96 4311.91 4350.55 4346.18 4297.88 4294.02 4311.14 4348.26
4336.27 4271.16 4251.12 4251.28 4229.07 4190.9 4144.5 4123.53 4099.89 4087.42
4083.18 4070.65 4056.75 4065.36 4063.96 4024.47 3935.68 3878.04 3887.96 3899.09
3939.06 3998.48 4015.05 3996.94 3933.41 3859.05 3789.65 3732.75 3684.23 3650.29
3622.71

3155.99 3157.02 3159.46 3160.27 3166 3167.37 3172.54 3173.33 3175 3179.1
3184 3190.27 3191.43 3195.09 3197.96 3199.72 3204.72 3211.53 3216 3219.38
3225.61 3231.02 3236.56 3245.88 3251.26 3254 3261 3273.7 3278.18 3285.98
3294.31 3301.94 3308.76 3318.6 3330.43 3333.41 3338.14 3345.84 3350.51 3358.52
3365.21 3371.39 3376.25 3381.09 3387.4 3399.29 3412.4 3427.8 3440.07 3453.37
3484.26 3508.28 3509.75 3524 3559.47 3595.31 3621.9 3636.08 3669.22 3708.3
3711.72 3712.09 3703.31 3650.98 3655.42 3641.22 3626.18 3682.59 3699.16 3724.14
3727 3708.88 3694.55 3647.53 3687.35 3715.04 3749.38 3770.58 3720.03 3721.54
3788.33 3822.42 3816.18 3794.59 3760.11 3797.66 3799 3781.23 3802.35 3793.37
3808.66 3841.56 3888.63 3948.25 3996.91 4024.9 4059.22 4093.7 4130.36 4146.92
4173.29 4205.23 4237.34 4266.99 4277.63 4292.03 4350.65 4421.48 4422.4 4395.28
4344.34 4370.31 4383.51 4365.23 4315.81 4253.46 4226.51 4209.76 4153.56 4085.75
4021.79 3995.76 3991.89 3974.46 3955.71 3901.58 3828.52 3751.12 3688.59 3630.06
3560.15 3542.33 3550.61 3564.52 3595.22 3649.12 3738.22 3790.71 3834.51 3892.93
3929.46 3959.64 3985.39 4030.93 4065.98 4101.56 4128.43 4173.4 4209.94 4265.72
4336.97 4380.35 4391.52 4397.11 4392.56 4360.09 4320.39 4280.57 4259.29 4248.12
4252.63 4263.22 4300.53 4362.26 4423.12 4463.96 4474.98 4432.75 4366.33 4345.32
4353.65 4371.75 4377.45 4392.3 4460.17 4523.99 4558.42 4539.68 4490.3 4475.62
4438.51 4441.03 4489.36 4520.1 4507.52 4529.8 4590.23 4673.62 4690.85 4667.6
4670.71 4677.3 4709.08 4716.82 4708.11 4681.3 4643.4 4598.02 4571.04 4542.37
4523.35 4511.95 4459.47 4382.17 4315.76 4241.59 4159.93 4090.71 4056.87 4017.56
4045.93 4081.61 4139.43 4206.93 4263.77 4327.28 4332.92 4376.06 4439.12 4487.6
4491.52 4456.83 4419.81 4387.76 4342.27 4298.75 4265.1 4227.97 4200.89 4171.18
4152.28 4127.82 4101.04 4083.75 4062.41 4044.25 4033.72 4015.24 4003.7 3992.49
3970.57 3973.21 3979.85 3987 4005.12 4015.94 4024.42 4038.55 4037.15 4033.2
4035.15 4057.75 4071.44 4084.56 4098.01 4113.94 4109.28 4098.05 4100.88 4152.18
4202.56 4246.03 4270.76 4314.05 4358.17 4366.68 4333.03 4316.65 4334.34 4368.64
4353.28 4286.08 4235.74 4218.37 4200.58 4194.2 4160.97 4110.17 4092.85 4056.31
4063.69 4044.8 4031.96 4017.26 4034.36 4023.79 3957.94 3873.57 3837.37 3857.31
3900.41 3948.12 3968.79 3931.31 3878.06 3812.4 3766.97 3701.92 3652.11 3627.19
3608.24

3157.3 3161.26 3163.05 3165.09 3169.79 3172.8 3174.98 3176.43 3178.96 3182.13
3186.1 3190.49 3192.83 3197.83 3200 3206.08 3210.36 3212.86 3218.34 3221.3
3227.27 3232.01 3239.67 3247.8 3255.01 3257.82 3268 3277.94 3282.06 3290.59
3302.33 3305.55 3318.1 3320.75 3330.47 3338.01 3343.93 3353.04 3359.07 3369.32
3374.46 3379.77 3388.84 3391.95 3396.39 3408.33 3429.38 3444.72 3459.4 3466.09
3506.05 3543.31 3553.56 3541.19 3589.5 3636.09 3678.97 3702.67 3714.76 3751.38
3766.95 3761.36 3721.56 3697.28 3705.18 3673.31 3634.81 3704.56 3741.07 3753.84
3749.44 3726.94 3705.05 3665.2 3708.95 3755 3793.79 3794.62 3762.61 3739.84
3792.01 3844.2 3852.41 3829.97 3779.64 3842.43 3828.21 3809.55 3827.68 3831.97
3821.34 3873.24 3917.14 3981.99 4030.48 4070.17 4105.12 4138.12 4177.5 4211.06
4219.18 4264.42 4287.17 4323.51 4342.81 4352.28 4404.65 4447.92 4432.67 4370.11
4319.63 4306.98 4344.84 4343.34 4318 4267.31 4255.46 4212.89 4149.99 4098.1
4078.21 4053.12 4004.6 3983.15 3955.43 3907 3835.26 3755.01 3692.29 3639.29
3572.71 3544.99 3554.25 3566.64 3602.31 3663.77 3730.82 3776.52 3840.36 3890.95
3914.51 3940.3 3953.7 3978.38 4017.26 4034.89 4062.86 4103.92 4158.18 4220.27
4277.82 4321.41 4347.66 4396.21 4404.8 4391.4 4357.12 4322.85 4296.16 4273.69
4264.68 4273.6 4276.61 4315.42 4389.85 4464.39 4489.72 4480.2 4416.61 4372.57
4367.94 4382.08 4380.29 4395.8 4448.79 4499.95 4545.85 4551.45 4533.8 4473.31
4449.82 4467.94 4523.75 4565.65 4534.78 4537.14 4611.45 4653.15 4635.92 4600.73
4620.34 4657.35 4706.33 4711.31 4696.53 4631.63 4576.88 4555.29 4541.96 4537.06
4514.67 4489.58 4457.81 4393.71 4325.42 4244.83 4171.52 4096.62 4061.47 4024.86
4053.31 4088.86 4137.15 4182.76 4234.68 4279.9 4327.05 4397.26 4442.83 4465.01
4434.38 4409.98 4363.36 4332.4 4300.55 4258.56 4215.97 4191.89 4160.04 4138.42
4117.9 4101.38 4084.83 4063.14 4044.25 4023.01 4012.85 4006.25 4006.27 3997.87
3993.68 3997.41 4005.77 4007.8 4021.66 4033.54 4047.36 4065.2 4064.49 4050.21
4052.43 4075.34 4103.33 4137.12 4152.05 4169.05 4159.72 4142.02 4131.9 4136.67
4191.79 4229.83 4261.27 4286.86 4352.08 4382.47 4378.63 4355.75 4349.67 4377.73
4383.68 4334.57 4272.69 4220.03 4204 4193.64 4162.2 4124.37 4076.86 4046.28
4037.93 4025.53 3982.76 3979.35 3957.56 3964.38 3941.81 3859.12 3814.59 3829.59
3858.19 3888.35 3915.73 3882.97 3830.98 3780.09 3731.8 3670.03 3633.27 3610.17
3584.41

3160.93 3162 3164.95 3168.02 3171.88 3174.64 3175.2 3177.97 3182.62 3187.26
3188 3190.41 3197.86 3202.65 3203.18 3208.31 3211 3219 3224 3228.03
3229.06 3234.46 3241.99 3248.78 3256.03 3261.46 3270.61 3278.6 3286.01 3295.45
3303.55 3310.11 3322.29 3328.45 3335.48 3343.5 3350.61 3359.68 3365.22 3372.24
3381.28 3390.82 3394.97 3401.09 3407 3419.39 3445.2 3456.12 3465.77 3476.35
3505.63 3543.13 3563.94 3567.92 3590.21 3653.44 3712.27 3750.9 3774.13 3801.32
3804.44 3775.81 3730.26 3747.02 3749.28 3711.87 3645.6 3699.7 3761.92 3781.3
3775.77 3738.29 3716.99 3677.9 3715.29 3776.03 3814.72 3833.78 3806.98 3760.84
3802.78 3840.61 3857.76 3841.29 3812.52 3864.65 3867.7 3843.99 3873.71 3893.38
3865.15 3883.21 3933.8 3987.56 4057.78 4115.78 4148.74 4195.88 4230.92 4262.87
4264.27 4298.98 4334.44 4368.66 4398.47 4407.56 4453.09 4468.46 4433.23 4361.03
4306.48 4285.45 4292.36 4278.49 4251.35 4241.55 4223.58 4174.89 4158.79 4154.33
4128.22 4081.92 4028.86 3963 3916.91 3883.87 3828.49 3755.05 3680.56 3632.32
3563.07 3544.36 3557.42 3575.23 3588.61 3624.19 3682.17 3736.51 3807.21 3840.1
3837.54 3851.69 3883.09 3921.83 3972.65 3999.15 4035.38 4079.18 4115.6 4164.66
4224.05 4253.07 4287.63 4341.64 4388.06 4389.73 4391.5 4372.47 4358.28 4311.72
4287.83 4276.83 4287.92 4301.19 4369.83 4443.67 4500.28 4515.47 4459.7 4417.57
4382.62 4384.24 4388.33 4386.49 4408.96 4446.82 4495.38 4548.1 4542.75 4499.26
4466.94 4505.49 4566.75 4597.77 4574.25 4569.78 4627.43 4644.96 4600.02 4549.55
4561.79 4595.5 4625.27 4647.38 4652.36 4592.75 4542.7 4510.24 4459.84 4459.25
4438.39 4411.05 4388.03 4359.99 4305.79 4235.26 4160.01 4105.7 4070.83 4035.18
4052.7 4090.01 4141.7 4198.06 4249.29 4284.07 4334.44 4396.67 4426.43 4419.39
4392.51 4344.67 4314.48 4280.24 4247.45 4215.03 4188.07 4160.67 4134.11 4109.58
4102.09 4093.17 4081.33 4054.33 4042.08 4044.48 4048.35 4044.42 4036.45 4024.15
4018.53 4018.28 4027.77 4040.14 4045.57 4060.24 4066.04 4088.89 4085.99 4071.15
4073.24 4095.87 4123.92 4165.1 4211.89 4229.72 4221.46 4199.15 4168.54 4151.28
4184.16 4220.59 4259.52 4274.49 4324.04 4385.98 4415.69 4408.07 4402.92 4414.87
4423.95 4372.87 4323.95 4256.81 4200.83 4180.13 4159.43 4127.49 4082.66 4041.94
4015.82 4008.25 3979.9 3928.99 3907.98 3881.68 3888.11 3856.43 3803.85 3796.71
3818.84 3848.61 3869.83 3848.96 3794.23 3746.67 3689.02 3645.49 3614.21 3581.87
3571.71

3163.66 3165 3168.03 3174.6 3173.81 3180 3180.7 3184.99 3185.93 3191.79
3189.65 3193.23 3198.12 3204 3207 3211 3214.96 3219 3224.39 3228.04
3232.67 3240 3246 3250.5 3257.46 3265.44 3272.48 3280.16 3288.3 3297.19
3304.18 3316.28 3326.01 3334.91 3341.2 3349.84 3359.91 3365.91 3376.11 3381.85
3387.66 3395.08 3404.35 3411.19 3414.66 3430.91 3450.34 3467.25 3476.5 3493.42
3499.12 3509.02 3562.86 3592.19 3614.29 3659.07 3729.16 3769.74 3821.95 3836.16
3825.65 3787.95 3788.5 3799.01 3793.88 3749.51 3679.22 3691.36 3763.8 3808.87
3799.82 3762.04 3737.9 3690.55 3743.11 3777.94 3811.25 3837.32 3819.19 3765.98
3808.38 3847.08 3876.76 3874.22 3865.13 3903.38 3911.68 3880.84 3937.58 3956.95
3944.53 3894.34 3941.83 3988.02 4055.51 4115.75 4165.18 4213.64 4257.75 4284.79
4313.01 4341.11 4381.86 4422.64 4446.38 4456.94 4478.64 4465.76 4396.98 4329.79
4288.2 4271.59 4263.82 4228.01 4185.62 4159.47 4139.44 4123.82 4143.83 4154.4
4136.43 4111.55 4067.91 3991.21 3925.51 3845.7 3771.85 3727.93 3660.84 3606.87
3555.13 3548.98 3566.78 3607.06 3604.99 3596.03 3642.16 3697.55 3750.19 3760.31
3767.07 3808.26 3849.73 3896.22 3941.28 3997.39 4055.57 4121.48 4154.89 4174.5
4196.95 4223.21 4255.03 4292.85 4334.41 4389.07 4439.17 4445.79 4407.3 4358.3
4322.74 4295.28 4293.84 4302.11 4359 4420.56 4500.79 4530.94 4512.43 4473.33
4430.03 4406.66 4406.24 4400.27 4414.17 4436.15 4462.32 4510.38 4549.37 4541.27
4505.99 4549.21 4611.26 4649.22 4635.8 4612.91 4666.17 4653.94 4581.37 4520.99
4506.52 4525.01 4559.21 4585.66 4587.02 4556.59 4495 4435.58 4383.98 4377.67
4366.92 4322.73 4316.16 4304.48 4251.69 4202.23 4151.49 4111.92 4075.93 4049.92
4067.8 4089.51 4125.21 4178.28 4232.25 4272.1 4320.9 4357.11 4380.76 4378.17
4333.82 4305.27 4268.19 4239.08 4211.5 4182.25 4163.52 4130.33 4104.77 4102.9
4099.73 4093.78 4088.95 4099.83 4099.11 4096.35 4085.03 4062.1 4067.16 4053.4
4044.69 4044.03 4048.1 4070.93 4079.96 4091.64 4100.94 4111.75 4108.24 4096.55
4089.49 4113.62 4137.08 4177.15 4231.56 4281.4 4282.42 4252.37 4213.86 4187.54
4191 4224.28 4246.66 4277.12 4329.21 4394.06 4437.6 4434.74 4424.9 4415.55
4423.26 4373.82 4347.39 4286.6 4231.55 4185.8 4159.42 4130.72 4092.25 4037.79
4006.33 4006.57 3992.21 3943 3931.24 3919.67 3871.81 3829.45 3793.34 3772.9
3777.74 3821 3831.3 3812.28 3778.16 3730.63 3675.15 3629.96 3592.27 3571.2
3572.68

3163.55 3169.59 3174.42 3175.25 3178.35 3182.92 3184.29 3186.53 3190.1 3192.96
3198.79 3199 3198.07 3203.89 3208.93 3214.11 3218.1 3224.86 3226.82 3231.98
3236.67 3243.75 3248.15 3257.82 3261.42 3270.31 3278.52 3286.08 3292.05 3301.93
3308.12 3318.31 3329.64 3339.6 3349.08 3358.83 3365.62 3375.12 3382.08 3388.5
3397.39 3401.94 3411.02 3420.32 3428.31 3434.99 3450.78 3468.63 3482.86 3501.62
3514.32 3522.31 3543.08 3592.76 3646.99 3681.57 3717.29 3778.89 3831.64 3856.02
3848.31 3819.65 3839.55 3841.52 3818.88 3772.22 3688.21 3721.31 3789.81 3833.34
3823.68 3799.4 3754.35 3703.36 3766 3792.74 3811.8 3833.13 3840.88 3826.28
3819.89 3839.35 3893.54 3915.32 3917.08 3951.63 3952.62 3924.66 3971.11 4019.07
4008.29 3959.02 3943.59 3982.28 4038.59 4085.02 4150.81 4210.31 4254.86 4292.09
4324.06 4350.46 4389.35 4440.5 4479.15 4492.65 4484.96 4449.95 4375.65 4317.62
4279.1 4250.16 4232.96 4184.09 4146.08 4125.01 4095.17 4080.51 4079.13 4094.83
4119.66 4112.7 4077.82 4011.8 3937.58 3889.15 3811.33 3725.18 3649.6 3589.58
3556.49 3554.16 3593.58 3653.37 3661.45 3638.27 3617.17 3653.27 3696.35 3723.76
3781.08 3846.22 3894.16 3941.97 3996.04 4032.08 4097.94 4163.56 4214.73 4233.06
4242.25 4253.46 4266.24 4289.31 4326.29 4392.62 4470.62 4491.71 4456.08 4408.49
4368.96 4328.43 4315.86 4315.43 4342.46 4412.13 4476.32 4525.43 4545.46 4540.23
4500.44 4468.52 4439.27 4418.82 4424.96 4437.32 4457.72 4500.44 4562.39 4574.03
4557.9 4587.8 4637.98 4693.75 4700.47 4673.53 4687.6 4661.08 4588.47 4522.44
4485.7 4478.85 4497.18 4533.7 4537.66 4509.38 4461.65 4401.69 4365.9 4343.59
4321.78 4298.7 4253.12 4226.3 4203.97 4165.03 4139.86 4114.54 4075.85 4067.37
4091.54 4112.71 4129.11 4157.11 4196.26 4230.38 4265.84 4299.96 4324.15 4327.58
4290.01 4267.41 4231.59 4205.35 4178.68 4160.36 4136.83 4137.51 4145.48 4151.81
4153.29 4162.43 4154.05 4121.06 4142.23 4140.92 4122.5 4093.48 4102.91 4097.04
4075.6 4090.59 4081.07 4101.12 4118.87 4119.3 4143.62 4143.08 4138.16 4111.93
4104.33 4123.07 4139.7 4167.44 4224.65 4288.4 4312.67 4306.85 4260.63 4231.48
4229.96 4247.94 4264.64 4287.45 4351.99 4402.02 4426.23 4413.61 4384.98 4365.27
4360.91 4339.66 4337.56 4306.58 4258.92 4227.16 4185.25 4143.2 4104.62 4055.3
4008.79 3973.78 3959.57 3934.49 3925.84 3918.94 3896.38 3861.46 3809.84 3769.36
3743.48 3775.44 3794.92 3789.37 3755.08 3715.34 3666.21 3611.46 3575.22 3565.66
3571.3

3168.96 3172.43 3175.37 3179 3183.65 3184.08 3188.28 3192.48 3193.82 3197.91
3199.97 3203.17 3202.5 3205.27 3209.94 3217 3224.14 3227 3232.79 3237.9
3241.13 3249.08 3252.62 3259.15 3264.8 3271.96 3279.77 3287 3298.78 3304.56
3314.99 3321.71 3335.05 3345.22 3355.56 3363.28 3372.83 3379.99 3388 3397.47
3401.88 3412.23 3420.8 3428.95 3435.33 3451.44 3464.16 3473.56 3486.65 3508.12
3525.1 3537.97 3543.83 3573.2 3647.48 3699.66 3750.11 3791.26 3842.24 3866.17
3864.88 3860.78 3880.28 3872.14 3830.69 3771.21 3706.72 3734.7 3800.28 3840.43
3844.23 3820.73 3765.43 3721.91 3768.49 3809.81 3828.46 3863.39 3892.12 3892.2
3889.14 3888.96 3907.19 3963.31 3980.71 4013.61 4003.68 3970.24 4027.31 4075.2
4075.08 4045.02 4011.91 3989.76 4019.71 4055.6 4100.61 4151.96 4209.89 4245.76
4278.85 4313.29 4368.22 4426.73 4467.36 4495.2 4472.52 4413.66 4353.91 4299.63
4264.87 4226.68 4208.73 4161.09 4118.05 4093.5 4064.61 4043.04 4031.94 4023.84
4070.67 4094.6 4084.59 4013.76 3940.59 3908.71 3822.58 3722.56 3644 3585.88
3558.16 3565.65 3624.25 3684.44 3723.12 3709.04 3665.09 3636.5 3668.12 3719.01
3767.25 3833.22 3891.54 3944.08 3995.17 4021.14 4097.62 4170.09 4233.19 4235.63
4243.69 4243.7 4261.84 4291.87 4332.65 4400.82 4484.15 4510.38 4502.49 4470.91
4418.05 4367.03 4333.46 4331.34 4340.81 4378.92 4433.5 4500.26 4551.77 4562.13
4569.99 4537.84 4503.8 4459.46 4446.69 4441.54 4457.13 4495.75 4558.46 4596.76
4609.95 4633.38 4669.55 4720.61 4744.59 4721.3 4707.94 4652.58 4579.18 4504.75
4458.53 4453.01 4456.42 4475 4472.27 4450.26 4413.6 4393.7 4371.41 4344.48
4309.23 4266.73 4232.14 4202.06 4187.24 4159.09 4138.07 4111.26 4079.61 4089.52
4114.14 4137.73 4154.38 4159.06 4180.89 4202.58 4224.19 4260.13 4282.24 4276.98
4249.12 4228.33 4205.82 4182.67 4162.06 4161.18 4171.71 4179.84 4194.36 4217.94
4214.95 4218.87 4195.45 4164.18 4186.58 4184 4150.7 4134.57 4143.93 4124.95
4115.58 4127.58 4122.9 4125.16 4150.36 4155.54 4183.03 4190.97 4166.42 4135.83
4118.41 4122.49 4140.42 4155.54 4203.43 4273.75 4322.52 4323.07 4294.24 4285.93
4287.88 4293.44 4302.64 4312.71 4376.25 4388.59 4370.2 4338.06 4311.65 4310.83
4288.02 4272.85 4262.95 4274.94 4261.33 4248.72 4208.54 4166.18 4112.87 4063.6
4010.6 3979.48 3939.53 3923.66 3907.46 3895.06 3892.46 3860.02 3810.97 3770.96
3738.37 3734.13 3761.88 3762.6 3742.44 3700.83 3651.16 3602.69 3565.89 3565.14
3572.27
